<?xml version="1.0" encoding="UTF-8"?>
<map version="1.10" tiledversion="1.12.2" orientation="orthogonal" renderorder="right-down" width="26" height="26" tilewidth="32" tileheight="32" infinite="0" nextlayerid="20" nextobjectid="112">
 <editorsettings>
  <export format="tmx"/>
 </editorsettings>
 <tileset firstgid="1" source="A_WaterFall_pipo.tsx"/>
 <tileset firstgid="577" name="Base_BaseChip_pipo" tilewidth="32" tileheight="32" tilecount="1064" columns="8">
  <image source="../images/Base_BaseChip_pipo.png" width="256" height="4256"/>
  <tile id="16">
   <objectgroup draworder="index" id="2">
    <object id="1" x="31" y="22"/>
   </objectgroup>
  </tile>
  <tile id="17">
   <objectgroup draworder="index" id="2">
    <object id="1" x="0.666667" y="21.6667"/>
   </objectgroup>
  </tile>
  <tile id="18">
   <objectgroup draworder="index" id="2">
    <object id="1" x="28.3333" y="22"/>
   </objectgroup>
  </tile>
  <tile id="19">
   <objectgroup draworder="index" id="2">
    <object id="1" x="1" y="22"/>
   </objectgroup>
  </tile>
  <tile id="20">
   <objectgroup draworder="index" id="2">
    <object id="1" x="27.3333" y="22.3333"/>
   </objectgroup>
  </tile>
  <tile id="21">
   <objectgroup draworder="index" id="2">
    <object id="1" x="1" y="22"/>
   </objectgroup>
  </tile>
  <tile id="22">
   <objectgroup draworder="index" id="2">
    <object id="1" x="28" y="22.3333"/>
   </objectgroup>
  </tile>
  <tile id="23">
   <objectgroup draworder="index" id="2">
    <object id="1" x="-1" y="21.6667"/>
   </objectgroup>
  </tile>
  <tile id="40">
   <objectgroup draworder="index" id="2">
    <object id="1" x="-0.249513" y="30.6901">
     <polygon points="0,0 0.249513,-16.4678 31.9376,-15.2203 32.6862,1.24756"/>
    </object>
   </objectgroup>
  </tile>
  <tile id="41">
   <objectgroup draworder="index" id="2">
    <object id="1" x="0" y="31.6881">
     <polygon points="0,0 0.249513,-15.9688 32.1871,-15.2203 31.9376,-0.748538"/>
    </object>
   </objectgroup>
  </tile>
  <tile id="42">
   <objectgroup draworder="index" id="2">
    <object id="1" x="0" y="31.6881">
     <polygon points="0,0 0,-16.2183 32.4366,-15.4698 32.6862,0.998051"/>
    </object>
   </objectgroup>
  </tile>
  <tile id="43">
   <objectgroup draworder="index" id="2">
    <object id="1" x="16.6667" y="28.3333"/>
   </objectgroup>
  </tile>
  <tile id="44">
   <objectgroup draworder="index" id="2">
    <object id="1" x="16.3333" y="17"/>
   </objectgroup>
  </tile>
  <tile id="45">
   <objectgroup draworder="index" id="2">
    <object id="1" x="14.6667" y="17.3333"/>
   </objectgroup>
  </tile>
  <tile id="46">
   <objectgroup draworder="index" id="2">
    <object id="1" x="14.3333" y="17.3333"/>
    <object id="2" x="33.6667" y="17.6667"/>
   </objectgroup>
  </tile>
  <tile id="47">
   <objectgroup draworder="index" id="2">
    <object id="1" x="6" y="17"/>
    <object id="2" x="20" y="16.6667"/>
   </objectgroup>
  </tile>
  <tile id="63">
   <objectgroup draworder="index" id="2">
    <object id="1" x="16.3333" y="27"/>
    <object id="2" x="16" y="14.3333"/>
   </objectgroup>
  </tile>
  <tile id="64">
   <objectgroup draworder="index" id="2">
    <object id="1" x="16.3333" y="17"/>
   </objectgroup>
  </tile>
  <tile id="65">
   <objectgroup draworder="index" id="2">
    <object id="1" x="11.6667" y="18.3333"/>
    <object id="2" x="20" y="18.6667"/>
   </objectgroup>
  </tile>
  <tile id="67">
   <objectgroup draworder="index" id="2">
    <object id="1" x="3.66667" y="29.3333">
     <polygon points="0,0 -0.666667,-11.6667 24.6667,-11.3333 24.6667,-1"/>
    </object>
   </objectgroup>
  </tile>
  <tile id="68">
   <objectgroup draworder="index" id="2">
    <object id="1" x="5.33333" y="27.3333">
     <polygon points="0,0 5.33333,-13 14,-13 19,-0.333333 12,2"/>
    </object>
   </objectgroup>
  </tile>
  <tile id="69">
   <objectgroup draworder="index" id="2">
    <object id="1" x="16.6667" y="17.3333"/>
   </objectgroup>
  </tile>
  <tile id="71">
   <objectgroup draworder="index" id="2">
    <object id="1" x="15.6667" y="16"/>
    <object id="2" x="15.6667" y="7.33333"/>
   </objectgroup>
  </tile>
  <tile id="87">
   <objectgroup draworder="index" id="2">
    <object id="1" x="0.666667" y="21.6667">
     <polygon points="0,0 15.3333,6.66667 31.3333,-2.66667 31.6667,11 -0.666667,10"/>
    </object>
   </objectgroup>
  </tile>
  <tile id="88">
   <objectgroup draworder="index" id="3">
    <object id="2" x="0" y="22.3333">
     <polygon points="0,0 17.3333,0.666667 18,10 -0.333333,9.33333"/>
    </object>
   </objectgroup>
  </tile>
  <tile id="90">
   <objectgroup draworder="index" id="3">
    <object id="2" x="32" y="25.6667">
     <polygon points="0,0 -15.3333,1.66667 -15.3333,7 -1,5.66667"/>
    </object>
   </objectgroup>
  </tile>
  <tile id="95">
   <objectgroup draworder="index" id="2">
    <object id="1" x="-0.666667" y="31">
     <polygon points="0,0 33.3333,0.666667 33.3333,-32.3333 0,-31.6667"/>
    </object>
   </objectgroup>
  </tile>
  <tile id="96">
   <objectgroup draworder="index" id="2">
    <object id="1" x="-0.666667" y="-0.666667">
     <polygon points="0,0 -0.333333,33 32.3333,33.6667 32.6667,0.333333"/>
    </object>
   </objectgroup>
  </tile>
  <tile id="97">
   <objectgroup draworder="index" id="2">
    <object id="1" x="-0.333333" y="0">
     <polygon points="0,0 0,31.6667 33,31.6667 32.6667,-1"/>
    </object>
   </objectgroup>
  </tile>
  <tile id="98">
   <objectgroup draworder="index" id="2">
    <object id="1" x="-0.333333" y="32">
     <polygon points="0,0 33.3333,-0.333333 32.6667,-33.3333 0,-32.3333"/>
    </object>
   </objectgroup>
  </tile>
  <tile id="103">
   <objectgroup draworder="index" id="2">
    <object id="1" x="0.333333" y="23.3333">
     <polygon points="0,0 14,6.66667 31.6667,-2.33333 31.6667,-24 -0.666667,-24"/>
    </object>
   </objectgroup>
  </tile>
  <tile id="104">
   <objectgroup draworder="index" id="2">
    <object id="1" x="-0.333333" y="22">
     <polygon points="0,0 15.3333,9.33333 32,9 32.3333,-22.6667 -1.33333,-23"/>
    </object>
   </objectgroup>
  </tile>
  <tile id="105">
   <objectgroup draworder="index" id="2">
    <object id="1" x="-0.333333" y="31">
     <polygon points="0,0 32.6667,-0.666667 32.3333,-31.3333 -1.66667,-31.3333"/>
    </object>
   </objectgroup>
  </tile>
  <tile id="106">
   <objectgroup draworder="index" id="2">
    <object id="1" x="-0.333333" y="30.3333">
     <polygon points="0,0 22.3333,-3 33,-10.3333 32.3333,-32 -2,-31.3333"/>
    </object>
   </objectgroup>
  </tile>
  <tile id="136">
   <objectgroup draworder="index" id="2">
    <object id="1" x="-1" y="-2">
     <polygon points="0,0 33.6667,0.333333 33,35 0.333333,34"/>
    </object>
   </objectgroup>
  </tile>
  <tile id="137">
   <objectgroup draworder="index" id="2">
    <object id="1" x="-0.666667" y="-1.66667">
     <polygon points="0,0 33,1.66667 32.3333,33.6667 0.333333,33.3333"/>
    </object>
   </objectgroup>
  </tile>
  <tile id="144">
   <objectgroup draworder="index" id="2">
    <object id="1" x="-1" y="-1">
     <polygon points="0,0 33.6667,1 33.3333,31 0,31.3333"/>
    </object>
   </objectgroup>
  </tile>
  <tile id="163">
   <objectgroup draworder="index" id="2">
    <object id="1" x="1.66667" y="0">
     <polygon points="0,0 4.33333,17 23,16.6667 23.3333,-2.33333"/>
    </object>
   </objectgroup>
  </tile>
  <tile id="166">
   <objectgroup draworder="index" id="3">
    <object id="2" x="3" y="9.66667">
     <polygon points="0,0 24.3333,0 24,8.66667 -1.33333,6"/>
    </object>
   </objectgroup>
  </tile>
  <tile id="176">
   <objectgroup draworder="index" id="2">
    <object id="1" x="10.6667" y="0">
     <polygon points="0,0 0.333333,31.6667 11,31.6667 9.33333,-1"/>
    </object>
   </objectgroup>
  </tile>
  <tile id="177">
   <objectgroup draworder="index" id="2">
    <object id="1" x="8.66667" y="12">
     <polygon points="0,0 12.3333,0.666667 13,20.3333 1.66667,19.6667"/>
    </object>
   </objectgroup>
  </tile>
  <tile id="178">
   <objectgroup draworder="index" id="2">
    <object id="1" x="9.66667" y="32">
     <polygon points="0,0 -0.333333,-17.6667 22.6667,-16.3333 22.6667,-9 12.3333,-9.33333 12.3333,-0.666667"/>
    </object>
   </objectgroup>
  </tile>
  <tile id="179">
   <objectgroup draworder="index" id="2">
    <object id="1" x="0.333333" y="17.3333">
     <polygon points="0,0 19,-0.333333 20.3333,14.3333 8,15 8.66667,4 -1.33333,4.33333"/>
    </object>
   </objectgroup>
  </tile>
  <tile id="180">
   <objectgroup draworder="index" id="2">
    <object id="1" x="21" y="31">
     <polygon points="0,0 -0.666667,-16.3333 -21.3333,-14.6667 -21.3333,-2.33333"/>
    </object>
   </objectgroup>
  </tile>
  <tile id="181">
   <objectgroup draworder="index" id="2">
    <object id="1" x="-0.333333" y="27.6667">
     <polygon points="0,0 12.6667,-1 12.6667,-11.3333 -0.333333,-11.3333"/>
    </object>
    <object id="2" x="20.6667" y="27.3333">
     <polygon points="0,0 -0.666667,-15 11,-12.3333 11,3"/>
    </object>
    <object id="3" x="12.6667" y="29">
     <polygon points="0,0 7.66667,-1.33333 8,-29.6667 -2.33333,-30"/>
    </object>
   </objectgroup>
  </tile>
  <tile id="182">
   <objectgroup draworder="index" id="2">
    <object id="1" x="-0.666667" y="17.3333">
     <polygon points="0,0 32.6667,-0.666667 32.6667,9.66667 -0.333333,8.33333"/>
    </object>
    <object id="2" x="10.6667" y="32.3333">
     <polygon points="0,0 0,-8.33333 12,-7.33333 11,1"/>
    </object>
   </objectgroup>
  </tile>
  <tile id="183">
   <objectgroup draworder="index" id="2">
    <object id="1" x="10" y="32">
     <polygon points="0,0 -1.33333,-33.6667 13.3333,-32.6667 14.6667,1"/>
    </object>
    <object id="2" x="0.333333" y="26.6667">
     <polygon points="0,0 31.3333,-2 31.3333,-11 -1.33333,-9.66667"/>
    </object>
   </objectgroup>
  </tile>
  <tile id="184">
   <objectgroup draworder="index" id="2">
    <object id="1" x="0.333333" y="28.3333">
     <polygon points="0,0 31.6667,0.666667 31.3333,-15.6667 -1.66667,-14"/>
    </object>
   </objectgroup>
  </tile>
  <tile id="185">
   <objectgroup draworder="index" id="2">
    <object id="1" x="10.3333" y="28.3333">
     <polygon points="0,0 11.6667,-0.666667 9,-32 -2.33333,-27.3333"/>
    </object>
   </objectgroup>
  </tile>
  <tile id="186">
   <objectgroup draworder="index" id="2">
    <object id="1" x="7.66667" y="-1">
     <polygon points="0,0 2,27 23.6667,26.6667 23.6667,15.6667 16,15.3333 13.6667,1.66667"/>
    </object>
   </objectgroup>
  </tile>
  <tile id="187">
   <objectgroup draworder="index" id="2">
    <object id="1" x="21" y="0.333333">
     <polygon points="0,0 0.666667,26.6667 -21.3333,26.6667 -21.6667,-1.66667"/>
    </object>
   </objectgroup>
  </tile>
  <tile id="188">
   <objectgroup draworder="index" id="2">
    <object id="1" x="10.6667" y="27.6667">
     <polygon points="0,0 21.6667,-1 21.3333,-16.6667 -1,-15.3333"/>
    </object>
   </objectgroup>
  </tile>
  <tile id="189">
   <objectgroup draworder="index" id="2">
    <object id="1" x="11.6667" y="31.3333">
     <polygon points="0,0 -4,-33.3333 9.66667,-33 10.3333,-0.333333"/>
    </object>
    <object id="2" x="19.3333" y="22">
     <polygon points="0,0 13.6667,0 13.3333,-10 -0.333333,-9.66667"/>
    </object>
   </objectgroup>
  </tile>
  <tile id="190">
   <objectgroup draworder="index" id="2">
    <object id="1" x="22" y="32">
     <polygon points="0,0 -1,-33.6667 -12,-33.6667 -11.3333,0"/>
    </object>
    <object id="2" x="15" y="13">
     <polygon points="0,0 -15.6667,0 -15.6667,12 2,11"/>
    </object>
   </objectgroup>
  </tile>
  <tile id="191">
   <objectgroup draworder="index" id="2">
    <object id="1" x="9.33333" y="31">
     <polygon points="0,0 -0.666667,-14 13.6667,-14 12.6667,-1"/>
    </object>
   </objectgroup>
  </tile>
  <tile id="208">
   <objectgroup draworder="index" id="2">
    <object id="1" x="9.66667" y="31.6667">
     <polygon points="0,0 0.333333,-33 12,-33 11.6667,1"/>
    </object>
   </objectgroup>
  </tile>
  <tile id="209">
   <objectgroup draworder="index" id="3">
    <object id="2" x="11" y="32">
     <polygon points="0,0 0,-19.3333 10.6667,-19.6667 9.33333,0"/>
    </object>
   </objectgroup>
  </tile>
  <tile id="210">
   <objectgroup draworder="index" id="2">
    <object id="1" x="10.3333" y="33">
     <polygon points="0,0 0,-15 22.6667,-16 22.6667,-2.33333"/>
    </object>
   </objectgroup>
  </tile>
  <tile id="211">
   <objectgroup draworder="index" id="2">
    <object id="1" x="-0.333333" y="17">
     <polygon points="0,0 20.3333,0.333333 20.6667,14.3333 0,14.6667"/>
    </object>
   </objectgroup>
  </tile>
  <tile id="212">
   <objectgroup draworder="index" id="2">
    <object id="1" x="20.6667" y="18">
     <polygon points="0,0 1,9.33333 -21.3333,10 -21.6667,0.333333"/>
    </object>
   </objectgroup>
  </tile>
  <tile id="213">
   <objectgroup draworder="index" id="2">
    <object id="1" x="0" y="29">
     <polygon points="0,0 -1.33333,-11.6667 32,-12.3333 32,0.666667"/>
    </object>
    <object id="2" x="12" y="22">
     <polygon points="0,0 -2.33333,-23.3333 11,-23.3333 10,0"/>
    </object>
   </objectgroup>
  </tile>
  <tile id="214">
   <objectgroup draworder="index" id="2">
    <object id="1" x="0" y="20">
     <polygon points="0,0 32.6667,-1.33333 32.3333,8.66667 -1.66667,8.33333"/>
    </object>
    <object id="2" x="11" y="19.3333">
     <polygon points="0,0 -0.333333,13.6667 11,13 10.3333,0.333333"/>
    </object>
   </objectgroup>
  </tile>
  <tile id="215">
   <objectgroup draworder="index" id="2">
    <object id="1" x="-0.666667" y="19">
     <polygon points="0,0 33,-1.66667 33.3333,9.66667 0,9"/>
    </object>
    <object id="2" x="11" y="31.3333">
     <polygon points="0,0 -1,-31.6667 10.6667,-33 10.6667,1"/>
    </object>
   </objectgroup>
  </tile>
  <tile id="216">
   <objectgroup draworder="index" id="2">
    <object id="1" x="-0.333333" y="28.6667">
     <polygon points="0,0 32.6667,-0.333333 33,-11 -0.333333,-11.6667"/>
    </object>
   </objectgroup>
  </tile>
  <tile id="217">
   <objectgroup draworder="index" id="2">
    <object id="1" x="10.6667" y="28.3333">
     <polygon points="0,0 -0.666667,-30 11,-29.6667 10,0"/>
    </object>
   </objectgroup>
  </tile>
  <tile id="218">
   <objectgroup draworder="index" id="2">
    <object id="1" x="10.3333" y="30.6667">
     <polygon points="0,0 -1,-15.6667 21.3333,-15 21.6667,-2.33333"/>
    </object>
    <object id="2" x="21.3333" y="23">
     <polygon points="0,0 1,-24 -13,-22.6667 -10.3333,-1.33333"/>
    </object>
   </objectgroup>
  </tile>
  <tile id="219">
   <objectgroup draworder="index" id="2">
    <object id="1" x="21" y="0.333333">
     <polygon points="0,0 -0.666667,19 -13.6667,18.6667 -13,0.333333"/>
    </object>
    <object id="2" x="22" y="29.3333">
     <polygon points="0,0 0,-13 -23,-12 -23,0.666667"/>
    </object>
   </objectgroup>
  </tile>
  <tile id="220">
   <objectgroup draworder="index" id="2">
    <object id="1" x="10.3333" y="27.6667">
     <polygon points="0,0 0,-10.3333 21.6667,-10 21.6667,1"/>
    </object>
   </objectgroup>
  </tile>
  <tile id="221">
   <objectgroup draworder="index" id="4">
    <object id="3" x="11" y="30.3333">
     <polygon points="0,0 0.333333,-32.3333 11,-32 10.6667,1"/>
    </object>
    <object id="4" x="18.6667" y="14.6667">
     <polygon points="0,0 13.6667,-1.33333 14,12.3333 0.666667,14"/>
    </object>
   </objectgroup>
  </tile>
  <tile id="222">
   <objectgroup draworder="index" id="2">
    <object id="1" x="22.3333" y="31">
     <polygon points="0,0 -1,-32.6667 -12.6667,-32.3333 -12.6667,0.333333 2.33333,0"/>
    </object>
   </objectgroup>
  </tile>
  <tile id="223">
   <objectgroup draworder="index" id="2">
    <object id="1" x="9.66667" y="28">
     <polygon points="0,0 0,-12 12.3333,-12 11,0.333333"/>
    </object>
   </objectgroup>
  </tile>
  <tile id="226">
   <objectgroup draworder="index" id="4">
    <object id="3" x="3.33333" y="29">
     <polygon points="0,0 0,-21 25,-22 25,0"/>
    </object>
   </objectgroup>
  </tile>
  <tile id="227">
   <objectgroup draworder="index" id="2">
    <object id="1" x="27.6667" y="21">
     <polygon points="0,0 0.333333,-9.66667 -16.6667,-10 -16.3333,1.66667"/>
    </object>
   </objectgroup>
  </tile>
  <tile id="228">
   <objectgroup draworder="index" id="2">
    <object id="1" x="8.33333" y="32">
     <polygon points="0,0 0,-12.3333 15.6667,-13 15.3333,-0.666667"/>
    </object>
   </objectgroup>
  </tile>
  <tile id="234">
   <objectgroup draworder="index" id="2">
    <object id="1" x="7.33333" y="29">
     <polygon points="0,0 -1.33333,-9.66667 18,-9.66667 16.3333,-1.33333"/>
    </object>
   </objectgroup>
  </tile>
  <tile id="235">
   <objectgroup draworder="index" id="2">
    <object id="1" x="4" y="31.6667">
     <polygon points="0,0 -0.333333,-12.3333 24,-12.6667 24,0.333333"/>
    </object>
   </objectgroup>
  </tile>
  <tile id="236">
   <objectgroup draworder="index" id="2">
    <object id="1" x="3" y="31.6667">
     <polygon points="0,0 0,-16.6667 25.3333,-17 25,-1"/>
    </object>
   </objectgroup>
  </tile>
  <tile id="237">
   <objectgroup draworder="index" id="2">
    <object id="1" x="6.33333" y="31.6667">
     <polygon points="0,0 -1,-18 20.3333,-19 18.6667,0.666667"/>
    </object>
   </objectgroup>
  </tile>
  <tile id="238">
   <objectgroup draworder="index" id="2">
    <object id="1" x="3" y="29.6667">
     <polygon points="0,0 -0.333333,-21.6667 29,-19 29.6667,0.333333"/>
    </object>
   </objectgroup>
  </tile>
  <tile id="239">
   <objectgroup draworder="index" id="2">
    <object id="1" x="30" y="8.33333">
     <polygon points="0,0 -0.333333,22.6667 -31,22 -31.6667,-0.333333"/>
    </object>
   </objectgroup>
  </tile>
  <tile id="432">
   <objectgroup draworder="index" id="2">
    <object id="1" x="-0.249513" y="0" width="32.4366" height="32.1871"/>
   </objectgroup>
  </tile>
  <tile id="433">
   <objectgroup draworder="index" id="2">
    <object id="1" x="0" y="-0.249513" width="32.4366" height="32.4366"/>
   </objectgroup>
  </tile>
  <tile id="434">
   <objectgroup draworder="index" id="2">
    <object id="1" x="0" y="0" width="31.9376" height="31.9376"/>
   </objectgroup>
  </tile>
  <tile id="435">
   <objectgroup draworder="index" id="2">
    <object id="1" x="0" y="-0.249513" width="31.9376" height="32.6862"/>
   </objectgroup>
  </tile>
  <tile id="436">
   <objectgroup draworder="index" id="2">
    <object id="1" x="0.249513" y="0" width="31.1891" height="32.1871"/>
   </objectgroup>
  </tile>
  <tile id="437">
   <objectgroup draworder="index" id="2">
    <object id="1" x="-0.249513" y="-0.249513" width="32.9357" height="33.1852"/>
   </objectgroup>
  </tile>
  <tile id="440">
   <objectgroup draworder="index" id="2">
    <object id="1" x="0" y="-0.249513" width="32.4366" height="32.9357"/>
   </objectgroup>
  </tile>
  <tile id="441">
   <objectgroup draworder="index" id="2">
    <object id="1" x="-0.249513" y="-0.249513" width="32.4366" height="33.1852"/>
   </objectgroup>
  </tile>
  <tile id="442">
   <objectgroup draworder="index" id="2">
    <object id="1" x="0.249513" y="0" width="32.6862" height="32.6862"/>
   </objectgroup>
  </tile>
  <tile id="443">
   <objectgroup draworder="index" id="2">
    <object id="1" x="0.499025" y="-0.748538" width="31.1891" height="32.9357"/>
   </objectgroup>
  </tile>
  <tile id="444">
   <objectgroup draworder="index" id="2">
    <object id="1" x="0.249513" y="0.249513" width="32.1871" height="32.1871"/>
   </objectgroup>
  </tile>
  <tile id="445">
   <objectgroup draworder="index" id="2">
    <object id="1" x="-0.499025" y="-0.249513" width="32.6862" height="30.9396"/>
   </objectgroup>
  </tile>
  <tile id="446">
   <objectgroup draworder="index" id="2">
    <object id="1" x="0" y="-0.249513" width="31.9376" height="32.4366"/>
   </objectgroup>
  </tile>
 </tileset>
 <tileset firstgid="1641" source="A_Grass_pipo.tsx"/>
 <tileset firstgid="2169" source="A_Water_pipo.tsx"/>
 <tileset firstgid="5241" source="A_Flower_pipo.tsx"/>
 <layer id="5" name="ground" width="26" height="26">
  <data encoding="csv">
0,0,0,0,0,0,0,0,0,0,0,0,0,0,0,0,0,0,0,0,0,0,0,0,0,0,
0,0,0,0,0,0,0,0,0,0,0,0,0,0,0,0,0,0,0,0,0,0,0,0,0,0,
0,0,0,0,0,0,0,0,0,0,0,0,0,0,0,0,0,0,0,0,0,0,0,0,0,0,
0,0,0,0,0,0,0,0,0,0,0,0,0,0,0,0,0,0,0,0,0,0,0,0,0,0,
0,0,0,0,0,0,0,0,0,0,0,0,0,0,0,0,0,0,0,0,0,0,0,0,0,0,
0,577,577,577,577,577,577,577,577,577,577,577,577,577,577,577,577,577,581,581,577,577,577,577,577,577,
0,577,577,577,577,577,577,577,577,577,577,577,577,577,577,577,786,867,867,786,577,577,577,577,577,577,
0,577,577,577,577,577,577,577,787,793,793,793,793,793,793,793,796,867,867,795,793,793,793,793,793,788,
0,577,577,577,577,577,787,793,796,867,867,867,867,867,867,867,867,867,867,867,867,867,867,867,867,785,
0,577,577,577,577,787,796,867,867,867,867,867,867,867,867,867,867,867,867,867,867,867,867,867,867,785,
0,577,577,787,793,796,867,867,867,867,867,867,867,867,867,867,867,867,867,867,867,867,867,867,867,785,
0,577,787,796,867,867,867,867,867,867,867,867,867,867,867,867,867,867,867,867,867,867,867,867,867,785,
0,577,785,867,867,867,867,867,867,867,867,867,867,867,867,867,867,867,867,867,867,867,867,867,867,785,
0,577,785,867,867,867,867,867,867,867,867,867,867,867,867,867,867,867,867,867,867,867,867,867,867,785,
0,787,796,867,867,867,867,867,867,835,835,835,835,835,835,835,835,835,835,835,835,835,835,835,835,785,
0,785,867,867,867,867,867,867,867,835,835,835,835,835,835,835,835,835,835,835,835,835,835,835,835,785,
0,785,867,867,867,867,867,867,867,867,867,867,867,867,867,867,867,867,867,867,867,867,867,867,867,785,
0,785,867,867,867,867,867,867,867,867,867,867,867,867,867,867,867,867,867,867,867,867,867,867,867,785,
0,785,867,867,867,867,867,867,867,867,867,867,867,867,867,867,867,867,867,867,867,867,867,867,867,785,
0,785,867,867,867,867,867,867,867,867,867,867,867,867,867,867,867,867,867,867,867,867,867,867,867,785,
0,785,867,867,867,867,867,867,867,867,867,867,867,867,867,867,884,884,884,884,884,884,884,867,867,785,
0,785,867,867,867,867,867,867,867,867,867,867,867,867,867,867,884,884,884,884,884,884,884,867,867,785,
0,785,867,867,867,867,867,867,867,867,867,867,867,867,867,867,884,884,884,884,884,884,884,867,867,785,
0,785,867,867,867,867,867,867,867,867,867,867,867,867,867,867,884,884,884,884,884,884,884,867,867,785,
0,785,867,867,867,867,867,867,867,867,867,867,867,867,867,867,884,884,884,884,884,884,884,867,867,785,
0,795,793,793,793,793,793,793,793,793,793,793,793,793,793,793,793,793,793,793,793,793,793,793,793,796
</data>
 </layer>
 <layer id="8" name="grass" width="26" height="26">
  <data encoding="csv">
0,0,0,0,0,0,0,0,0,0,0,0,0,0,0,0,0,0,0,0,0,0,0,0,0,0,
0,0,0,0,0,0,0,0,0,0,0,0,0,0,0,0,0,0,0,0,0,0,0,0,0,0,
0,0,0,0,0,0,0,0,0,0,0,0,0,0,0,0,0,0,0,0,0,0,0,0,0,0,
0,0,0,0,0,0,0,0,0,0,0,0,0,0,0,0,0,0,0,0,0,0,0,0,0,0,
0,0,0,0,0,0,0,0,0,0,0,0,0,0,0,0,0,0,0,0,0,0,0,0,0,0,
0,0,0,0,0,0,0,0,0,0,0,0,0,0,0,0,0,0,0,0,0,0,0,0,0,0,
0,0,0,0,0,0,0,0,0,0,0,0,0,0,0,0,0,0,0,0,0,0,0,0,0,0,
0,0,0,0,0,0,0,0,0,0,0,0,0,0,0,0,0,0,0,0,0,0,0,0,0,0,
0,0,0,0,0,0,0,0,0,0,0,0,0,0,0,0,0,0,0,0,0,0,0,0,0,0,
0,0,0,0,0,0,0,0,0,0,0,0,0,0,0,0,0,0,0,0,0,0,0,0,0,0,
0,0,0,0,0,0,0,0,0,0,0,0,0,0,0,0,0,0,0,0,0,0,0,0,0,0,
0,0,0,0,0,0,0,0,0,0,0,0,0,0,0,0,0,0,0,0,0,0,0,0,0,0,
0,0,0,0,0,0,0,0,0,0,0,0,0,0,0,0,0,0,0,0,0,0,0,0,0,0,
0,0,0,0,0,0,0,0,0,0,0,0,0,0,0,0,0,0,0,0,0,0,0,0,0,0,
0,0,0,0,0,0,0,0,0,0,0,0,0,0,0,0,0,0,0,0,0,0,0,0,0,0,
0,0,0,0,0,0,0,0,0,0,0,0,0,0,0,0,0,0,0,0,0,0,0,0,0,0,
0,0,0,0,0,0,0,0,0,0,0,0,0,0,0,0,0,0,0,0,0,0,0,0,0,0,
0,0,0,0,0,0,0,0,0,0,0,0,0,0,0,0,0,0,0,0,0,0,0,0,0,0,
0,0,0,0,0,0,0,0,0,0,0,0,0,0,0,0,0,0,0,0,0,0,0,0,0,0,
0,0,0,0,0,0,0,0,0,0,0,0,0,0,0,0,0,0,0,0,0,0,0,0,0,0,
0,0,0,0,0,0,0,0,0,0,0,0,0,0,0,0,0,0,0,0,0,0,0,0,0,0,
0,0,0,0,0,0,0,0,0,0,0,0,0,0,0,0,0,0,0,0,0,0,0,0,0,0,
0,0,0,0,0,0,0,0,0,0,0,0,0,0,0,0,0,0,0,0,0,0,0,0,0,0,
0,0,0,0,0,0,0,0,0,0,0,0,0,0,0,0,0,0,0,0,0,0,0,0,0,0,
0,0,0,0,0,0,0,0,0,0,0,0,0,0,0,0,0,0,0,0,0,0,0,0,0,0,
0,0,0,0,0,0,0,0,0,0,0,0,0,0,0,0,0,0,0,0,0,0,0,0,0,0
</data>
 </layer>
 <layer id="12" name="farm" width="26" height="26">
  <data encoding="csv">
0,0,0,0,0,0,0,0,0,0,0,0,0,0,0,0,0,0,0,0,0,0,0,0,0,0,
0,0,0,0,0,0,0,0,0,0,0,0,0,0,0,0,0,0,0,0,0,0,0,0,0,0,
0,0,0,0,0,0,0,0,0,0,0,0,0,0,0,0,0,0,0,0,0,0,0,0,0,0,
0,0,0,0,0,0,0,0,0,0,0,0,0,0,0,0,0,0,0,0,0,0,0,0,0,0,
0,0,0,0,0,0,0,0,0,0,0,0,0,0,0,0,0,0,0,0,0,0,0,0,0,0,
0,0,0,0,0,0,0,0,0,0,0,0,0,0,0,0,0,0,0,0,0,0,0,0,0,0,
0,0,0,0,0,0,0,0,0,0,0,0,0,0,0,0,0,0,0,0,0,0,0,0,0,0,
0,0,0,0,0,0,0,0,0,0,0,0,0,0,0,0,0,0,0,0,0,0,0,0,0,0,
0,0,0,0,0,0,0,0,0,0,0,0,0,0,0,0,0,0,0,0,0,0,0,0,0,0,
0,0,0,0,0,0,0,0,0,0,0,0,0,0,0,0,0,0,0,0,0,0,0,0,0,0,
0,0,0,0,0,0,0,0,0,0,0,0,0,0,0,0,0,0,0,0,0,0,0,0,0,0,
0,0,0,0,0,0,0,0,0,0,0,0,0,0,0,0,0,0,0,0,0,0,0,0,0,0,
0,0,0,0,0,0,0,0,0,0,0,0,0,0,0,0,0,0,0,0,0,0,0,0,0,0,
0,0,0,0,0,0,0,0,0,0,0,0,0,0,0,0,0,0,0,0,0,0,0,0,0,0,
0,0,0,0,0,0,0,0,0,0,0,0,0,0,0,0,0,0,0,0,0,0,0,0,0,0,
0,0,0,0,0,0,0,0,0,0,0,0,0,0,0,0,0,0,0,0,0,0,0,0,0,0,
0,0,0,0,0,0,0,0,0,0,0,0,0,0,0,0,0,0,0,0,0,0,0,0,0,0,
0,0,0,0,0,0,0,0,0,0,0,0,0,0,0,0,0,0,0,0,0,0,0,0,0,0,
0,0,0,0,0,0,0,0,0,0,0,0,0,0,0,0,0,0,0,0,0,0,0,0,0,0,
0,0,0,0,0,0,0,0,0,0,0,0,0,0,0,0,0,0,0,0,0,0,0,0,0,0,
0,0,0,0,0,0,0,0,0,0,0,0,0,0,0,0,0,0,0,0,0,0,0,0,0,0,
0,0,0,0,0,0,0,0,0,0,0,0,0,0,0,0,0,0,0,0,0,0,0,0,0,0,
0,0,0,0,0,0,0,0,0,0,0,0,0,0,0,0,0,0,0,0,0,0,0,0,0,0,
0,0,0,0,0,0,0,0,0,0,0,0,0,0,0,0,0,0,0,0,0,0,0,0,0,0,
0,0,0,0,0,0,0,0,0,0,0,0,0,0,0,0,0,0,0,0,0,0,0,0,0,0,
0,0,0,0,0,0,0,0,0,0,0,0,0,0,0,0,0,0,0,0,0,0,0,0,0,0
</data>
 </layer>
 <layer id="13" name="farm_up" width="26" height="26">
  <data encoding="csv">
0,0,0,0,0,0,0,0,0,0,0,0,0,0,0,0,0,0,0,0,0,0,0,0,0,0,
0,0,0,0,0,0,0,0,0,0,0,0,0,0,0,0,0,0,0,0,0,0,0,0,0,0,
0,0,0,0,0,0,0,0,0,0,0,0,0,0,0,0,0,0,0,0,0,0,0,0,0,0,
0,0,0,0,0,0,0,0,0,0,0,0,0,0,0,0,0,0,0,0,0,0,0,0,0,0,
0,0,0,0,0,0,0,0,0,0,0,0,0,0,0,0,0,0,0,0,0,0,0,0,0,0,
0,0,0,0,0,0,0,0,0,0,0,0,0,0,0,0,0,0,0,0,0,0,0,0,0,0,
0,0,0,0,0,0,0,0,0,0,0,0,0,0,0,0,0,0,0,0,0,0,0,0,0,0,
0,0,0,0,0,0,0,0,0,0,0,0,0,0,0,0,0,0,0,0,0,0,0,0,0,0,
0,0,0,0,0,0,0,0,0,0,0,0,0,0,0,0,0,0,0,0,0,0,0,0,0,0,
0,0,0,0,0,0,0,0,0,0,0,0,0,0,0,0,0,0,0,0,0,0,0,0,0,0,
0,0,0,0,0,0,0,0,0,0,0,0,0,0,0,0,0,0,0,0,0,0,0,0,0,0,
0,0,0,0,0,0,0,0,0,0,0,0,0,0,0,0,0,0,0,0,0,0,0,0,0,0,
0,0,0,0,0,0,0,0,0,0,0,0,0,0,0,0,0,0,0,0,0,0,0,0,0,0,
0,0,0,0,0,0,0,0,0,0,0,0,0,0,0,0,0,0,0,0,0,0,0,0,0,0,
0,0,0,0,0,0,0,0,0,0,0,0,0,0,0,0,0,0,0,0,0,0,0,0,0,0,
0,0,0,0,0,0,0,0,0,0,0,0,0,0,0,0,0,0,0,0,0,0,0,0,0,0,
0,0,0,0,0,0,0,0,0,0,0,0,0,0,0,0,0,0,0,0,0,0,0,0,0,0,
0,0,0,0,0,0,0,0,0,0,0,0,0,0,0,0,0,0,0,0,0,0,0,0,0,0,
0,0,0,0,0,0,0,0,0,0,0,0,0,0,0,0,0,0,0,0,0,0,0,0,0,0,
0,0,0,0,0,0,0,0,0,0,0,0,0,0,0,0,0,0,0,0,0,0,0,0,0,0,
0,0,0,0,0,0,0,0,0,0,0,0,0,0,0,0,0,0,0,0,0,0,0,0,0,0,
0,0,0,0,0,0,0,0,0,0,0,0,0,0,0,0,0,0,0,0,0,0,0,0,0,0,
0,0,0,0,0,0,0,0,0,0,0,0,0,0,0,0,0,0,0,0,0,0,0,0,0,0,
0,0,0,0,0,0,0,0,0,0,0,0,0,0,0,0,0,0,0,0,0,0,0,0,0,0,
0,0,0,0,0,0,0,0,0,0,0,0,0,0,0,0,0,0,0,0,0,0,0,0,0,0,
0,0,0,0,0,0,0,0,0,0,0,0,0,0,0,0,0,0,0,0,0,0,0,0,0,0
</data>
 </layer>
 <layer id="6" name="water" width="26" height="26">
  <data encoding="csv">
0,0,0,0,0,0,0,0,0,0,0,0,0,0,0,0,0,0,0,0,0,0,0,0,0,0,
0,0,0,0,0,0,0,0,0,0,0,0,0,0,0,0,0,0,0,0,0,0,0,0,0,0,
0,0,0,0,0,0,0,0,0,0,0,0,0,0,0,0,0,0,0,0,0,0,0,0,0,0,
0,0,0,0,0,0,0,0,0,0,0,0,0,0,0,0,0,0,0,0,0,0,0,0,0,0,
0,0,0,0,0,0,0,0,0,0,0,0,0,0,0,0,0,0,0,0,0,0,0,0,0,0,
0,0,0,0,0,0,0,0,0,0,0,0,0,0,0,0,0,0,0,0,0,0,0,0,0,0,
0,0,0,0,0,0,0,0,0,0,0,0,0,0,0,0,0,0,0,0,0,0,0,0,0,0,
0,0,0,0,0,0,0,0,0,0,0,0,0,0,0,0,0,0,0,0,0,0,0,0,0,0,
0,0,0,0,0,0,0,0,0,0,0,0,0,0,0,0,0,0,0,0,0,0,0,0,0,0,
0,0,0,0,0,0,0,0,0,0,0,0,0,0,0,0,0,0,0,0,0,0,0,0,0,0,
0,0,0,0,0,0,0,0,0,0,0,0,0,0,0,0,0,0,0,0,0,0,0,0,0,0,
0,0,0,0,0,0,0,0,0,0,0,0,0,0,0,0,0,0,0,0,0,0,0,0,0,0,
0,0,0,0,0,0,0,0,0,0,0,0,0,0,0,0,0,0,0,0,0,0,0,0,0,0,
0,0,0,0,0,0,0,0,0,0,0,0,0,0,0,0,0,0,0,0,0,0,0,0,0,0,
0,0,0,0,0,0,0,0,0,0,0,0,0,0,0,0,0,0,0,0,0,0,0,0,0,0,
0,0,0,0,0,0,0,0,0,0,0,0,0,0,0,0,0,0,0,0,0,0,0,0,0,0,
0,0,0,0,0,0,0,0,0,0,0,0,0,0,0,0,0,0,0,0,0,0,0,0,0,0,
0,0,0,0,0,0,0,0,0,0,0,0,0,0,0,0,0,0,0,0,0,0,0,0,0,0,
0,0,0,0,0,0,0,0,0,0,0,0,0,0,0,0,0,0,0,0,0,0,0,0,0,0,
0,0,0,0,0,0,0,0,0,0,0,0,0,0,0,0,0,0,0,0,0,0,0,0,0,0,
0,0,0,0,0,0,0,0,0,0,0,0,0,0,0,0,0,0,0,0,0,0,0,0,0,0,
0,0,0,0,0,0,0,0,0,0,0,0,0,0,0,0,0,0,0,0,0,0,0,0,0,0,
0,0,0,0,0,0,0,0,0,0,0,0,0,0,0,0,0,0,0,0,0,0,0,0,0,0,
0,0,0,0,0,0,0,0,0,0,0,0,0,0,0,0,0,0,0,0,0,0,0,0,0,0,
0,0,0,0,0,0,0,0,0,0,0,0,0,0,0,0,0,0,0,0,0,0,0,0,0,0,
0,0,0,0,0,0,0,0,0,0,0,0,0,0,0,0,0,0,0,0,0,0,0,0,0,0
</data>
 </layer>
 <layer id="10" name="water_grass" width="26" height="26">
  <data encoding="csv">
0,0,0,0,0,0,0,0,0,0,0,0,0,0,0,0,0,0,0,0,0,0,0,0,0,0,
0,0,0,0,0,0,0,0,0,0,0,0,0,0,0,0,0,0,0,0,0,0,0,0,0,0,
0,0,0,0,0,0,0,0,0,0,0,0,0,0,0,0,0,0,0,0,0,0,0,0,0,0,
0,0,0,0,0,0,0,0,0,0,0,0,0,0,0,0,0,0,0,0,0,0,0,0,0,0,
0,0,0,0,0,0,0,0,0,0,0,0,0,0,0,0,0,0,0,0,0,0,0,0,0,0,
0,0,0,0,0,0,0,0,0,0,0,0,0,0,0,0,0,0,0,0,0,0,0,0,0,0,
0,0,0,0,0,0,0,0,0,0,0,0,0,0,0,0,0,0,0,0,0,0,0,0,0,0,
0,0,0,0,0,0,0,0,0,0,0,0,0,0,0,0,0,0,0,0,0,0,0,0,0,0,
0,0,0,0,0,0,0,0,0,0,0,0,0,0,0,0,0,0,0,0,0,0,0,0,0,0,
0,0,0,0,0,0,0,0,0,0,0,0,0,0,0,0,0,0,0,0,0,0,0,0,0,0,
0,0,0,0,0,0,0,0,0,0,0,0,0,0,0,0,0,0,0,0,0,0,0,0,0,0,
0,0,0,0,0,0,0,0,0,0,0,0,0,0,0,0,0,0,0,0,0,0,0,0,0,0,
0,0,0,0,0,0,0,0,0,0,0,0,0,0,0,0,0,0,0,0,0,0,0,0,0,0,
0,0,0,0,0,0,0,0,0,0,0,0,0,0,0,0,0,0,0,0,0,0,0,0,0,0,
0,0,0,0,0,0,0,0,0,0,0,0,0,0,0,0,0,0,0,0,0,0,0,0,0,0,
0,0,0,0,0,0,0,0,0,0,0,0,0,0,0,0,0,0,0,0,0,0,0,0,0,0,
0,0,0,0,0,0,0,0,0,0,0,0,0,0,0,0,0,0,0,0,0,0,0,0,0,0,
0,0,0,0,0,0,0,0,0,0,0,0,0,0,0,0,0,0,0,0,0,0,0,0,0,0,
0,0,0,0,0,0,0,0,0,0,0,0,0,0,0,0,0,0,0,0,0,0,0,0,0,0,
0,0,0,0,0,0,0,0,0,0,0,0,0,0,0,0,0,0,0,0,0,0,0,0,0,0,
0,0,0,0,0,0,0,0,0,0,0,0,0,0,0,0,0,0,0,0,0,0,0,0,0,0,
0,0,0,0,0,0,0,0,0,0,0,0,0,0,0,0,0,0,0,0,0,0,0,0,0,0,
0,0,0,0,0,0,0,0,0,0,0,0,0,0,0,0,0,0,0,0,0,0,0,0,0,0,
0,0,0,0,0,0,0,0,0,0,0,0,0,0,0,0,0,0,0,0,0,0,0,0,0,0,
0,0,0,0,0,0,0,0,0,0,0,0,0,0,0,0,0,0,0,0,0,0,0,0,0,0,
0,0,0,0,0,0,0,0,0,0,0,0,0,0,0,0,0,0,0,0,0,0,0,0,0,0
</data>
 </layer>
 <layer id="7" name="building" width="26" height="26">
  <data encoding="csv">
0,0,0,0,0,0,0,0,0,0,0,0,0,0,0,0,0,0,0,0,0,0,0,0,0,0,
0,0,0,0,0,0,0,0,0,0,0,0,0,0,0,0,0,0,0,0,0,0,0,0,0,0,
0,0,0,0,0,0,0,0,0,0,0,0,0,0,0,0,0,0,0,0,0,0,0,0,0,0,
0,0,0,0,0,0,0,0,0,0,0,0,0,0,0,0,0,0,0,0,0,0,0,0,0,0,
0,0,0,0,0,0,0,0,0,0,0,0,0,0,0,0,0,0,0,0,0,0,0,0,0,0,
0,0,0,0,0,0,0,0,0,0,0,0,0,0,0,0,0,0,0,0,0,0,0,0,0,0,
0,0,0,0,0,0,0,0,0,0,0,0,0,0,0,0,0,0,0,0,0,0,0,0,0,0,
0,0,0,0,0,0,0,0,0,0,0,0,0,0,0,0,0,0,0,0,0,0,0,0,0,0,
0,0,0,0,0,0,0,0,0,0,0,0,0,0,0,0,0,0,0,0,0,0,0,0,0,0,
0,0,0,0,0,0,0,0,0,0,0,0,0,0,0,0,0,0,0,0,0,0,0,0,0,0,
0,0,0,0,0,0,0,0,0,0,0,0,0,0,0,0,0,0,0,0,1452,0,0,0,0,0,
0,0,0,0,0,0,0,0,0,0,0,0,0,0,0,0,0,0,0,0,1452,0,0,0,0,0,
0,0,0,0,0,0,0,0,0,0,0,0,0,0,0,0,0,0,0,0,0,0,0,0,1433,1433,
0,0,0,0,0,0,0,0,0,0,0,0,0,0,0,0,0,0,0,0,0,0,0,0,0,0,
0,0,0,0,0,0,0,0,0,0,0,0,0,0,0,0,0,0,0,0,0,0,0,0,0,0,
0,0,0,0,0,0,0,0,0,0,0,0,0,0,0,0,0,0,0,0,0,0,0,0,0,0,
0,0,0,0,0,0,0,0,0,0,0,0,0,0,0,0,0,0,0,0,0,0,0,0,0,0,
0,0,0,0,0,0,0,0,0,0,0,0,0,0,0,0,0,0,0,0,0,0,0,0,0,0,
0,0,0,0,0,0,0,0,0,0,0,0,0,0,0,0,0,0,0,0,0,0,0,0,0,0,
0,0,0,0,0,0,0,0,0,0,0,0,0,0,0,0,0,0,0,0,0,0,0,0,0,0,
0,0,0,0,0,0,0,0,0,0,0,0,0,0,0,0,1520,0,0,0,0,0,1520,0,0,0,
0,0,0,0,0,0,0,0,0,0,0,0,0,0,0,0,0,0,1505,1506,1507,0,0,0,0,0,
0,0,0,0,0,0,0,0,0,0,0,0,0,0,0,0,0,0,1513,1514,1515,0,0,0,0,0,
0,0,0,0,0,0,0,0,0,0,0,0,0,0,0,0,0,0,1521,1522,1523,0,0,0,0,0,
0,0,0,0,0,0,0,0,0,0,0,0,0,0,0,0,1520,0,0,0,0,0,1520,0,0,0,
0,0,0,0,0,0,0,0,0,0,0,0,0,0,0,0,0,0,0,0,0,0,0,0,0,0
</data>
 </layer>
 <layer id="11" name="building_up" width="26" height="26">
  <data encoding="csv">
0,0,0,0,0,0,0,0,0,0,0,0,0,0,0,0,0,0,0,0,0,0,0,0,0,0,
0,0,0,0,0,0,0,0,0,0,0,0,0,0,0,0,0,0,0,0,0,0,0,0,0,0,
0,0,0,0,0,0,0,0,0,0,0,0,0,0,0,0,0,0,0,0,0,0,0,0,0,0,
0,0,0,0,0,0,0,0,0,0,0,0,0,0,0,0,0,0,0,0,0,0,0,0,0,0,
0,0,0,0,0,0,0,0,0,0,0,0,0,0,0,0,0,0,0,0,0,0,0,0,0,0,
0,0,0,0,0,0,0,0,0,0,0,0,0,0,0,0,0,0,0,0,0,0,0,0,0,0,
0,0,0,0,0,0,0,0,0,0,1144,0,0,0,0,0,0,1485,0,0,1485,0,0,0,0,0,
0,0,0,0,0,0,0,0,0,0,1160,0,0,0,0,0,0,1493,0,0,1493,0,0,0,0,0,
0,0,0,0,0,0,0,0,0,0,0,0,0,0,0,0,0,0,0,0,1241,0,1171,1171,0,1171,
0,0,0,0,0,0,0,0,1463,1464,0,0,0,0,0,0,0,0,0,0,1237,0,1179,1179,0,1179,
0,0,0,0,0,0,0,0,1471,1472,0,1171,1171,0,1015,0,0,0,0,0,0,0,0,1015,1171,1171,
0,0,0,0,0,0,0,0,1479,1480,0,1179,1179,0,0,0,0,0,0,0,0,0,0,0,1179,1179,
0,0,0,0,0,0,0,0,0,0,0,0,0,0,0,0,0,0,0,0,0,0,0,0,0,0,
0,1144,0,0,0,0,0,0,0,0,0,0,0,0,0,0,0,0,0,0,0,0,0,0,0,0,
0,1160,0,0,0,0,0,0,0,0,0,0,0,0,0,0,0,0,0,0,0,0,0,0,0,0,
0,0,0,0,0,0,0,0,0,0,0,0,0,0,0,0,0,0,0,0,0,0,0,0,0,0,
0,0,0,0,0,0,0,0,0,0,0,0,0,0,0,0,0,0,0,0,0,0,0,0,0,0,
0,0,1171,0,1171,0,0,0,0,0,0,0,0,0,0,0,0,0,0,0,0,0,0,0,0,0,
0,0,1179,0,1179,0,0,0,0,0,0,0,0,0,0,0,0,0,0,0,0,0,0,0,0,0,
0,0,0,0,0,0,0,0,0,0,0,0,0,0,0,0,0,0,0,0,0,0,0,0,0,0,
0,0,0,0,0,0,0,0,0,0,0,0,0,0,0,0,0,0,0,0,0,0,0,0,0,0,
0,1144,0,0,0,0,0,0,0,0,0,0,0,0,0,0,0,0,0,0,0,0,0,0,0,0,
0,1160,0,0,0,0,0,0,0,0,0,0,0,0,0,0,0,0,0,0,0,0,0,0,0,0,
0,0,0,0,0,0,0,0,0,0,0,0,0,0,0,0,0,0,0,0,0,0,0,0,0,0,
0,0,0,0,0,0,0,0,0,0,0,0,0,0,0,0,0,0,0,0,0,0,0,0,0,0,
0,0,1171,0,1171,0,0,0,0,0,0,0,0,0,0,0,0,0,0,0,0,0,0,0,0,0
</data>
 </layer>
 <layer id="9" name="tree" width="26" height="26">
  <data encoding="csv">
0,0,0,0,0,0,0,0,0,0,0,0,0,0,0,0,0,0,0,0,0,0,0,0,0,0,
0,0,0,0,0,0,0,0,0,0,0,0,0,0,0,0,0,0,0,0,0,0,0,0,0,0,
0,0,0,0,0,0,0,0,0,0,0,0,0,0,0,0,0,0,0,0,0,0,0,0,0,0,
0,0,0,0,0,0,0,0,0,0,0,0,0,0,0,0,0,0,0,0,0,0,0,0,0,0,
0,0,0,0,0,0,0,0,0,0,0,0,0,0,0,0,0,0,0,0,0,0,0,0,0,0,
0,625,0,0,0,0,0,0,0,0,0,0,0,0,0,0,0,0,0,0,0,0,0,0,0,0,
0,0,0,0,0,0,0,0,0,0,0,0,0,0,0,0,0,0,0,0,0,0,0,0,0,0,
0,0,0,0,0,0,0,0,0,0,0,0,0,0,0,0,0,0,0,0,0,0,0,0,0,0,
0,0,0,0,0,0,0,0,0,0,0,0,0,0,0,0,0,0,0,0,0,0,0,0,0,0,
0,0,0,0,0,0,0,0,0,0,0,0,0,0,0,0,0,0,0,0,0,0,0,0,0,0,
0,0,0,0,0,0,0,0,0,0,0,0,0,0,0,0,0,0,0,0,0,0,0,0,0,0,
0,0,0,0,0,0,0,0,0,0,0,0,0,0,0,0,0,0,0,0,0,0,0,0,0,0,
0,0,0,0,0,0,0,0,0,0,0,0,0,0,0,0,0,0,0,0,0,0,0,0,0,0,
0,0,0,0,0,0,0,0,0,0,0,0,0,0,0,0,0,0,0,0,0,0,0,0,0,0,
0,0,0,0,0,0,0,0,0,0,0,0,0,0,0,0,0,0,0,0,0,0,0,0,0,0,
0,0,0,0,0,0,0,0,0,0,0,0,0,0,0,0,0,0,0,0,0,0,0,0,0,0,
0,0,0,0,0,0,0,0,0,0,0,0,0,0,0,0,0,0,0,0,0,0,0,0,0,0,
0,0,0,0,0,0,0,0,0,0,0,0,0,0,0,0,0,0,0,0,0,0,0,0,0,0,
0,0,0,0,0,0,0,0,0,0,0,0,0,0,0,0,0,0,0,0,0,0,0,0,0,0,
0,0,0,0,0,0,0,0,0,0,0,0,0,0,0,0,0,0,0,0,0,0,0,0,0,0,
0,0,0,0,0,0,0,0,0,0,0,0,0,0,0,0,0,0,0,0,0,0,0,0,0,0,
0,0,0,0,0,0,0,0,0,0,0,0,0,0,0,0,0,0,0,0,0,0,0,0,0,0,
0,0,0,0,0,0,0,0,0,0,0,0,0,0,0,0,0,0,0,0,0,0,0,0,0,0,
0,0,0,0,0,0,0,0,0,0,0,0,0,0,0,0,0,0,0,0,0,0,0,0,0,0,
0,0,0,0,0,0,0,0,0,0,0,0,0,0,0,0,0,0,0,0,0,0,0,0,0,0,
0,0,0,0,0,0,0,0,0,0,0,0,0,0,0,0,0,0,0,0,0,0,0,0,0,0
</data>
 </layer>
 <objectgroup id="18" name="SafeZones"/>
 <objectgroup id="19" name="BoxSpawns">
  <object id="105" x="152" y="616">
   <point/>
  </object>
  <object id="106" x="156" y="376">
   <point/>
  </object>
  <object id="107" x="596" y="360">
   <point/>
  </object>
  <object id="108" x="792" y="708">
   <point/>
  </object>
 </objectgroup>
</map>
