<?xml version="1.0" encoding="UTF-8"?>
<map version="1.10" tiledversion="1.12.2" orientation="orthogonal" renderorder="right-down" width="26" height="26" tilewidth="32" tileheight="32" infinite="0" nextlayerid="22" nextobjectid="141">
 <editorsettings>
  <export target="don1_embed.tmx" format="tmx"/>
 </editorsettings>
 <tileset firstgid="1" name="A_WaterFall_pipo" tilewidth="32" tileheight="32" tilecount="576" columns="32">
  <image source="../images/A_WaterFall_pipo.png" width="1024" height="576"/>
 </tileset>
 <tileset firstgid="577" name="Base_BaseChip_pipo" tilewidth="32" tileheight="32" tilecount="1064" columns="8">
  <image source="../images/Base_BaseChip_pipo.png" width="256" height="4256"/>
  <tile id="208">
   <objectgroup draworder="index" id="2">
    <object id="1" x="11" y="0" width="10.25" height="32"/>
   </objectgroup>
  </tile>
  <tile id="209">
   <objectgroup draworder="index" id="2">
    <object id="1" x="11.75" y="14.5" width="9.25" height="17"/>
   </objectgroup>
  </tile>
  <tile id="210">
   <objectgroup draworder="index" id="2">
    <object id="1" x="10.75" y="7" width="21.75" height="25"/>
   </objectgroup>
  </tile>
  <tile id="211">
   <objectgroup draworder="index" id="2">
    <object id="1" x="0" y="9.5" width="20.25" height="22.25"/>
   </objectgroup>
  </tile>
  <tile id="212">
   <objectgroup draworder="index" id="2">
    <object id="1" x="-0.25" y="11.25" width="21" height="18.75"/>
   </objectgroup>
  </tile>
  <tile id="213">
   <objectgroup draworder="index" id="2">
    <object id="1" x="0.25" y="12.75" width="32.5" height="14.75"/>
    <object id="2" x="10.75" y="-0.25" width="10.5" height="14"/>
   </objectgroup>
  </tile>
  <tile id="214">
   <objectgroup draworder="index" id="2">
    <object id="1" x="0" y="13" width="32" height="15.75"/>
    <object id="2" x="11.75" y="21.25" width="9.5" height="11.25"/>
   </objectgroup>
  </tile>
  <tile id="215">
   <objectgroup draworder="index" id="2">
    <object id="3" x="0.25" y="8.5" width="31.75" height="19.5"/>
    <object id="4" x="11.75" y="24.75" width="9.75" height="7.5"/>
    <object id="5" x="10.75" y="-0.25" width="10.75" height="14.25"/>
   </objectgroup>
  </tile>
  <tile id="216">
   <objectgroup draworder="index" id="2">
    <object id="1" x="0" y="15.25" width="32.75" height="14.5"/>
   </objectgroup>
  </tile>
  <tile id="217">
   <objectgroup draworder="index" id="2">
    <object id="1" x="11.5" y="-0.25" width="8.75" height="29.75"/>
   </objectgroup>
  </tile>
  <tile id="218">
   <objectgroup draworder="index" id="3">
    <object id="2" x="11.5" y="4.75" width="20" height="24.75"/>
   </objectgroup>
  </tile>
  <tile id="219">
   <objectgroup draworder="index" id="2">
    <object id="1" x="-3.75" y="6.5" width="24.5" height="22.5"/>
   </objectgroup>
  </tile>
  <tile id="220">
   <objectgroup draworder="index" id="2">
    <object id="1" x="10.75" y="13.25" width="22" height="16.25"/>
   </objectgroup>
  </tile>
  <tile id="221">
   <objectgroup draworder="index" id="2">
    <object id="1" x="10.75" y="-0.5" width="9.75" height="33.75"/>
    <object id="2" x="20.25" y="14.5" width="12" height="13.25"/>
   </objectgroup>
  </tile>
  <tile id="222">
   <objectgroup draworder="index" id="2">
    <object id="1" x="11" y="0.25" width="9.75" height="32.5"/>
    <object id="2" x="0" y="15" width="11.25" height="13"/>
   </objectgroup>
  </tile>
  <tile id="223">
   <objectgroup draworder="index" id="2">
    <object id="1" x="11.25" y="13.25" width="10.5" height="16.75"/>
   </objectgroup>
  </tile>
 </tileset>
 <tileset firstgid="1641" name="A_Grass_pipo" tilewidth="32" tileheight="32" tilecount="528" columns="8">
  <image source="../images/A_Grass_pipo.png" width="256" height="2112"/>
 </tileset>
 <tileset firstgid="2169" name="A_Water_pipo" tilewidth="32" tileheight="32" tilecount="3072" columns="64">
  <image source="../images/A_Water_pipo.png" width="2048" height="1536"/>
 </tileset>
 <tileset firstgid="5241" name="A_Flower_pipo" tilewidth="32" tileheight="32" tilecount="96" columns="8">
  <image source="../images/A_Flower_pipo.png" width="256" height="384"/>
 </tileset>
 <layer id="5" name="ground" width="26" height="26">
  <data encoding="csv">
577,577,577,577,577,577,577,577,577,577,577,577,577,577,577,577,577,577,577,577,577,577,577,577,577,577,
577,577,577,577,577,577,577,577,577,577,577,577,577,577,577,577,577,577,577,577,577,577,577,577,577,577,
577,577,867,867,867,867,867,867,867,577,577,577,577,577,577,577,577,867,867,867,867,867,867,867,577,577,
577,577,867,867,867,867,867,867,867,577,577,577,577,577,577,577,577,867,867,867,867,867,867,867,577,577,
577,577,867,867,867,867,867,867,867,577,577,577,577,577,577,577,577,867,867,867,867,867,867,867,577,577,
577,577,867,867,867,867,867,867,867,867,867,867,867,867,867,867,867,867,867,867,867,867,867,867,577,577,
577,577,867,867,867,867,867,867,867,867,867,867,867,867,867,867,867,867,867,867,867,867,867,867,577,577,
577,577,867,867,867,867,867,867,867,577,577,577,867,867,577,577,577,867,867,867,867,867,867,867,577,577,
577,577,867,867,867,867,867,867,867,577,577,577,867,867,577,577,577,867,867,867,867,867,867,867,577,577,
577,577,577,577,577,867,867,577,577,577,577,577,867,867,577,577,577,577,577,867,867,577,577,577,577,577,
577,577,577,577,577,867,867,577,577,577,867,867,867,867,867,867,577,577,577,867,867,577,577,577,577,577,
577,577,577,577,577,867,867,577,577,577,867,867,867,867,867,867,577,577,577,867,867,577,577,577,577,577,
577,577,577,577,577,867,867,867,867,867,867,867,867,867,867,867,867,867,867,867,867,577,577,577,577,577,
577,577,577,577,577,867,867,867,867,867,867,867,867,867,867,867,867,867,867,867,867,577,577,577,577,577,
577,577,577,577,577,867,867,577,577,577,867,867,867,867,867,867,577,577,577,867,867,577,577,577,577,577,
577,577,577,577,577,867,867,577,577,577,867,867,867,867,867,867,577,577,577,867,867,577,577,577,577,577,
577,577,577,577,577,867,867,577,577,577,577,577,867,867,577,577,577,577,577,867,867,577,577,577,577,577,
577,577,867,867,867,867,867,867,867,577,577,577,867,867,577,577,577,867,867,867,867,867,867,867,577,577,
577,577,867,867,867,867,867,867,867,577,577,577,867,867,577,577,577,867,867,867,867,867,867,867,577,577,
577,577,867,867,867,867,867,867,867,867,867,867,867,867,867,867,867,867,867,867,867,867,867,867,577,577,
577,577,867,867,867,867,867,867,867,867,867,867,867,867,867,867,867,867,867,867,867,867,867,867,577,577,
577,577,867,867,867,867,867,867,867,577,577,577,577,577,577,577,577,867,867,867,867,867,867,867,577,577,
577,577,867,867,867,867,867,867,867,577,577,577,577,577,577,577,577,867,867,867,867,867,867,867,577,577,
577,577,867,867,867,867,867,867,867,577,577,577,577,577,577,577,577,867,867,867,867,867,867,867,577,577,
577,577,577,577,577,577,577,577,577,577,577,577,577,577,577,577,577,577,577,577,577,577,577,577,577,577,
577,577,577,577,577,577,577,577,577,577,577,577,577,577,577,577,577,577,577,577,577,577,577,577,577,577
</data>
 </layer>
 <layer id="8" name="grass" width="26" height="26">
  <data encoding="csv">
0,0,0,0,0,0,0,0,0,0,0,0,0,0,0,0,0,0,0,0,0,0,0,0,0,0,
0,0,0,0,0,0,0,0,0,0,0,0,0,0,0,0,0,0,0,0,0,0,0,0,0,0,
0,0,0,0,0,0,0,0,0,0,0,0,0,0,0,0,0,0,0,0,0,0,0,0,0,0,
0,0,0,0,0,0,0,0,0,0,0,0,0,0,0,0,0,0,0,0,0,0,0,0,0,0,
0,0,0,0,0,0,0,0,0,0,0,0,0,0,0,0,0,0,0,0,0,0,0,0,0,0,
0,0,0,0,0,0,0,0,0,0,0,0,0,0,0,0,0,0,0,0,0,0,0,0,0,0,
0,0,0,0,0,0,0,0,0,0,0,0,0,0,0,0,0,0,0,0,0,0,0,0,0,0,
0,0,0,0,0,0,0,0,0,0,0,0,0,0,0,0,0,0,0,0,0,0,0,0,0,0,
0,0,0,0,0,0,0,0,0,0,0,0,0,0,0,0,0,0,0,0,0,0,0,0,0,0,
0,0,0,0,0,0,0,0,0,0,0,0,0,0,0,0,0,0,0,0,0,0,0,0,0,0,
0,0,0,0,0,0,0,0,0,0,0,0,0,0,0,0,0,0,0,0,0,0,0,0,0,0,
0,0,0,0,0,0,0,0,0,0,0,0,0,0,0,0,0,0,0,0,0,0,0,0,0,0,
0,0,0,0,0,0,0,0,0,0,0,0,0,0,0,0,0,0,0,0,0,0,0,0,0,0,
0,0,0,0,0,0,0,0,0,0,0,0,0,0,0,0,0,0,0,0,0,0,0,0,0,0,
0,0,0,0,0,0,0,0,0,0,0,0,0,0,0,0,0,0,0,0,0,0,0,0,0,0,
0,0,0,0,0,0,0,0,0,0,0,0,0,0,0,0,0,0,0,0,0,0,0,0,0,0,
0,0,0,0,0,0,0,0,0,0,0,0,0,0,0,0,0,0,0,0,0,0,0,0,0,0,
0,0,0,0,0,0,0,0,0,0,0,0,0,0,0,0,0,0,0,0,0,0,0,0,0,0,
0,0,0,0,0,0,0,0,0,0,0,0,0,0,0,0,0,0,0,0,0,0,0,0,0,0,
0,0,0,0,0,0,0,0,0,0,0,0,0,0,0,0,0,0,0,0,0,0,0,0,0,0,
0,0,0,0,0,0,0,0,0,0,0,0,0,0,0,0,0,0,0,0,0,0,0,0,0,0,
0,0,0,0,0,0,0,0,0,0,0,0,0,0,0,0,0,0,0,0,0,0,0,0,0,0,
0,0,0,0,0,0,0,0,0,0,0,0,0,0,0,0,0,0,0,0,0,0,0,0,0,0,
0,0,0,0,0,0,0,0,0,0,0,0,0,0,0,0,0,0,0,0,0,0,0,0,0,0,
0,0,0,0,0,0,0,0,0,0,0,0,0,0,0,0,0,0,0,0,0,0,0,0,0,0,
0,0,0,0,0,0,0,0,0,0,0,0,0,0,0,0,0,0,0,0,0,0,0,0,0,0
</data>
 </layer>
 <objectgroup id="21" name="HitBoxes">
  <object id="122" x="291.456" y="65.3999" width="253.069" height="90.9911"/>
  <object id="123" x="65.3999" y="2.84347" width="702.338" height="58.2912"/>
  <object id="126" x="769.159" y="2.84347" width="61.1347" height="762.051"/>
  <object id="127" x="65.3999" y="766.316" width="767.738" height="62.5564"/>
  <object id="128" x="1.42174" y="1.42174" width="62.5564" height="830.294"/>
  <object id="129" x="62.5564" y="284.347" width="99.5215" height="258.756"/>
  <object id="130" x="288.612" y="673.903" width="257.334" height="99.5215"/>
  <object id="131" x="671.059" y="287.191" width="109.474" height="255.913"/>
  <object id="132" x="446.425" y="224.634" width="95.2563" height="96.6781"/>
  <object id="133" x="513.247" y="290.034" width="92.4129" height="92.4129"/>
  <object id="134" x="511.825" y="445.003" width="93.8346" height="99.5215"/>
  <object id="135" x="449.269" y="510.403" width="95.2563" height="98.0998"/>
  <object id="136" x="288.612" y="510.403" width="92.4129" height="96.6781"/>
  <object id="137" x="226.056" y="446.425" width="95.2563" height="95.2563"/>
  <object id="138" x="226.056" y="291.456" width="90.9911" height="89.5694"/>
  <object id="140" x="290.034" y="224.634" width="92.4129" height="93.8346"/>
 </objectgroup>
 <layer id="12" name="farm" width="26" height="26">
  <data encoding="csv">
0,0,0,0,0,0,0,0,0,0,0,0,0,0,0,0,0,0,0,0,0,0,0,0,0,0,
0,0,0,0,0,0,0,0,0,0,0,0,0,0,0,0,0,0,0,0,0,0,0,0,0,0,
0,0,0,0,0,0,0,0,0,0,0,0,0,0,0,0,0,0,0,0,0,0,0,0,0,0,
0,0,0,0,0,0,0,0,0,0,0,0,0,0,0,0,0,0,0,0,0,0,0,0,0,0,
0,0,0,0,0,0,0,0,0,0,0,0,0,0,0,0,0,0,0,0,0,0,0,0,0,0,
0,0,0,0,0,0,0,0,0,0,0,0,0,0,0,0,0,0,0,0,0,0,0,0,0,0,
0,0,0,0,0,0,0,0,0,0,0,0,0,0,0,0,0,0,0,0,0,0,0,0,0,0,
0,0,0,0,0,0,0,0,0,0,0,0,0,0,0,0,0,0,0,0,0,0,0,0,0,0,
0,0,0,0,0,0,0,0,0,0,0,0,0,0,0,0,0,0,0,0,0,0,0,0,0,0,
0,0,0,0,0,0,0,0,0,0,0,0,0,0,0,0,0,0,0,0,0,0,0,0,0,0,
0,0,0,0,0,0,0,0,0,0,0,0,0,0,0,0,0,0,0,0,0,0,0,0,0,0,
0,0,0,0,0,0,0,0,0,0,0,0,0,0,0,0,0,0,0,0,0,0,0,0,0,0,
0,0,0,0,0,0,0,0,0,0,0,0,0,0,0,0,0,0,0,0,0,0,0,0,0,0,
0,0,0,0,0,0,0,0,0,0,0,0,0,0,0,0,0,0,0,0,0,0,0,0,0,0,
0,0,0,0,0,0,0,0,0,0,0,0,0,0,0,0,0,0,0,0,0,0,0,0,0,0,
0,0,0,0,0,0,0,0,0,0,0,0,0,0,0,0,0,0,0,0,0,0,0,0,0,0,
0,0,0,0,0,0,0,0,0,0,0,0,0,0,0,0,0,0,0,0,0,0,0,0,0,0,
0,0,0,0,0,0,0,0,0,0,0,0,0,0,0,0,0,0,0,0,0,0,0,0,0,0,
0,0,0,0,0,0,0,0,0,0,0,0,0,0,0,0,0,0,0,0,0,0,0,0,0,0,
0,0,0,0,0,0,0,0,0,0,0,0,0,0,0,0,0,0,0,0,0,0,0,0,0,0,
0,0,0,0,0,0,0,0,0,0,0,0,0,0,0,0,0,0,0,0,0,0,0,0,0,0,
0,0,0,0,0,0,0,0,0,0,0,0,0,0,0,0,0,0,0,0,0,0,0,0,0,0,
0,0,0,0,0,0,0,0,0,0,0,0,0,0,0,0,0,0,0,0,0,0,0,0,0,0,
0,0,0,0,0,0,0,0,0,0,0,0,0,0,0,0,0,0,0,0,0,0,0,0,0,0,
0,0,0,0,0,0,0,0,0,0,0,0,0,0,0,0,0,0,0,0,0,0,0,0,0,0,
0,0,0,0,0,0,0,0,0,0,0,0,0,0,0,0,0,0,0,0,0,0,0,0,0,0
</data>
 </layer>
 <layer id="13" name="farm_up" width="26" height="26">
  <data encoding="csv">
0,0,0,0,0,0,0,0,0,0,0,0,0,0,0,0,0,0,0,0,0,0,0,0,0,0,
0,0,0,0,0,0,0,0,0,0,0,0,0,0,0,0,0,0,0,0,0,0,0,0,0,0,
0,0,0,0,0,0,0,0,0,0,0,0,0,0,0,0,0,0,0,0,0,0,0,0,0,0,
0,0,0,0,0,0,0,0,0,0,0,0,0,0,0,0,0,0,0,0,0,0,0,0,0,0,
0,0,0,0,0,0,0,0,0,0,0,0,0,0,0,0,0,0,0,0,0,0,0,0,0,0,
0,0,0,0,0,0,0,0,0,0,0,0,0,0,0,0,0,0,0,0,0,0,0,0,0,0,
0,0,0,0,0,0,0,0,0,0,0,0,0,0,0,0,0,0,0,0,0,0,0,0,0,0,
0,0,0,0,0,0,0,0,0,0,0,0,0,0,0,0,0,0,0,0,0,0,0,0,0,0,
0,0,0,0,0,0,0,0,0,0,0,0,0,0,0,0,0,0,0,0,0,0,0,0,0,0,
0,0,0,0,0,0,0,0,0,0,0,0,0,0,0,0,0,0,0,0,0,0,0,0,0,0,
0,0,0,0,0,0,0,0,0,0,0,0,0,0,0,0,0,0,0,0,0,0,0,0,0,0,
0,0,0,0,0,0,0,0,0,0,0,0,0,0,0,0,0,0,0,0,0,0,0,0,0,0,
0,0,0,0,0,0,0,0,0,0,0,0,0,0,0,0,0,0,0,0,0,0,0,0,0,0,
0,0,0,0,0,0,0,0,0,0,0,0,0,0,0,0,0,0,0,0,0,0,0,0,0,0,
0,0,0,0,0,0,0,0,0,0,0,0,0,0,0,0,0,0,0,0,0,0,0,0,0,0,
0,0,0,0,0,0,0,0,0,0,0,0,0,0,0,0,0,0,0,0,0,0,0,0,0,0,
0,0,0,0,0,0,0,0,0,0,0,0,0,0,0,0,0,0,0,0,0,0,0,0,0,0,
0,0,0,0,0,0,0,0,0,0,0,0,0,0,0,0,0,0,0,0,0,0,0,0,0,0,
0,0,0,0,0,0,0,0,0,0,0,0,0,0,0,0,0,0,0,0,0,0,0,0,0,0,
0,0,0,0,0,0,0,0,0,0,0,0,0,0,0,0,0,0,0,0,0,0,0,0,0,0,
0,0,0,0,0,0,0,0,0,0,0,0,0,0,0,0,0,0,0,0,0,0,0,0,0,0,
0,0,0,0,0,0,0,0,0,0,0,0,0,0,0,0,0,0,0,0,0,0,0,0,0,0,
0,0,0,0,0,0,0,0,0,0,0,0,0,0,0,0,0,0,0,0,0,0,0,0,0,0,
0,0,0,0,0,0,0,0,0,0,0,0,0,0,0,0,0,0,0,0,0,0,0,0,0,0,
0,0,0,0,0,0,0,0,0,0,0,0,0,0,0,0,0,0,0,0,0,0,0,0,0,0,
0,0,0,0,0,0,0,0,0,0,0,0,0,0,0,0,0,0,0,0,0,0,0,0,0,0
</data>
 </layer>
 <layer id="6" name="water" width="26" height="26">
  <data encoding="csv">
0,0,0,0,0,0,0,0,0,0,0,0,0,0,0,0,0,0,0,0,0,0,0,0,0,0,
0,0,0,0,0,0,0,0,0,0,0,0,0,0,0,0,0,0,0,0,0,0,0,0,0,0,
0,0,0,0,0,0,0,0,0,0,0,0,0,0,0,0,0,0,0,0,0,0,0,0,0,0,
0,0,0,0,0,0,0,0,0,0,0,0,0,0,0,0,0,0,0,0,0,0,0,0,0,0,
0,0,0,0,0,0,0,0,0,0,0,0,0,0,0,0,0,0,0,0,0,0,0,0,0,0,
0,0,0,0,0,0,0,0,0,0,0,0,0,0,0,0,0,0,0,0,0,0,0,0,0,0,
0,0,0,0,0,0,0,0,0,0,0,0,0,0,0,0,0,0,0,0,0,0,0,0,0,0,
0,0,0,0,0,0,0,0,0,0,0,0,0,0,0,0,0,0,0,0,0,0,0,0,0,0,
0,0,0,0,0,0,0,0,0,0,0,0,0,0,0,0,0,0,0,0,0,0,0,0,0,0,
0,0,0,0,0,0,0,0,0,0,0,0,0,0,0,0,0,0,0,0,0,0,0,0,0,0,
0,0,0,0,0,0,0,0,0,0,0,0,0,0,0,0,0,0,0,0,0,0,0,0,0,0,
0,0,0,0,0,0,0,0,0,0,0,0,0,0,0,0,0,0,0,0,0,0,0,0,0,0,
0,0,0,0,0,0,0,0,0,0,0,0,0,0,0,0,0,0,0,0,0,0,0,0,0,0,
0,0,0,0,0,0,0,0,0,0,0,0,0,0,0,0,0,0,0,0,0,0,0,0,0,0,
0,0,0,0,0,0,0,0,0,0,0,0,0,0,0,0,0,0,0,0,0,0,0,0,0,0,
0,0,0,0,0,0,0,0,0,0,0,0,0,0,0,0,0,0,0,0,0,0,0,0,0,0,
0,0,0,0,0,0,0,0,0,0,0,0,0,0,0,0,0,0,0,0,0,0,0,0,0,0,
0,0,0,0,0,0,0,0,0,0,0,0,0,0,0,0,0,0,0,0,0,0,0,0,0,0,
0,0,0,0,0,0,0,0,0,0,0,0,0,0,0,0,0,0,0,0,0,0,0,0,0,0,
0,0,0,0,0,0,0,0,0,0,0,0,0,0,0,0,0,0,0,0,0,0,0,0,0,0,
0,0,0,0,0,0,0,0,0,0,0,0,0,0,0,0,0,0,0,0,0,0,0,0,0,0,
0,0,0,0,0,0,0,0,0,0,0,0,0,0,0,0,0,0,0,0,0,0,0,0,0,0,
0,0,0,0,0,0,0,0,0,0,0,0,0,0,0,0,0,0,0,0,0,0,0,0,0,0,
0,0,0,0,0,0,0,0,0,0,0,0,0,0,0,0,0,0,0,0,0,0,0,0,0,0,
0,0,0,0,0,0,0,0,0,0,0,0,0,0,0,0,0,0,0,0,0,0,0,0,0,0,
0,0,0,0,0,0,0,0,0,0,0,0,0,0,0,0,0,0,0,0,0,0,0,0,0,0
</data>
 </layer>
 <layer id="10" name="water_grass" width="26" height="26">
  <data encoding="csv">
0,0,0,0,0,0,0,0,0,0,0,0,0,0,0,0,0,0,0,0,0,0,0,0,0,0,
0,0,0,0,0,0,0,0,0,0,0,0,0,0,0,0,0,0,0,0,0,0,0,0,0,0,
0,0,0,0,0,0,0,0,0,0,0,0,0,0,0,0,0,0,0,0,0,0,0,0,0,0,
0,0,0,0,0,0,0,0,0,0,0,0,0,0,0,0,0,0,0,0,0,0,0,0,0,0,
0,0,0,0,0,0,0,0,0,0,0,0,0,0,0,0,0,0,0,0,0,0,0,0,0,0,
0,0,0,0,0,0,0,0,0,0,0,0,0,0,0,0,0,0,0,0,0,0,0,0,0,0,
0,0,0,0,0,0,0,0,0,0,0,0,0,0,0,0,0,0,0,0,0,0,0,0,0,0,
0,0,0,0,0,0,0,0,0,0,0,0,0,0,0,0,0,0,0,0,0,0,0,0,0,0,
0,0,0,0,0,0,0,0,0,0,0,0,0,0,0,0,0,0,0,0,0,0,0,0,0,0,
0,0,0,0,0,0,0,0,0,0,0,0,0,0,0,0,0,0,0,0,0,0,0,0,0,0,
0,0,0,0,0,0,0,0,0,0,0,0,0,0,0,0,0,0,0,0,0,0,0,0,0,0,
0,0,0,0,0,0,0,0,0,0,0,0,0,0,0,0,0,0,0,0,0,0,0,0,0,0,
0,0,0,0,0,0,0,0,0,0,0,0,0,0,0,0,0,0,0,0,0,0,0,0,0,0,
0,0,0,0,0,0,0,0,0,0,0,0,0,0,0,0,0,0,0,0,0,0,0,0,0,0,
0,0,0,0,0,0,0,0,0,0,0,0,0,0,0,0,0,0,0,0,0,0,0,0,0,0,
0,0,0,0,0,0,0,0,0,0,0,0,0,0,0,0,0,0,0,0,0,0,0,0,0,0,
0,0,0,0,0,0,0,0,0,0,0,0,0,0,0,0,0,0,0,0,0,0,0,0,0,0,
0,0,0,0,0,0,0,0,0,0,0,0,0,0,0,0,0,0,0,0,0,0,0,0,0,0,
0,0,0,0,0,0,0,0,0,0,0,0,0,0,0,0,0,0,0,0,0,0,0,0,0,0,
0,0,0,0,0,0,0,0,0,0,0,0,0,0,0,0,0,0,0,0,0,0,0,0,0,0,
0,0,0,0,0,0,0,0,0,0,0,0,0,0,0,0,0,0,0,0,0,0,0,0,0,0,
0,0,0,0,0,0,0,0,0,0,0,0,0,0,0,0,0,0,0,0,0,0,0,0,0,0,
0,0,0,0,0,0,0,0,0,0,0,0,0,0,0,0,0,0,0,0,0,0,0,0,0,0,
0,0,0,0,0,0,0,0,0,0,0,0,0,0,0,0,0,0,0,0,0,0,0,0,0,0,
0,0,0,0,0,0,0,0,0,0,0,0,0,0,0,0,0,0,0,0,0,0,0,0,0,0,
0,0,0,0,0,0,0,0,0,0,0,0,0,0,0,0,0,0,0,0,0,0,0,0,0,0
</data>
 </layer>
 <layer id="7" name="building" width="26" height="26">
  <data encoding="csv">
0,0,0,0,0,0,0,0,0,0,0,0,0,0,0,0,0,0,0,0,0,0,0,0,0,0,
0,787,793,793,793,793,793,793,793,788,0,0,0,0,0,0,787,793,793,793,793,793,793,793,788,0,
0,785,0,0,0,0,0,0,0,785,0,0,0,0,0,0,785,0,0,0,0,0,0,0,785,0,
0,785,0,0,0,0,0,0,0,785,0,0,0,0,0,0,785,0,0,0,0,0,0,0,785,0,
0,785,0,0,0,0,0,0,0,795,793,793,793,793,793,793,796,0,0,0,0,0,0,0,785,0,
0,785,0,0,0,0,0,0,0,0,0,0,0,0,0,0,0,0,0,0,0,0,0,0,785,0,
0,785,0,0,0,0,0,0,0,0,0,0,0,0,0,0,0,0,0,0,0,0,0,0,785,0,
0,785,0,0,0,0,0,0,0,787,793,788,0,0,787,793,788,0,0,0,0,0,0,0,785,0,
0,785,0,0,0,0,0,0,0,785,0,785,0,0,785,0,785,0,0,0,0,0,0,0,785,0,
0,795,793,793,788,0,0,787,793,792,793,796,0,0,795,793,792,793,788,0,0,787,793,793,796,0,
0,0,0,0,785,0,0,785,0,785,0,0,0,0,0,0,785,0,785,0,0,785,0,0,0,0,
0,0,0,0,785,0,0,795,793,796,0,0,0,0,0,0,795,793,796,0,0,785,0,0,0,0,
0,0,0,0,785,0,0,0,0,0,0,0,0,0,0,0,0,0,0,0,0,785,0,0,0,0,
0,0,0,0,785,0,0,0,0,0,0,0,0,0,0,0,0,0,0,0,0,785,0,0,0,0,
0,0,0,0,785,0,0,787,793,788,0,0,0,0,0,0,787,793,788,0,0,785,0,0,0,0,
0,0,0,0,785,0,0,785,0,785,0,0,0,0,0,0,785,0,785,0,0,785,0,0,0,0,
0,787,793,793,796,0,0,795,793,792,793,788,0,0,787,793,792,793,796,0,0,795,793,793,0,0,
0,785,0,0,0,0,0,0,0,785,0,785,0,0,785,0,785,0,0,0,0,0,0,0,785,0,
0,785,0,0,0,0,0,0,0,795,793,796,0,0,795,793,796,0,0,0,0,0,0,0,785,0,
0,785,0,0,0,0,0,0,0,0,0,0,0,0,0,0,0,0,0,0,0,0,0,0,785,0,
0,785,0,0,0,0,0,0,0,0,0,0,0,0,0,0,0,0,0,0,0,0,0,0,785,0,
0,785,0,0,0,0,0,0,0,787,793,793,793,793,793,793,788,0,0,0,0,0,0,0,785,0,
0,785,0,0,0,0,0,0,0,785,0,0,0,0,0,0,785,0,0,0,0,0,0,0,785,0,
0,785,0,0,0,0,0,0,0,785,0,0,0,0,0,0,785,0,0,0,0,0,0,0,785,0,
0,795,793,793,793,793,793,793,793,796,0,0,0,0,0,0,795,793,793,793,793,793,793,793,796,0,
0,0,0,0,0,0,0,0,0,0,0,0,0,0,0,0,0,0,0,0,0,0,0,0,0,0
</data>
 </layer>
 <layer id="11" name="building_up" width="26" height="26">
  <data encoding="csv">
0,0,0,0,0,0,0,0,0,0,0,0,0,0,0,0,0,0,0,0,0,0,0,0,0,0,
0,0,0,0,0,0,0,0,0,0,0,0,0,0,0,0,0,0,0,0,0,0,0,0,0,0,
0,0,0,0,0,0,0,0,0,0,0,0,0,0,0,0,0,0,0,0,0,0,0,0,0,0,
0,0,0,0,0,0,0,0,0,0,0,0,0,0,0,0,0,0,0,0,0,0,0,0,0,0,
0,0,0,0,0,0,0,0,0,0,0,0,0,0,0,0,0,0,0,0,0,0,0,0,0,0,
0,0,0,0,0,0,0,0,0,0,0,0,0,0,0,0,0,0,0,0,0,0,0,0,0,0,
0,0,0,0,0,0,0,0,0,0,0,0,0,0,0,0,0,0,0,0,0,0,0,0,0,0,
0,0,0,0,0,0,0,0,0,0,0,0,0,0,0,0,0,0,0,0,0,0,0,0,0,0,
0,0,0,0,0,0,0,0,0,0,0,0,0,0,0,0,0,0,0,0,0,0,0,0,0,0,
0,0,0,0,0,0,0,0,0,0,0,0,0,0,0,0,0,0,0,0,0,0,0,0,0,0,
0,0,0,0,0,0,0,0,0,0,0,0,0,0,0,0,0,0,0,0,0,0,0,0,0,0,
0,0,0,0,0,0,0,0,0,0,0,0,0,0,0,0,0,0,0,0,0,0,0,0,0,0,
0,0,0,0,0,0,0,0,0,0,0,0,0,0,0,0,0,0,0,0,0,0,0,0,0,0,
0,0,0,0,0,0,0,0,0,0,0,0,0,0,0,0,0,0,0,0,0,0,0,0,0,0,
0,0,0,0,0,0,0,0,0,0,0,0,0,0,0,0,0,0,0,0,0,0,0,0,0,0,
0,0,0,0,0,0,0,0,0,0,0,0,0,0,0,0,0,0,0,0,0,0,0,0,0,0,
0,0,0,0,0,0,0,0,0,0,0,0,0,0,0,0,0,0,0,0,0,0,0,0,0,0,
0,0,0,0,0,0,0,0,0,0,0,0,0,0,0,0,0,0,0,0,0,0,0,0,0,0,
0,0,0,0,0,0,0,0,0,0,0,0,0,0,0,0,0,0,0,0,0,0,0,0,0,0,
0,0,0,0,0,0,0,0,0,0,0,0,0,0,0,0,0,0,0,0,0,0,0,0,0,0,
0,0,0,0,0,0,0,0,0,0,0,0,0,0,0,0,0,0,0,0,0,0,0,0,0,0,
0,0,0,0,0,0,0,0,0,0,0,0,0,0,0,0,0,0,0,0,0,0,0,0,0,0,
0,0,0,0,0,0,0,0,0,0,0,0,0,0,0,0,0,0,0,0,0,0,0,0,0,0,
0,0,0,0,0,0,0,0,0,0,0,0,0,0,0,0,0,0,0,0,0,0,0,0,0,0,
0,0,0,0,0,0,0,0,0,0,0,0,0,0,0,0,0,0,0,0,0,0,0,0,0,0,
0,0,0,0,0,0,0,0,0,0,0,0,0,0,0,0,0,0,0,0,0,0,0,0,0,0
</data>
 </layer>
 <layer id="9" name="tree" width="26" height="26">
  <data encoding="csv">
0,0,0,0,0,0,0,0,0,0,0,0,0,0,0,0,0,0,0,0,0,0,0,0,0,0,
0,0,0,0,0,0,0,0,0,0,0,0,0,0,0,0,0,0,0,0,0,0,0,0,0,0,
0,0,0,0,0,0,0,0,0,0,0,0,0,0,0,0,0,0,0,0,0,0,0,0,0,0,
0,0,0,0,0,0,0,0,0,0,0,0,0,0,0,0,0,0,0,0,0,0,0,0,0,0,
0,0,0,0,0,0,0,0,0,0,0,0,0,0,0,0,0,0,0,0,0,0,0,0,0,0,
0,0,0,0,0,0,0,0,0,0,0,0,0,0,0,0,0,0,0,0,0,0,0,0,0,0,
0,0,0,0,0,0,0,0,0,0,0,0,0,0,0,0,0,0,0,0,0,0,0,0,0,0,
0,0,0,0,0,0,0,0,0,0,0,0,0,0,0,0,0,0,0,0,0,0,0,0,0,0,
0,0,0,0,0,0,0,0,0,0,0,0,0,0,0,0,0,0,0,0,0,0,0,0,0,0,
0,0,0,0,0,0,0,0,0,0,0,0,0,0,0,0,0,0,0,0,0,0,0,0,0,0,
0,0,0,0,0,0,0,0,0,0,0,0,0,0,0,0,0,0,0,0,0,0,0,0,0,0,
0,0,0,0,0,0,0,0,0,0,0,0,0,0,0,0,0,0,0,0,0,0,0,0,0,0,
0,0,0,0,0,0,0,0,0,0,0,0,0,0,0,0,0,0,0,0,0,0,0,0,0,0,
0,0,0,0,0,0,0,0,0,0,0,0,0,0,0,0,0,0,0,0,0,0,0,0,0,0,
0,0,0,0,0,0,0,0,0,0,0,0,0,0,0,0,0,0,0,0,0,0,0,0,0,0,
0,0,0,0,0,0,0,0,0,0,0,0,0,0,0,0,0,0,0,0,0,0,0,0,0,0,
0,0,0,0,0,0,0,0,0,0,0,0,0,0,0,0,0,0,0,0,0,0,0,0,0,0,
0,0,0,0,0,0,0,0,0,0,0,0,0,0,0,0,0,0,0,0,0,0,0,0,0,0,
0,0,0,0,0,0,0,0,0,0,0,0,0,0,0,0,0,0,0,0,0,0,0,0,0,0,
0,0,0,0,0,0,0,0,0,0,0,0,0,0,0,0,0,0,0,0,0,0,0,0,0,0,
0,0,0,0,0,0,0,0,0,0,0,0,0,0,0,0,0,0,0,0,0,0,0,0,0,0,
0,0,0,0,0,0,0,0,0,0,0,0,0,0,0,0,0,0,0,0,0,0,0,0,0,0,
0,0,0,0,0,0,0,0,0,0,0,0,0,0,0,0,0,0,0,0,0,0,0,0,0,0,
0,0,0,0,0,0,0,0,0,0,0,0,0,0,0,0,0,0,0,0,0,0,0,0,0,0,
0,0,0,0,0,0,0,0,0,0,0,0,0,0,0,0,0,0,0,0,0,0,0,0,0,0,
0,0,0,0,0,0,0,0,0,0,0,0,0,0,0,0,0,0,0,0,0,0,0,0,0,0
</data>
 </layer>
 <objectgroup id="18" name="SafeZones"/>
 <objectgroup id="19" name="BoxSpawns">
  <object id="108" x="176" y="176">
   <point/>
  </object>
  <object id="109" x="656" y="176">
   <point/>
  </object>
  <object id="110" x="176" y="656">
   <point/>
  </object>
  <object id="111" x="656" y="656">
   <point/>
  </object>
  <object id="112" x="416" y="416">
   <point/>
  </object>
 </objectgroup>
 <objectgroup id="20" name="PlayerSpawns">
  <object id="113" x="257.334" y="419.412">
   <point/>
  </object>
  <object id="114" x="412.303" y="270.13">
   <point/>
  </object>
  <object id="115" x="565.851" y="409.46">
   <point/>
  </object>
  <object id="116" x="416.569" y="565.851">
   <point/>
  </object>
  <object id="117" x="76.7738" y="756.364">
   <point/>
  </object>
  <object id="118" x="752.098" y="754.942">
   <point/>
  </object>
  <object id="119" x="747.833" y="90.9911">
   <point/>
  </object>
  <object id="120" x="81.039" y="79.6172">
   <point/>
  </object>
 </objectgroup>
</map>
