<?xml version="1.0" encoding="UTF-8"?>
<map version="1.10" tiledversion="1.12.2" orientation="orthogonal" renderorder="right-down" width="60" height="60" tilewidth="32" tileheight="32" infinite="0" nextlayerid="21" nextobjectid="114">
 <editorsettings>
  <export target="samplemap_don_embed.tmx" format="tmx"/>
 </editorsettings>
 <tileset firstgid="1" source="A_WaterFall_pipo.tsx"/>
 <tileset firstgid="577" name="Base_BaseChip_pipo" tilewidth="32" tileheight="32" tilecount="1064" columns="8">
  <image source="../images/Base_BaseChip_pipo.png" width="256" height="4256"/>
  <tile id="16">
   <objectgroup draworder="index" id="2">
    <object id="1" x="31" y="22"/>
   </objectgroup>
  </tile>
  <tile id="17">
   <objectgroup draworder="index" id="2">
    <object id="1" x="0.666667" y="21.6667"/>
   </objectgroup>
  </tile>
  <tile id="18">
   <objectgroup draworder="index" id="2">
    <object id="1" x="28.3333" y="22"/>
   </objectgroup>
  </tile>
  <tile id="19">
   <objectgroup draworder="index" id="2">
    <object id="1" x="1" y="22"/>
   </objectgroup>
  </tile>
  <tile id="20">
   <objectgroup draworder="index" id="2">
    <object id="1" x="27.3333" y="22.3333"/>
   </objectgroup>
  </tile>
  <tile id="21">
   <objectgroup draworder="index" id="2">
    <object id="1" x="1" y="22"/>
   </objectgroup>
  </tile>
  <tile id="22">
   <objectgroup draworder="index" id="2">
    <object id="1" x="28" y="22.3333"/>
   </objectgroup>
  </tile>
  <tile id="23">
   <objectgroup draworder="index" id="2">
    <object id="1" x="-1" y="21.6667"/>
   </objectgroup>
  </tile>
  <tile id="40">
   <objectgroup draworder="index" id="2">
    <object id="1" x="-0.249513" y="30.6901">
     <polygon points="0,0 0.249513,-16.4678 31.9376,-15.2203 32.6862,1.24756"/>
    </object>
   </objectgroup>
  </tile>
  <tile id="41">
   <objectgroup draworder="index" id="2">
    <object id="1" x="0" y="31.6881">
     <polygon points="0,0 0.249513,-15.9688 32.1871,-15.2203 31.9376,-0.748538"/>
    </object>
   </objectgroup>
  </tile>
  <tile id="42">
   <objectgroup draworder="index" id="2">
    <object id="1" x="0" y="31.6881">
     <polygon points="0,0 0,-16.2183 32.4366,-15.4698 32.6862,0.998051"/>
    </object>
   </objectgroup>
  </tile>
  <tile id="43">
   <objectgroup draworder="index" id="2">
    <object id="1" x="16.6667" y="28.3333"/>
   </objectgroup>
  </tile>
  <tile id="44">
   <objectgroup draworder="index" id="2">
    <object id="1" x="16.3333" y="17"/>
   </objectgroup>
  </tile>
  <tile id="45">
   <objectgroup draworder="index" id="2">
    <object id="1" x="14.6667" y="17.3333"/>
   </objectgroup>
  </tile>
  <tile id="46">
   <objectgroup draworder="index" id="2">
    <object id="1" x="14.3333" y="17.3333"/>
    <object id="2" x="33.6667" y="17.6667"/>
   </objectgroup>
  </tile>
  <tile id="47">
   <objectgroup draworder="index" id="2">
    <object id="1" x="6" y="17"/>
    <object id="2" x="20" y="16.6667"/>
   </objectgroup>
  </tile>
  <tile id="63">
   <objectgroup draworder="index" id="2">
    <object id="1" x="16.3333" y="27"/>
    <object id="2" x="16" y="14.3333"/>
   </objectgroup>
  </tile>
  <tile id="64">
   <objectgroup draworder="index" id="2">
    <object id="1" x="16.3333" y="17"/>
   </objectgroup>
  </tile>
  <tile id="65">
   <objectgroup draworder="index" id="2">
    <object id="1" x="11.6667" y="18.3333"/>
    <object id="2" x="20" y="18.6667"/>
   </objectgroup>
  </tile>
  <tile id="67">
   <objectgroup draworder="index" id="2">
    <object id="1" x="3.66667" y="29.3333">
     <polygon points="0,0 -0.666667,-11.6667 24.6667,-11.3333 24.6667,-1"/>
    </object>
   </objectgroup>
  </tile>
  <tile id="68">
   <objectgroup draworder="index" id="2">
    <object id="1" x="5.33333" y="27.3333">
     <polygon points="0,0 5.33333,-13 14,-13 19,-0.333333 12,2"/>
    </object>
   </objectgroup>
  </tile>
  <tile id="69">
   <objectgroup draworder="index" id="2">
    <object id="1" x="16.6667" y="17.3333"/>
   </objectgroup>
  </tile>
  <tile id="71">
   <objectgroup draworder="index" id="2">
    <object id="1" x="15.6667" y="16"/>
    <object id="2" x="15.6667" y="7.33333"/>
   </objectgroup>
  </tile>
  <tile id="87">
   <objectgroup draworder="index" id="2">
    <object id="1" x="0.666667" y="21.6667">
     <polygon points="0,0 15.3333,6.66667 31.3333,-2.66667 31.6667,11 -0.666667,10"/>
    </object>
   </objectgroup>
  </tile>
  <tile id="88">
   <objectgroup draworder="index" id="3">
    <object id="2" x="0" y="22.3333">
     <polygon points="0,0 17.3333,0.666667 18,10 -0.333333,9.33333"/>
    </object>
   </objectgroup>
  </tile>
  <tile id="90">
   <objectgroup draworder="index" id="3">
    <object id="2" x="32" y="25.6667">
     <polygon points="0,0 -15.3333,1.66667 -15.3333,7 -1,5.66667"/>
    </object>
   </objectgroup>
  </tile>
  <tile id="95">
   <objectgroup draworder="index" id="2">
    <object id="1" x="-0.666667" y="31">
     <polygon points="0,0 33.3333,0.666667 33.3333,-32.3333 0,-31.6667"/>
    </object>
   </objectgroup>
  </tile>
  <tile id="96">
   <objectgroup draworder="index" id="2">
    <object id="1" x="-0.666667" y="-0.666667">
     <polygon points="0,0 -0.333333,33 32.3333,33.6667 32.6667,0.333333"/>
    </object>
   </objectgroup>
  </tile>
  <tile id="97">
   <objectgroup draworder="index" id="2">
    <object id="1" x="-0.333333" y="0">
     <polygon points="0,0 0,31.6667 33,31.6667 32.6667,-1"/>
    </object>
   </objectgroup>
  </tile>
  <tile id="98">
   <objectgroup draworder="index" id="2">
    <object id="1" x="-0.333333" y="32">
     <polygon points="0,0 33.3333,-0.333333 32.6667,-33.3333 0,-32.3333"/>
    </object>
   </objectgroup>
  </tile>
  <tile id="103">
   <objectgroup draworder="index" id="2">
    <object id="1" x="0.333333" y="23.3333">
     <polygon points="0,0 14,6.66667 31.6667,-2.33333 31.6667,-24 -0.666667,-24"/>
    </object>
   </objectgroup>
  </tile>
  <tile id="104">
   <objectgroup draworder="index" id="2">
    <object id="1" x="-0.333333" y="22">
     <polygon points="0,0 15.3333,9.33333 32,9 32.3333,-22.6667 -1.33333,-23"/>
    </object>
   </objectgroup>
  </tile>
  <tile id="105">
   <objectgroup draworder="index" id="2">
    <object id="1" x="-0.333333" y="31">
     <polygon points="0,0 32.6667,-0.666667 32.3333,-31.3333 -1.66667,-31.3333"/>
    </object>
   </objectgroup>
  </tile>
  <tile id="106">
   <objectgroup draworder="index" id="2">
    <object id="1" x="-0.333333" y="30.3333">
     <polygon points="0,0 22.3333,-3 33,-10.3333 32.3333,-32 -2,-31.3333"/>
    </object>
   </objectgroup>
  </tile>
  <tile id="136">
   <objectgroup draworder="index" id="2">
    <object id="1" x="-1" y="-2">
     <polygon points="0,0 33.6667,0.333333 33,35 0.333333,34"/>
    </object>
   </objectgroup>
  </tile>
  <tile id="137">
   <objectgroup draworder="index" id="2">
    <object id="1" x="-0.666667" y="-1.66667">
     <polygon points="0,0 33,1.66667 32.3333,33.6667 0.333333,33.3333"/>
    </object>
   </objectgroup>
  </tile>
  <tile id="144">
   <objectgroup draworder="index" id="2">
    <object id="1" x="-1" y="-1">
     <polygon points="0,0 33.6667,1 33.3333,31 0,31.3333"/>
    </object>
   </objectgroup>
  </tile>
  <tile id="163">
   <objectgroup draworder="index" id="2">
    <object id="1" x="1.66667" y="0">
     <polygon points="0,0 4.33333,17 23,16.6667 23.3333,-2.33333"/>
    </object>
   </objectgroup>
  </tile>
  <tile id="166">
   <objectgroup draworder="index" id="3">
    <object id="2" x="3" y="9.66667">
     <polygon points="0,0 24.3333,0 24,8.66667 -1.33333,6"/>
    </object>
   </objectgroup>
  </tile>
  <tile id="176">
   <objectgroup draworder="index" id="2">
    <object id="1" x="10.6667" y="0">
     <polygon points="0,0 0.333333,31.6667 11,31.6667 9.33333,-1"/>
    </object>
   </objectgroup>
  </tile>
  <tile id="177">
   <objectgroup draworder="index" id="2">
    <object id="1" x="8.66667" y="12">
     <polygon points="0,0 12.3333,0.666667 13,20.3333 1.66667,19.6667"/>
    </object>
   </objectgroup>
  </tile>
  <tile id="178">
   <objectgroup draworder="index" id="2">
    <object id="1" x="9.66667" y="32">
     <polygon points="0,0 -0.333333,-17.6667 22.6667,-16.3333 22.6667,-9 12.3333,-9.33333 12.3333,-0.666667"/>
    </object>
   </objectgroup>
  </tile>
  <tile id="179">
   <objectgroup draworder="index" id="2">
    <object id="1" x="0.333333" y="17.3333">
     <polygon points="0,0 19,-0.333333 20.3333,14.3333 8,15 8.66667,4 -1.33333,4.33333"/>
    </object>
   </objectgroup>
  </tile>
  <tile id="180">
   <objectgroup draworder="index" id="2">
    <object id="1" x="21" y="31">
     <polygon points="0,0 -0.666667,-16.3333 -21.3333,-14.6667 -21.3333,-2.33333"/>
    </object>
   </objectgroup>
  </tile>
  <tile id="181">
   <objectgroup draworder="index" id="2">
    <object id="1" x="-0.333333" y="27.6667">
     <polygon points="0,0 12.6667,-1 12.6667,-11.3333 -0.333333,-11.3333"/>
    </object>
    <object id="2" x="20.6667" y="27.3333">
     <polygon points="0,0 -0.666667,-15 11,-12.3333 11,3"/>
    </object>
    <object id="3" x="12.6667" y="29">
     <polygon points="0,0 7.66667,-1.33333 8,-29.6667 -2.33333,-30"/>
    </object>
   </objectgroup>
  </tile>
  <tile id="182">
   <objectgroup draworder="index" id="2">
    <object id="1" x="-0.666667" y="17.3333">
     <polygon points="0,0 32.6667,-0.666667 32.6667,9.66667 -0.333333,8.33333"/>
    </object>
    <object id="2" x="10.6667" y="32.3333">
     <polygon points="0,0 0,-8.33333 12,-7.33333 11,1"/>
    </object>
   </objectgroup>
  </tile>
  <tile id="183">
   <objectgroup draworder="index" id="2">
    <object id="1" x="10" y="32">
     <polygon points="0,0 -1.33333,-33.6667 13.3333,-32.6667 14.6667,1"/>
    </object>
    <object id="2" x="0.333333" y="26.6667">
     <polygon points="0,0 31.3333,-2 31.3333,-11 -1.33333,-9.66667"/>
    </object>
   </objectgroup>
  </tile>
  <tile id="184">
   <objectgroup draworder="index" id="2">
    <object id="1" x="0.333333" y="28.3333">
     <polygon points="0,0 31.6667,0.666667 31.3333,-15.6667 -1.66667,-14"/>
    </object>
   </objectgroup>
  </tile>
  <tile id="185">
   <objectgroup draworder="index" id="2">
    <object id="1" x="10.3333" y="28.3333">
     <polygon points="0,0 11.6667,-0.666667 9,-32 -2.33333,-27.3333"/>
    </object>
   </objectgroup>
  </tile>
  <tile id="186">
   <objectgroup draworder="index" id="2">
    <object id="1" x="7.66667" y="-1">
     <polygon points="0,0 2,27 23.6667,26.6667 23.6667,15.6667 16,15.3333 13.6667,1.66667"/>
    </object>
   </objectgroup>
  </tile>
  <tile id="187">
   <objectgroup draworder="index" id="2">
    <object id="1" x="21" y="0.333333">
     <polygon points="0,0 0.666667,26.6667 -21.3333,26.6667 -21.6667,-1.66667"/>
    </object>
   </objectgroup>
  </tile>
  <tile id="188">
   <objectgroup draworder="index" id="2">
    <object id="1" x="10.6667" y="27.6667">
     <polygon points="0,0 21.6667,-1 21.3333,-16.6667 -1,-15.3333"/>
    </object>
   </objectgroup>
  </tile>
  <tile id="189">
   <objectgroup draworder="index" id="2">
    <object id="1" x="11.6667" y="31.3333">
     <polygon points="0,0 -4,-33.3333 9.66667,-33 10.3333,-0.333333"/>
    </object>
    <object id="2" x="19.3333" y="22">
     <polygon points="0,0 13.6667,0 13.3333,-10 -0.333333,-9.66667"/>
    </object>
   </objectgroup>
  </tile>
  <tile id="190">
   <objectgroup draworder="index" id="2">
    <object id="1" x="22" y="32">
     <polygon points="0,0 -1,-33.6667 -12,-33.6667 -11.3333,0"/>
    </object>
    <object id="2" x="15" y="13">
     <polygon points="0,0 -15.6667,0 -15.6667,12 2,11"/>
    </object>
   </objectgroup>
  </tile>
  <tile id="191">
   <objectgroup draworder="index" id="2">
    <object id="1" x="9.33333" y="31">
     <polygon points="0,0 -0.666667,-14 13.6667,-14 12.6667,-1"/>
    </object>
   </objectgroup>
  </tile>
  <tile id="208">
   <objectgroup draworder="index" id="2">
    <object id="1" x="9.66667" y="31.6667">
     <polygon points="0,0 0.333333,-33 12,-33 11.6667,1"/>
    </object>
   </objectgroup>
  </tile>
  <tile id="209">
   <objectgroup draworder="index" id="3">
    <object id="2" x="11" y="32">
     <polygon points="0,0 0,-19.3333 10.6667,-19.6667 9.33333,0"/>
    </object>
   </objectgroup>
  </tile>
  <tile id="210">
   <objectgroup draworder="index" id="2">
    <object id="1" x="10.3333" y="33">
     <polygon points="0,0 0,-15 22.6667,-16 22.6667,-2.33333"/>
    </object>
   </objectgroup>
  </tile>
  <tile id="211">
   <objectgroup draworder="index" id="2">
    <object id="1" x="-0.333333" y="17">
     <polygon points="0,0 20.3333,0.333333 20.6667,14.3333 0,14.6667"/>
    </object>
   </objectgroup>
  </tile>
  <tile id="212">
   <objectgroup draworder="index" id="2">
    <object id="1" x="20.6667" y="18">
     <polygon points="0,0 1,9.33333 -21.3333,10 -21.6667,0.333333"/>
    </object>
   </objectgroup>
  </tile>
  <tile id="213">
   <objectgroup draworder="index" id="2">
    <object id="1" x="0" y="29">
     <polygon points="0,0 -1.33333,-11.6667 32,-12.3333 32,0.666667"/>
    </object>
    <object id="2" x="12" y="22">
     <polygon points="0,0 -2.33333,-23.3333 11,-23.3333 10,0"/>
    </object>
   </objectgroup>
  </tile>
  <tile id="214">
   <objectgroup draworder="index" id="2">
    <object id="1" x="0" y="20">
     <polygon points="0,0 32.6667,-1.33333 32.3333,8.66667 -1.66667,8.33333"/>
    </object>
    <object id="2" x="11" y="19.3333">
     <polygon points="0,0 -0.333333,13.6667 11,13 10.3333,0.333333"/>
    </object>
   </objectgroup>
  </tile>
  <tile id="215">
   <objectgroup draworder="index" id="2">
    <object id="1" x="-0.666667" y="19">
     <polygon points="0,0 33,-1.66667 33.3333,9.66667 0,9"/>
    </object>
    <object id="2" x="11" y="31.3333">
     <polygon points="0,0 -1,-31.6667 10.6667,-33 10.6667,1"/>
    </object>
   </objectgroup>
  </tile>
  <tile id="216">
   <objectgroup draworder="index" id="2">
    <object id="1" x="-0.333333" y="28.6667">
     <polygon points="0,0 32.6667,-0.333333 33,-11 -0.333333,-11.6667"/>
    </object>
   </objectgroup>
  </tile>
  <tile id="217">
   <objectgroup draworder="index" id="2">
    <object id="1" x="10.6667" y="28.3333">
     <polygon points="0,0 -0.666667,-30 11,-29.6667 10,0"/>
    </object>
   </objectgroup>
  </tile>
  <tile id="218">
   <objectgroup draworder="index" id="2">
    <object id="1" x="10.3333" y="30.6667">
     <polygon points="0,0 -1,-15.6667 21.3333,-15 21.6667,-2.33333"/>
    </object>
    <object id="2" x="21.3333" y="23">
     <polygon points="0,0 1,-24 -13,-22.6667 -10.3333,-1.33333"/>
    </object>
   </objectgroup>
  </tile>
  <tile id="219">
   <objectgroup draworder="index" id="2">
    <object id="1" x="21" y="0.333333">
     <polygon points="0,0 -0.666667,19 -13.6667,18.6667 -13,0.333333"/>
    </object>
    <object id="2" x="22" y="29.3333">
     <polygon points="0,0 0,-13 -23,-12 -23,0.666667"/>
    </object>
   </objectgroup>
  </tile>
  <tile id="220">
   <objectgroup draworder="index" id="2">
    <object id="1" x="10.3333" y="27.6667">
     <polygon points="0,0 0,-10.3333 21.6667,-10 21.6667,1"/>
    </object>
   </objectgroup>
  </tile>
  <tile id="221">
   <objectgroup draworder="index" id="4">
    <object id="3" x="11" y="30.3333">
     <polygon points="0,0 0.333333,-32.3333 11,-32 10.6667,1"/>
    </object>
    <object id="4" x="18.6667" y="14.6667">
     <polygon points="0,0 13.6667,-1.33333 14,12.3333 0.666667,14"/>
    </object>
   </objectgroup>
  </tile>
  <tile id="222">
   <objectgroup draworder="index" id="2">
    <object id="1" x="22.3333" y="31">
     <polygon points="0,0 -1,-32.6667 -12.6667,-32.3333 -12.6667,0.333333 2.33333,0"/>
    </object>
   </objectgroup>
  </tile>
  <tile id="223">
   <objectgroup draworder="index" id="2">
    <object id="1" x="9.66667" y="28">
     <polygon points="0,0 0,-12 12.3333,-12 11,0.333333"/>
    </object>
   </objectgroup>
  </tile>
  <tile id="226">
   <objectgroup draworder="index" id="4">
    <object id="3" x="3.33333" y="29">
     <polygon points="0,0 0,-21 25,-22 25,0"/>
    </object>
   </objectgroup>
  </tile>
  <tile id="227">
   <objectgroup draworder="index" id="2">
    <object id="1" x="27.6667" y="21">
     <polygon points="0,0 0.333333,-9.66667 -16.6667,-10 -16.3333,1.66667"/>
    </object>
   </objectgroup>
  </tile>
  <tile id="228">
   <objectgroup draworder="index" id="2">
    <object id="1" x="8.33333" y="32">
     <polygon points="0,0 0,-12.3333 15.6667,-13 15.3333,-0.666667"/>
    </object>
   </objectgroup>
  </tile>
  <tile id="234">
   <objectgroup draworder="index" id="2">
    <object id="1" x="7.33333" y="29">
     <polygon points="0,0 -1.33333,-9.66667 18,-9.66667 16.3333,-1.33333"/>
    </object>
   </objectgroup>
  </tile>
  <tile id="235">
   <objectgroup draworder="index" id="2">
    <object id="1" x="4" y="31.6667">
     <polygon points="0,0 -0.333333,-12.3333 24,-12.6667 24,0.333333"/>
    </object>
   </objectgroup>
  </tile>
  <tile id="236">
   <objectgroup draworder="index" id="2">
    <object id="1" x="3" y="31.6667">
     <polygon points="0,0 0,-16.6667 25.3333,-17 25,-1"/>
    </object>
   </objectgroup>
  </tile>
  <tile id="237">
   <objectgroup draworder="index" id="2">
    <object id="1" x="6.33333" y="31.6667">
     <polygon points="0,0 -1,-18 20.3333,-19 18.6667,0.666667"/>
    </object>
   </objectgroup>
  </tile>
  <tile id="238">
   <objectgroup draworder="index" id="2">
    <object id="1" x="3" y="29.6667">
     <polygon points="0,0 -0.333333,-21.6667 29,-19 29.6667,0.333333"/>
    </object>
   </objectgroup>
  </tile>
  <tile id="239">
   <objectgroup draworder="index" id="2">
    <object id="1" x="30" y="8.33333">
     <polygon points="0,0 -0.333333,22.6667 -31,22 -31.6667,-0.333333"/>
    </object>
   </objectgroup>
  </tile>
  <tile id="432">
   <objectgroup draworder="index" id="2">
    <object id="1" x="-0.249513" y="0" width="32.4366" height="32.1871"/>
   </objectgroup>
  </tile>
  <tile id="433">
   <objectgroup draworder="index" id="2">
    <object id="1" x="0" y="-0.249513" width="32.4366" height="32.4366"/>
   </objectgroup>
  </tile>
  <tile id="434">
   <objectgroup draworder="index" id="2">
    <object id="1" x="0" y="0" width="31.9376" height="31.9376"/>
   </objectgroup>
  </tile>
  <tile id="435">
   <objectgroup draworder="index" id="2">
    <object id="1" x="0" y="-0.249513" width="31.9376" height="32.6862"/>
   </objectgroup>
  </tile>
  <tile id="436">
   <objectgroup draworder="index" id="2">
    <object id="1" x="0.249513" y="0" width="31.1891" height="32.1871"/>
   </objectgroup>
  </tile>
  <tile id="437">
   <objectgroup draworder="index" id="2">
    <object id="1" x="-0.249513" y="-0.249513" width="32.9357" height="33.1852"/>
   </objectgroup>
  </tile>
  <tile id="440">
   <objectgroup draworder="index" id="2">
    <object id="1" x="0" y="-0.249513" width="32.4366" height="32.9357"/>
   </objectgroup>
  </tile>
  <tile id="441">
   <objectgroup draworder="index" id="2">
    <object id="1" x="-0.249513" y="-0.249513" width="32.4366" height="33.1852"/>
   </objectgroup>
  </tile>
  <tile id="442">
   <objectgroup draworder="index" id="2">
    <object id="1" x="0.249513" y="0" width="32.6862" height="32.6862"/>
   </objectgroup>
  </tile>
  <tile id="443">
   <objectgroup draworder="index" id="2">
    <object id="1" x="0.499025" y="-0.748538" width="31.1891" height="32.9357"/>
   </objectgroup>
  </tile>
  <tile id="444">
   <objectgroup draworder="index" id="2">
    <object id="1" x="0.249513" y="0.249513" width="32.1871" height="32.1871"/>
   </objectgroup>
  </tile>
  <tile id="445">
   <objectgroup draworder="index" id="2">
    <object id="1" x="-0.499025" y="-0.249513" width="32.6862" height="30.9396"/>
   </objectgroup>
  </tile>
  <tile id="446">
   <objectgroup draworder="index" id="2">
    <object id="1" x="0" y="-0.249513" width="31.9376" height="32.4366"/>
   </objectgroup>
  </tile>
 </tileset>
 <tileset firstgid="1641" source="A_Grass_pipo.tsx"/>
 <tileset firstgid="2169" source="A_Water_pipo.tsx"/>
 <tileset firstgid="5241" source="A_Flower_pipo.tsx"/>
 <layer id="5" name="ground" width="60" height="60">
  <data encoding="csv">
577,577,577,577,577,577,577,577,577,577,577,577,577,577,577,577,577,577,577,577,577,577,577,577,577,577,577,577,577,1943,1944,577,577,577,577,577,577,577,577,577,577,577,1710,1718,582,582,582,1717,1711,1711,1711,1711,1718,582,582,582,582,582,582,582,
577,577,577,577,577,577,577,577,577,577,577,577,577,577,577,577,577,577,577,577,577,577,577,577,577,577,577,577,1943,1943,1944,577,577,577,577,577,577,577,577,577,577,577,577,1710,1718,1717,1711,1712,577,577,577,577,1710,1711,1718,582,582,582,582,582,
577,577,577,577,577,577,577,577,577,577,577,577,577,577,577,577,577,577,577,577,577,577,577,577,577,577,577,577,1943,1943,1944,577,577,577,577,577,577,577,577,577,577,577,577,577,1710,1712,577,577,577,577,577,577,577,1710,1710,1718,582,582,582,582,
577,577,577,577,577,577,577,577,577,577,577,577,577,577,577,577,577,577,577,577,577,577,577,577,577,577,577,577,1943,1943,1944,577,577,577,577,577,577,577,577,577,577,577,577,577,577,577,577,577,577,577,577,577,577,577,1710,1710,1718,582,582,582,
577,577,577,577,577,577,577,577,577,577,577,577,577,577,577,577,577,577,577,577,577,577,577,577,577,577,577,577,1943,1943,1965,1936,577,577,577,577,577,577,577,577,577,577,577,577,577,577,577,577,577,577,582,582,577,577,577,577,1710,1718,582,1717,
577,577,577,577,577,577,577,577,577,577,577,577,577,577,577,577,577,577,577,577,577,577,577,577,577,577,577,1943,1943,1943,1943,1944,577,577,577,577,577,577,577,577,577,577,577,577,577,577,577,577,577,577,1710,1718,582,577,577,577,577,1702,582,1712,
577,577,577,577,577,577,577,577,577,577,577,577,577,577,577,577,577,577,577,577,577,577,577,577,577,577,577,1943,1943,1943,1943,1965,1936,577,577,577,577,577,577,577,577,577,577,577,577,577,577,577,577,577,577,1710,1711,1718,577,577,577,1710,1714,577,
577,577,577,577,577,577,577,577,577,577,577,577,577,577,577,577,577,577,577,577,577,577,577,577,577,577,1943,1943,1943,1943,1943,1943,1965,1936,577,577,577,577,577,577,577,577,577,577,577,577,577,577,577,577,577,577,577,1710,577,577,577,577,1709,577,
577,577,577,577,577,577,577,577,577,577,577,577,577,577,577,577,577,577,577,577,577,577,577,577,577,577,1943,1943,1943,1943,1943,1943,1943,1944,577,577,577,577,577,577,577,577,577,577,577,577,577,577,577,577,577,577,577,577,577,577,577,577,577,577,
577,577,577,577,577,577,577,577,577,577,577,577,1655,1655,1655,577,577,577,577,577,577,577,577,577,577,1943,1943,1943,1943,1943,1943,1943,1957,1952,577,577,577,577,577,577,577,577,577,577,577,577,577,577,577,577,577,577,577,577,577,577,577,577,577,577,
577,577,577,577,577,577,577,577,577,577,577,1654,1655,1669,1664,577,577,577,577,577,577,577,577,577,577,1943,1943,1943,1943,1943,1957,1951,1952,577,577,577,577,577,577,577,577,577,577,577,577,577,577,577,577,577,577,577,577,577,577,577,577,577,577,577,
577,577,577,577,577,577,577,577,577,577,1646,1678,1655,1656,577,577,577,577,577,577,577,577,577,577,1943,1943,1943,1943,1943,1957,1952,577,577,577,577,577,577,577,577,577,577,577,577,577,577,577,577,577,577,577,577,577,577,577,577,577,577,577,577,577,
577,577,577,577,577,577,577,577,577,1646,1678,1655,1669,1664,577,577,577,577,577,577,577,577,577,577,1943,1943,1943,1943,1957,1952,577,577,577,577,577,577,577,577,577,577,577,577,577,577,577,577,577,577,577,577,577,577,577,577,577,577,577,577,577,577,
577,577,577,577,577,577,577,577,1646,1678,1669,1663,1664,577,577,577,577,577,577,577,577,577,577,577,1943,1943,1943,1943,1944,577,577,577,577,577,577,577,577,577,577,577,577,577,577,577,577,577,577,577,577,577,577,577,577,577,577,577,577,577,577,577,
577,577,577,577,577,577,577,1646,1678,1669,1664,577,577,577,577,577,577,577,577,577,577,577,577,1943,1943,1943,1943,1957,1952,577,577,577,577,577,577,577,577,577,577,577,577,577,577,577,577,577,577,577,577,577,577,577,577,577,577,577,577,577,577,577,
577,577,577,577,577,577,577,1654,1655,1656,577,577,577,577,577,577,577,577,577,577,577,577,1943,1943,1943,1943,1957,1952,577,577,577,577,577,577,577,577,577,577,577,577,577,577,577,577,577,577,577,577,577,577,577,577,577,578,578,577,577,577,577,577,
577,577,577,577,577,577,1646,1678,1669,1664,577,577,577,577,577,577,577,577,577,577,577,577,1943,1943,1943,1943,1944,577,577,577,577,577,577,577,577,577,577,577,577,577,577,577,577,577,577,577,577,577,577,577,577,577,1838,1870,578,577,577,577,577,577,
577,577,577,577,577,577,1654,1655,1656,577,577,577,577,577,577,577,577,577,577,577,577,577,1943,1951,1958,1957,1952,577,577,577,577,577,577,577,577,577,577,577,577,577,577,577,577,577,577,577,577,577,577,577,577,1838,1870,578,578,578,578,577,577,577,
577,577,577,577,577,577,1654,1655,1656,577,577,577,577,577,577,577,577,577,577,577,577,577,577,577,1953,1952,577,577,577,577,577,577,577,577,577,577,577,577,577,577,577,577,577,577,577,577,577,577,577,577,577,1846,578,578,578,578,578,578,577,577,
577,577,577,577,577,577,1654,1655,1656,577,577,577,577,577,577,577,577,577,577,577,577,577,577,1930,1946,577,577,577,577,577,577,577,577,577,577,577,577,577,577,577,577,577,577,577,577,577,577,577,577,577,1838,1870,578,578,578,578,578,578,578,578,
577,577,577,577,577,577,577,577,577,577,577,577,577,577,577,577,577,577,577,577,577,577,577,577,577,577,577,577,577,577,577,577,577,577,577,577,577,577,577,577,577,577,577,577,577,577,577,577,577,1838,1870,578,578,578,578,578,578,578,578,578,
577,577,577,577,577,577,577,577,577,577,577,577,577,577,577,577,577,577,577,577,577,577,577,577,577,577,577,577,577,577,577,577,577,577,577,577,577,577,577,577,577,577,577,577,577,577,577,577,577,1854,1855,1862,578,578,578,578,578,578,578,578,
577,577,577,577,577,577,577,577,577,577,577,577,577,577,577,577,577,577,577,577,577,577,577,577,577,577,577,577,577,577,577,577,577,577,577,577,577,577,577,577,577,577,577,577,577,577,577,577,577,577,577,1854,1855,1862,578,578,578,578,578,578,
577,577,577,577,577,577,1654,1655,1656,577,577,577,577,577,577,577,577,577,577,577,577,577,577,577,577,577,577,577,577,577,577,577,577,577,577,577,577,577,577,577,577,577,577,577,577,577,577,577,577,577,577,577,577,1854,1862,578,578,578,578,578,
577,577,577,577,577,577,1654,1655,1677,1648,577,577,577,577,577,577,577,577,577,577,577,577,577,577,577,577,577,577,577,577,577,577,577,577,577,577,577,577,577,577,577,577,577,577,577,577,577,1834,1840,577,577,577,577,577,1846,578,578,578,578,578,
577,577,577,577,577,577,1662,1670,1655,1677,1648,577,577,577,577,577,577,577,577,577,577,577,577,577,577,577,577,577,577,577,1670,1669,577,577,577,577,577,581,581,581,577,577,577,577,577,577,577,577,1853,577,577,577,577,577,1854,1855,1855,1862,578,578,
577,577,577,577,577,577,577,1654,1655,1655,1656,577,577,577,577,577,577,577,577,577,577,577,577,577,577,577,577,577,577,577,1654,1656,577,577,577,577,577,1654,581,1656,577,577,577,577,577,577,577,577,577,1833,1838,1839,1840,577,577,577,1833,1846,578,578,
577,577,577,577,577,577,577,1662,1670,1655,1677,1647,1647,1648,577,577,577,577,577,577,577,577,577,577,577,577,577,577,577,1646,1678,1677,1648,577,577,577,577,1654,581,1656,577,577,577,577,577,577,577,577,577,1834,1876,578,1869,1840,577,577,577,1846,578,578,
577,577,577,577,577,577,577,577,1662,1670,1655,1655,1655,1677,1647,1647,1648,577,577,577,577,577,577,577,577,577,577,1646,1647,1678,581,581,1677,1647,1647,1647,1647,1678,581,1677,1648,577,577,577,577,577,577,577,577,577,1854,1855,1862,1875,1836,577,1838,1870,578,578,
577,577,577,577,577,577,577,577,577,1662,1670,1655,1655,1655,1655,1655,1677,1647,1648,577,577,577,581,1646,1647,1647,1647,1678,581,581,581,581,581,581,581,581,581,581,581,581,1656,577,577,577,577,577,577,577,577,577,577,577,1854,1856,577,577,1846,578,578,578,
577,577,577,577,577,577,577,577,577,577,1654,1655,1655,1655,1655,1655,1655,1655,1655,577,577,577,581,581,581,581,581,581,581,581,581,581,581,581,581,581,581,581,581,581,1677,1648,577,577,577,577,577,577,577,577,577,577,577,577,577,577,1854,1855,1862,578,
577,577,577,577,577,577,577,577,577,577,1662,1670,1655,1669,1663,1663,1663,1663,1663,577,577,577,581,581,581,581,581,1669,1663,1663,1663,1663,1663,1663,1670,581,581,581,581,581,581,1677,1647,1648,577,577,577,577,577,577,577,577,577,577,577,577,577,577,1854,1855,
577,577,577,577,577,577,577,577,577,577,577,1662,1663,1664,577,577,577,577,577,577,577,577,1662,1663,1663,1663,1663,1664,577,577,577,577,577,577,1662,1663,1663,1663,1670,581,581,581,581,1677,1647,1647,1648,577,577,577,577,577,577,577,577,577,577,577,577,577,
577,577,577,577,577,577,577,577,577,577,577,577,577,577,577,577,577,577,577,577,577,577,577,577,577,577,577,577,577,577,577,577,577,577,577,577,577,577,1662,1663,1663,1663,1670,581,581,581,1677,1647,1647,1647,1647,1647,1648,577,577,577,577,577,577,577,
577,577,577,577,577,577,577,577,577,577,577,577,577,577,577,577,577,577,577,577,577,577,577,577,577,577,577,577,577,577,577,577,577,577,577,577,577,577,577,577,577,577,1662,1670,581,581,581,581,581,581,581,581,1677,1648,577,577,577,577,577,577,
577,577,577,577,577,577,577,577,577,577,577,577,577,577,577,577,577,577,577,577,577,577,577,577,577,577,577,577,577,577,577,577,577,577,577,577,577,577,577,577,577,577,577,1662,1663,1663,1663,1663,1670,581,581,581,581,1656,577,577,577,577,577,577,
577,577,577,577,577,577,577,577,577,577,577,577,577,577,577,577,577,577,577,577,577,577,577,577,577,577,577,577,577,577,577,577,577,577,577,577,577,577,577,577,577,577,577,577,577,577,577,577,1662,1663,1670,581,581,1656,577,577,577,577,577,577,
577,577,577,577,577,577,577,577,577,577,577,577,577,577,577,577,577,577,577,577,577,577,577,577,577,577,577,577,577,577,577,577,577,577,577,577,577,577,577,577,577,577,577,577,577,577,577,577,577,577,577,577,581,1677,577,577,577,577,577,577,
577,577,577,577,577,577,577,577,577,577,577,577,577,577,577,577,577,577,577,577,577,577,577,577,577,577,577,577,577,577,577,577,577,577,577,577,577,577,577,577,577,577,577,577,577,577,577,577,577,577,577,577,581,581,577,577,577,577,577,577,
577,577,577,577,577,577,577,577,577,577,577,577,577,577,577,577,577,577,577,577,577,577,577,577,577,577,577,577,577,577,577,577,577,577,577,577,577,577,577,577,577,577,577,577,577,577,577,577,577,577,577,577,581,581,577,577,577,577,577,577,
577,577,577,577,577,577,577,577,577,577,577,577,577,577,577,577,577,577,577,577,577,577,577,577,577,577,577,577,577,577,577,577,577,577,577,577,577,577,577,577,577,577,577,577,577,577,577,577,577,577,867,867,867,867,577,577,577,577,577,577,
577,577,577,577,577,577,577,577,577,577,577,577,577,577,577,577,577,577,577,577,577,577,577,577,577,577,577,577,577,577,577,577,577,577,577,577,577,577,577,577,577,577,867,867,867,867,867,867,867,867,867,867,867,867,867,867,867,867,867,867,
577,577,577,577,577,577,577,577,577,577,577,577,577,577,577,577,577,577,577,577,577,577,577,577,577,577,577,577,577,577,577,577,577,577,577,577,577,577,577,577,867,867,867,867,867,867,867,867,867,867,867,867,867,867,867,867,867,867,867,867,
577,577,577,577,577,577,577,577,577,577,577,577,577,577,577,577,577,577,577,577,577,577,577,577,577,577,577,577,577,577,577,577,577,577,577,577,577,577,577,867,867,867,867,867,867,867,867,867,867,867,867,867,867,867,867,867,867,867,867,867,
1792,577,577,577,577,577,577,577,577,577,577,577,577,577,577,577,577,577,577,577,577,577,577,577,577,577,577,577,577,577,577,577,577,577,577,577,577,867,867,867,867,867,867,867,867,867,867,867,867,867,867,867,867,867,867,867,867,867,867,867,
1800,577,577,577,577,577,577,577,577,577,577,577,577,577,577,577,577,577,577,577,577,577,577,577,577,577,577,577,577,577,577,577,577,577,577,577,867,867,867,867,867,867,867,867,867,867,867,867,867,867,867,867,867,867,867,867,867,867,867,867,
1800,577,577,577,577,577,577,577,577,577,577,577,577,577,577,577,577,577,577,577,577,577,577,577,577,577,577,577,577,577,577,577,577,577,577,577,867,867,867,867,867,867,867,867,867,867,867,867,867,867,867,867,867,867,867,867,867,867,867,867,
1821,1792,577,577,577,577,577,577,577,577,577,577,577,577,577,577,577,577,577,577,577,577,577,577,577,577,577,577,577,577,577,577,577,577,577,577,867,867,867,867,867,867,867,867,867,867,867,867,867,867,867,867,867,867,867,867,867,867,867,867,
584,1800,577,577,577,577,577,577,577,577,577,577,577,577,577,577,577,577,577,577,577,577,577,577,577,577,577,577,577,577,577,577,577,577,577,867,867,867,867,867,867,867,867,835,835,835,835,835,835,835,835,835,835,835,835,835,835,835,835,835,
584,1821,1792,577,577,577,577,577,577,577,577,577,577,577,577,577,577,577,577,577,577,577,577,577,577,577,577,577,577,577,577,577,577,577,577,867,867,867,867,867,867,867,867,835,835,835,835,835,835,835,835,835,835,835,835,835,835,835,835,835,
584,584,1821,1792,577,577,577,577,577,577,577,577,577,577,577,577,577,577,577,577,577,577,577,577,577,577,577,577,577,577,577,577,577,577,577,867,867,867,867,867,867,867,867,867,867,867,867,867,867,867,867,867,867,867,867,867,867,867,867,867,
584,584,584,1821,1792,577,577,577,577,577,577,577,577,577,577,577,577,577,577,577,577,577,577,577,577,577,577,577,577,577,577,577,577,577,577,867,867,867,867,867,867,867,867,867,867,867,867,867,867,867,867,867,867,867,867,867,867,867,867,867,
584,584,584,584,1821,1791,1791,1792,577,577,577,577,577,577,577,577,577,577,577,577,577,577,577,577,577,577,577,577,577,577,577,577,577,577,577,867,867,867,867,867,867,867,867,867,867,867,867,867,867,867,867,867,867,867,867,867,867,867,867,867,
584,584,584,584,584,584,584,1821,1791,584,577,577,577,577,577,577,1792,577,577,577,577,577,577,577,577,577,577,577,577,577,577,577,577,577,577,867,867,867,867,867,867,867,867,867,867,867,867,867,867,867,867,867,867,867,867,867,867,867,867,867,
584,584,584,584,584,584,584,584,584,584,584,584,584,577,577,584,1800,577,577,577,577,577,577,577,577,577,577,577,577,577,577,577,577,577,577,867,867,867,867,867,867,867,867,867,867,867,867,867,867,867,884,884,884,884,884,884,884,867,867,867,
584,584,584,584,584,584,584,584,584,584,584,584,584,584,584,584,1800,577,577,577,577,577,577,577,577,577,577,577,577,577,577,577,577,577,577,867,867,867,867,867,867,867,867,867,867,867,867,867,867,867,884,884,884,884,884,884,884,867,867,867,
584,584,584,584,584,584,584,584,584,584,584,584,584,584,584,584,1821,1792,577,577,577,577,577,577,577,577,577,577,577,577,577,577,577,577,577,867,867,867,867,867,867,867,867,867,867,867,867,867,867,867,884,884,884,884,884,884,884,867,867,867,
584,584,584,584,584,584,584,584,584,584,584,584,584,584,584,584,584,1821,1791,1792,577,577,577,577,577,577,577,577,577,577,577,577,577,577,577,867,867,867,867,867,867,867,867,867,867,867,867,867,867,867,884,884,884,884,884,884,884,867,867,867,
584,584,584,584,584,584,584,584,584,584,584,584,577,577,584,584,584,584,584,1821,1791,1792,577,577,577,577,577,577,577,577,577,577,577,577,577,867,867,867,867,867,867,867,867,867,867,867,867,867,867,867,884,884,884,884,884,884,884,867,867,867,
584,584,584,584,584,584,584,584,584,584,584,584,584,584,584,584,584,584,584,584,584,1821,1792,577,577,577,577,577,577,577,577,577,577,577,577,867,867,867,867,867,867,867,867,867,867,867,867,867,867,867,867,867,867,867,867,867,867,867,867,867
</data>
 </layer>
 <objectgroup id="17" name="Hitboxes">
  <object id="2" x="866.165" y="1043.34" width="219.822" height="164.046"/>
  <object id="3" x="1092.55" y="1049.9" width="55.7758" height="154.204"/>
  <object id="4" x="892.413" y="570.882" width="416.678" height="252.632"/>
  <object id="6" x="1151.61" y="501.982" width="157.485" height="65.6186"/>
  <object id="7" x="1312.37" y="708.681" width="49.2139" height="65.6186"/>
  <object id="8" x="255.913" y="121.394" width="223.103" height="196.856"/>
  <object id="9" x="482.297" y="193.575" width="49.2139" height="49.2139"/>
  <object id="11" x="354.34" y="836.637" width="52.4949" height="19.6856"/>
  <object id="14" x="1344" y="1524" width="318.667" height="137.333"/>
  <object id="15" x="1344" y="1660.67" width="191.333" height="98"/>
  <object id="16" x="1535.33" y="1662" width="126.667" height="31.3333"/>
  <object id="17" x="1760.67" y="1524" width="158.667" height="170.667"/>
  <object id="19" x="1808.67" y="1747.33"/>
  <object id="20" x="1810.67" y="1876.67"/>
  <object id="21" x="1616" y="1874.67"/>
  <object id="22" x="1614.67" y="1744.67"/>
  <object id="24" x="1349.33" y="1471.33">
   <polygon points="0,0 53.3333,0.666667 53.3333,-116.667 28.6667,-124.667 10,-113.333 -2,-114"/>
  </object>
  <object id="25" x="1058.67" y="835.333">
   <polygon points="0,0 87.3333,-2.66667 89.3333,24 -0.666667,26"/>
  </object>
  <object id="26" x="1318" y="830.667">
   <polygon points="0,0 26.6667,-5.33333 24,-34 60,-36 52.6667,-58 -6.66667,-58.6667"/>
  </object>
  <object id="27" x="66.6667" y="862">
   <polygon points="0,0 91.3333,-2.66667 91.3333,-23.3333 -2.66667,-22.6667"/>
  </object>
  <object id="28" x="67.3333" y="828">
   <polygon points="0,0 26.6667,1.33333 26,-17.3333 -2,-20.6667"/>
  </object>
  <object id="29" x="106" y="822.667">
   <polygon points="0,0 14.6667,0 12,-9.33333 -2,-10"/>
  </object>
  <object id="30" x="130" y="826.667">
   <polygon points="0,0 28.6667,2 26.6667,-20 -2.66667,-21.3333"/>
  </object>
  <object id="31" x="163.333" y="889.333">
   <polygon points="0,0 24,0 24,-32 -0.666667,-27.3333"/>
  </object>
  <object id="32" x="169.333" y="856.667">
   <polygon points="0,0 -0.666667,-28.6667 -6.66667,-28.6667 -8.66667,-50 20,-50 22,-25.3333 10.6667,-26 12.6667,-1.33333"/>
  </object>
  <object id="33" x="56.6667" y="862">
   <polygon points="0,0 -19.3333,-2 -15.3333,-68 -2.66667,-68.6667"/>
  </object>
  <object id="34" x="23.3333" y="860.667">
   <polygon points="0,0 -16,-0.666667 -16,-18.6667 2,-17.3333"/>
  </object>
  <object id="35" x="253.333" y="221.333">
   <polygon points="0,0 -30,-2 -30,-20.6667 -0.666667,-24.6667"/>
  </object>
  <object id="36" x="126.667" y="349.333">
   <polygon points="0,0 -58,1.33333 -60,-22 0,-25.3333"/>
  </object>
  <object id="37" x="261.333" y="348.667">
   <polygon points="0,0 54,-2 54,-24.6667 -2,-21.3333"/>
  </object>
  <object id="63" x="1120" y="1510.67" width="157.333" height="122.667"/>
  <object id="64" x="1405.33" y="1333.33" width="190.667" height="74.6667"/>
  <object id="65" x="1121.33" y="1758.67" width="154.667" height="132"/>
  <object id="66" x="1665.33" y="1765.33" width="94.6667" height="85.3333"/>
  <object id="67" x="1344" y="1845.33" width="192" height="73.3333"/>
 </objectgroup>
 <layer id="8" name="grass" width="60" height="60">
  <data encoding="csv">
0,0,0,0,0,0,0,0,0,0,0,0,0,0,0,0,0,0,0,0,0,0,0,5302,5303,5304,0,0,0,0,0,0,0,0,0,0,0,0,0,0,0,0,0,0,0,0,0,0,0,0,0,0,0,0,0,0,0,0,0,0,
0,0,0,0,0,0,0,0,0,0,0,0,0,0,0,0,0,0,0,0,0,0,0,5302,5317,5312,0,0,0,0,0,0,0,0,0,0,0,0,0,0,0,0,0,0,0,0,0,0,0,0,0,0,0,0,0,0,0,0,0,0,
0,0,0,0,0,0,0,0,0,0,0,0,0,0,0,0,0,0,0,0,0,0,0,5302,5304,0,0,0,0,0,637,641,0,0,0,0,0,0,0,0,0,0,0,0,0,0,0,0,0,0,0,0,0,0,0,0,0,0,0,0,
0,0,0,0,0,0,0,0,0,0,0,0,0,0,0,0,0,0,0,0,0,0,5294,5320,5312,0,0,0,0,0,0,0,0,0,0,0,0,0,0,0,0,0,0,0,0,0,0,0,0,0,0,0,0,0,0,0,0,0,0,0,
0,0,0,0,0,0,0,0,0,0,0,0,0,0,0,0,0,0,0,0,0,0,5313,5312,0,0,0,0,0,625,0,0,0,0,0,0,0,0,0,0,0,0,0,0,0,0,0,0,0,0,0,0,0,0,0,0,0,0,0,0,
0,0,0,0,0,0,0,0,0,0,0,0,0,0,0,0,0,0,0,0,0,0,5301,0,0,0,0,0,0,0,0,0,0,0,0,0,0,0,0,0,0,0,0,0,0,0,0,0,0,0,0,0,0,0,0,0,0,0,0,0,
0,0,0,0,0,0,0,0,0,0,0,0,0,0,0,0,0,0,0,0,0,0,5309,0,0,0,0,0,0,0,0,626,0,0,0,642,0,0,0,0,0,0,0,0,0,0,0,0,0,0,0,0,0,0,0,0,0,0,0,0,
0,0,0,0,0,0,0,0,0,0,0,0,0,0,0,0,0,0,0,0,0,0,0,0,0,0,0,0,0,637,0,0,0,0,0,0,0,0,0,0,0,0,0,0,0,0,0,0,0,0,0,0,0,0,0,0,0,0,0,0,
0,0,0,0,0,0,0,0,0,0,0,0,0,0,0,0,0,0,0,0,0,0,0,0,0,0,0,0,0,0,0,0,625,0,0,0,0,0,0,0,0,0,0,0,0,0,0,0,0,0,0,0,0,0,0,0,0,0,0,0,
0,0,0,0,0,0,0,0,0,0,0,0,0,0,0,0,0,0,0,0,0,0,5293,0,0,0,0,0,626,0,643,0,0,0,0,0,0,0,0,0,0,0,0,0,0,0,0,0,0,0,0,0,0,0,0,0,0,0,0,0,
0,0,0,0,0,0,0,0,0,0,0,0,0,0,0,0,0,0,0,0,0,5297,5312,0,0,0,640,0,0,0,0,0,0,0,0,0,0,0,0,0,0,0,0,0,0,0,0,0,0,0,0,0,0,0,0,0,0,0,0,0,
0,0,0,0,0,0,0,0,0,0,0,0,0,0,0,0,0,0,0,0,0,5309,0,0,0,0,648,0,0,637,0,0,0,0,0,0,0,0,0,0,0,0,0,0,0,0,0,0,0,0,0,0,0,0,0,0,0,0,0,0,
0,0,0,0,0,0,0,0,0,0,0,0,0,0,0,0,0,0,0,0,0,0,0,0,0,626,0,0,0,0,0,0,0,0,0,0,0,0,0,0,0,0,0,0,0,0,0,0,0,0,0,0,0,0,0,0,0,0,0,0,
0,0,0,0,0,0,0,0,0,0,0,0,0,0,0,0,0,0,0,0,5293,0,0,0,0,0,0,625,0,0,0,0,0,0,0,0,0,0,0,0,0,0,0,0,0,0,0,0,0,0,0,0,0,0,0,0,0,0,0,0,
0,0,0,0,0,0,0,0,0,0,0,0,0,0,0,0,0,0,0,5297,5312,0,0,0,0,0,0,0,0,0,0,0,0,0,0,0,0,0,0,0,0,0,0,0,0,0,0,0,0,0,0,0,0,0,0,0,0,0,0,0,
0,0,0,0,0,0,0,0,0,0,0,0,0,0,0,0,5294,5295,5295,5306,0,0,0,0,0,637,0,0,0,0,0,0,0,0,0,0,0,0,0,0,0,0,0,0,0,0,0,0,0,0,0,0,0,0,0,0,0,0,0,0,
0,0,0,0,0,0,0,0,0,0,0,0,0,0,5294,5295,5320,5311,5312,0,0,0,0,0,0,0,626,0,0,0,0,0,0,0,0,0,0,0,0,0,0,0,0,0,0,0,0,0,0,0,641,0,0,0,0,0,0,0,0,0,
0,0,0,0,0,0,0,0,0,0,0,0,0,5294,5326,5317,5312,0,0,0,0,0,0,0,625,0,0,0,0,0,0,0,0,0,0,0,0,0,0,0,0,0,0,0,0,0,0,0,0,0,0,0,0,0,0,0,0,0,0,0,
0,0,0,5289,0,0,0,0,0,0,0,0,5290,5324,5311,5312,0,0,0,0,0,0,0,0,0,0,0,0,0,0,0,0,0,0,0,0,0,0,0,0,0,641,0,0,0,0,0,0,0,0,0,0,0,0,0,0,0,0,0,0,
0,0,0,0,0,0,0,0,0,0,5290,5292,0,0,0,0,0,0,0,0,0,0,0,0,0,0,0,0,0,0,0,0,0,0,0,0,0,0,0,0,0,0,0,630,0,0,0,0,0,0,0,0,0,0,0,641,0,0,0,0,
0,0,0,0,0,0,0,0,0,0,0,0,0,0,0,0,0,0,0,0,0,0,0,0,0,0,0,0,0,0,0,0,0,0,0,0,0,0,0,0,0,0,0,0,0,0,0,0,0,0,0,0,0,0,0,0,0,0,0,0,
0,0,0,0,0,0,0,0,0,0,0,0,0,0,0,0,0,0,0,0,0,0,0,0,0,0,0,0,0,0,0,0,0,0,0,0,0,0,0,0,0,0,0,0,0,0,0,0,0,0,0,0,0,0,0,0,0,0,0,642,
0,0,0,0,0,0,0,0,0,0,0,0,0,0,0,0,0,0,0,0,0,0,0,0,0,0,0,0,0,0,0,0,0,0,0,0,0,0,0,0,0,0,0,0,0,0,0,0,0,0,0,0,0,0,0,0,0,0,643,0,
0,0,0,0,0,0,0,0,0,0,0,0,0,0,0,0,0,0,0,0,0,0,0,0,0,629,0,0,0,0,0,0,0,0,0,0,0,0,0,0,0,0,0,0,629,0,0,0,0,0,0,0,0,0,630,0,0,0,0,0,
0,0,0,0,0,0,0,0,0,0,0,0,0,0,0,0,0,0,0,0,0,0,629,0,0,0,0,0,0,0,0,0,0,0,0,0,0,0,0,0,0,0,0,0,0,0,0,0,0,0,0,0,0,0,0,0,0,0,0,0,
0,0,0,0,0,0,0,0,0,0,0,0,0,0,0,0,0,0,0,0,0,0,0,0,0,0,0,0,0,0,0,0,0,0,0,0,0,0,0,0,0,0,0,0,0,0,0,0,0,0,0,0,630,0,0,0,0,0,0,0,
0,0,0,0,0,0,0,0,0,0,0,0,0,0,0,0,0,0,0,0,0,0,0,0,0,0,0,0,629,0,0,0,0,0,0,0,0,0,0,0,0,0,0,0,0,0,0,0,0,0,0,0,0,0,0,0,0,0,0,0,
0,0,0,0,0,0,0,0,0,0,0,0,0,0,0,0,0,0,0,0,0,0,0,0,0,0,0,0,0,0,0,0,0,0,629,0,0,0,0,0,0,0,0,0,0,0,0,0,0,0,0,0,0,0,0,0,0,0,0,0,
0,0,0,0,0,0,0,0,0,0,0,0,0,0,0,0,0,0,0,0,0,0,0,0,0,0,0,0,0,0,0,0,0,0,0,0,0,0,0,0,0,0,0,0,0,0,0,0,0,0,0,0,0,0,0,0,0,0,0,0,
0,0,0,0,0,0,0,0,0,0,0,0,0,0,0,0,0,0,0,0,0,0,0,0,0,0,0,0,0,0,0,0,0,0,0,0,0,0,0,0,0,0,629,0,0,0,0,0,0,0,0,0,0,0,0,0,0,0,0,0,
0,0,0,0,0,0,0,0,0,0,0,0,0,0,0,0,0,0,0,0,0,0,0,0,0,0,0,0,0,0,0,0,0,0,0,0,0,0,0,0,0,0,0,0,0,0,0,0,0,0,0,0,0,0,0,0,0,0,0,0,
0,0,0,0,0,0,0,0,0,0,0,0,0,0,0,0,0,0,0,0,0,0,0,0,0,0,0,0,0,0,0,0,0,0,0,0,0,0,0,0,0,0,0,0,0,0,0,0,0,0,0,0,0,0,0,0,0,0,0,0,
0,0,0,0,0,0,0,0,0,0,0,0,0,0,0,0,0,0,0,0,0,0,0,0,0,0,0,0,0,0,0,0,0,0,0,0,0,0,0,0,0,0,0,0,0,0,0,0,0,629,0,0,0,0,0,0,0,0,0,0,
0,0,0,0,0,0,0,0,0,0,0,0,0,0,0,0,0,0,0,0,0,0,0,0,0,0,0,0,0,0,0,0,0,0,0,0,0,0,0,0,0,0,0,0,0,0,0,0,0,0,0,0,0,0,0,0,0,0,0,0,
0,0,0,0,0,0,0,0,0,0,0,0,0,0,0,0,0,0,0,0,0,0,0,0,0,0,0,0,0,0,0,0,0,0,0,0,0,0,0,0,629,0,0,0,0,0,0,0,0,0,0,0,0,0,629,0,0,0,0,0,
0,0,0,0,0,0,0,0,0,0,0,0,0,0,0,0,0,0,0,0,0,0,0,0,0,0,0,0,0,0,0,0,0,0,0,0,0,0,0,0,0,0,0,0,0,0,0,0,0,0,0,0,0,0,0,0,0,0,0,630,
0,0,0,0,0,0,0,0,0,0,0,0,0,0,0,0,0,0,0,0,0,0,0,0,0,0,0,0,0,0,0,0,0,0,0,0,629,0,0,0,0,0,0,0,0,0,629,0,0,0,0,0,0,0,0,0,0,0,0,0,
0,0,0,0,0,0,0,0,0,0,0,0,0,0,0,0,0,0,0,0,0,0,0,0,0,0,0,0,0,0,0,0,0,0,0,0,0,0,0,0,0,0,0,0,0,0,0,0,0,0,0,0,0,0,0,0,0,0,0,0,
0,0,0,0,0,0,0,0,0,0,0,0,0,0,0,0,0,0,0,0,0,0,0,0,0,0,0,0,0,0,0,0,0,0,0,0,0,0,0,0,0,0,0,0,0,0,0,0,0,0,0,0,0,0,0,0,0,0,0,0,
0,0,0,0,0,0,0,0,0,0,0,0,0,0,0,0,0,0,0,0,0,0,0,0,0,0,0,0,0,0,0,0,0,0,0,0,0,0,0,0,0,0,0,0,0,0,0,0,0,0,0,0,0,0,0,0,0,0,0,0,
0,0,0,0,0,0,0,0,0,0,0,0,0,0,0,0,0,0,0,0,0,0,0,0,0,0,0,0,0,0,0,0,0,0,0,0,0,0,0,0,0,0,0,0,0,0,0,0,0,0,0,0,0,0,0,0,0,0,0,0,
0,0,0,0,0,0,0,0,0,0,0,0,0,0,0,0,0,0,0,0,0,0,0,0,0,0,0,0,0,0,0,0,0,0,0,0,0,0,0,0,0,0,0,0,0,0,0,0,0,0,0,0,0,0,0,0,0,0,0,0,
0,0,0,0,0,0,0,0,0,0,0,0,0,0,0,0,0,0,0,5246,5247,5248,0,0,0,0,0,0,0,0,0,0,0,0,0,0,0,0,0,0,0,0,0,0,0,0,0,0,0,0,0,0,0,0,0,0,0,0,0,0,
0,0,0,0,0,0,0,0,0,0,0,0,0,0,0,0,0,0,5246,5278,5255,5277,5248,0,0,0,0,0,0,0,0,0,0,0,0,0,0,0,0,0,0,0,0,0,0,0,0,0,0,0,0,0,0,0,0,0,0,0,0,0,
0,0,0,0,0,0,0,0,0,0,0,0,0,0,0,0,0,5246,5278,5255,5255,5269,5264,0,0,0,0,0,0,0,0,0,0,0,0,0,0,0,0,0,0,0,0,0,0,0,0,0,0,0,0,0,0,0,0,0,0,0,0,0,
0,0,0,0,0,0,0,0,0,0,0,0,0,0,0,0,0,5262,5263,5270,5269,5264,0,0,0,0,0,0,0,0,0,0,0,0,0,0,0,0,0,0,0,0,0,0,0,0,0,0,0,0,0,0,0,0,0,0,0,0,0,0,
0,0,0,0,0,0,0,0,0,0,0,0,0,0,0,0,0,0,0,5262,5264,0,0,0,0,0,0,0,0,0,0,0,0,0,0,0,0,0,0,0,0,0,0,0,0,0,0,0,0,0,0,0,0,0,0,0,0,0,0,0,
0,0,0,0,0,0,0,0,0,0,0,0,0,0,0,0,0,0,0,0,0,0,0,0,0,0,0,0,0,0,0,0,0,0,0,0,0,0,0,0,0,0,0,0,0,0,0,0,0,0,0,0,0,0,0,0,0,0,0,0,
0,0,0,0,0,0,0,0,0,0,0,0,0,0,0,0,0,0,0,0,0,0,0,0,0,0,0,0,0,0,0,0,0,0,0,0,0,0,0,0,0,0,0,0,0,0,0,0,0,0,0,0,0,0,0,0,0,0,0,0,
0,0,0,0,0,0,0,0,0,0,0,0,0,0,0,0,0,0,0,0,0,0,0,0,0,0,0,0,0,0,0,0,0,0,0,0,0,0,0,0,0,0,0,0,0,0,0,0,0,0,0,0,0,0,0,0,0,0,0,0,
0,0,0,0,0,0,0,0,0,0,0,0,0,0,0,0,0,0,0,0,0,0,0,0,0,0,0,0,0,0,0,0,0,0,0,0,0,0,0,0,0,0,0,0,0,0,0,0,0,0,0,0,0,0,0,0,0,0,0,0,
0,0,0,0,0,0,0,0,0,0,0,0,0,0,0,0,0,0,0,0,0,0,0,0,0,0,0,0,0,0,0,0,0,0,0,0,0,0,0,0,0,0,0,0,0,0,0,0,0,0,0,0,0,0,0,0,0,0,0,0,
0,0,0,0,0,0,0,0,0,0,0,0,0,0,0,0,0,0,0,0,0,0,0,0,0,0,0,0,0,0,0,0,0,0,0,0,0,0,0,0,0,0,0,0,0,0,0,0,0,0,0,0,0,0,0,0,0,0,0,0,
0,0,0,0,0,0,0,0,0,0,0,0,0,0,0,0,0,0,0,0,0,0,0,0,0,0,0,0,0,0,0,0,0,0,0,0,0,0,0,0,0,0,0,0,0,0,0,0,0,0,0,0,0,0,0,0,0,0,0,0,
0,0,0,0,0,0,0,0,0,0,0,0,0,0,0,0,0,0,0,0,0,0,0,0,0,0,0,0,0,0,0,0,0,0,0,0,0,0,0,0,0,0,0,0,0,0,0,0,0,0,0,0,0,0,0,0,0,0,0,0,
0,0,0,0,0,0,0,0,0,0,0,0,0,0,0,0,0,0,0,0,0,0,0,0,0,0,0,0,0,0,0,0,0,0,0,0,0,0,0,0,0,0,0,0,0,0,0,0,0,0,0,0,0,0,0,0,0,0,0,0,
0,0,0,0,0,0,0,0,0,0,0,0,0,0,0,0,0,0,0,0,0,0,0,0,0,0,0,0,0,0,0,0,0,0,0,0,0,0,0,0,0,0,0,0,0,0,0,0,0,0,0,0,0,0,0,0,0,0,0,0,
0,0,0,0,0,0,0,0,0,0,0,0,0,0,0,0,0,0,0,0,0,0,0,0,0,0,0,0,0,0,0,0,0,0,0,0,0,0,0,0,0,0,0,0,0,0,0,0,0,0,0,0,0,0,0,0,0,0,0,0,
0,0,0,0,0,0,0,0,0,0,0,0,0,0,0,0,0,0,0,0,0,0,0,0,0,0,0,0,0,0,0,0,0,0,0,0,0,0,0,0,0,0,0,0,0,0,0,0,0,0,0,0,0,0,0,0,0,0,0,0,
0,0,0,0,0,0,0,0,0,0,0,0,0,0,0,0,0,0,0,0,0,0,0,0,0,0,0,0,0,0,0,0,0,0,0,0,0,0,0,0,0,0,0,0,0,0,0,0,0,0,0,0,0,0,0,0,0,0,0,0
</data>
 </layer>
 <layer id="12" name="farm" width="60" height="60">
  <data encoding="csv">
0,0,0,0,0,0,0,0,0,0,0,0,0,0,0,0,0,0,0,0,0,0,0,0,0,0,0,0,0,0,0,0,0,0,0,0,0,0,0,0,0,0,0,0,0,0,0,0,0,0,0,0,0,0,0,0,0,0,0,0,
0,0,0,0,0,0,0,0,0,0,0,0,0,0,0,0,0,0,0,0,0,0,0,0,0,0,0,0,0,0,0,0,0,0,0,0,0,0,0,0,0,0,0,0,0,0,0,0,0,0,0,0,0,0,0,0,0,0,0,0,
0,0,0,0,0,0,0,0,0,0,0,0,0,0,0,0,0,0,0,0,0,0,0,0,0,0,0,0,0,0,0,0,0,0,0,0,0,0,0,0,0,0,0,0,0,0,0,0,0,0,0,0,0,0,0,0,0,0,0,0,
0,755,761,761,761,761,761,756,0,0,0,0,0,0,0,0,0,0,0,0,0,0,0,0,0,0,0,0,0,0,0,0,0,0,0,0,0,0,0,0,0,0,0,0,0,0,0,0,0,0,0,0,0,0,0,0,0,0,0,0,
0,753,729,730,730,730,731,753,0,0,0,0,0,0,0,0,0,0,0,0,0,0,0,0,0,0,0,0,0,0,0,0,0,0,0,0,0,0,0,0,0,0,0,0,0,0,0,0,0,0,0,0,0,0,0,0,0,0,0,0,
0,753,737,738,738,738,739,762,0,0,0,0,0,0,0,0,0,0,0,0,0,0,0,0,0,0,0,0,0,0,0,0,0,0,0,0,0,0,0,0,0,0,0,0,0,0,0,0,0,0,0,0,0,0,0,0,0,0,0,0,
0,753,737,738,738,738,739,0,0,0,0,0,0,0,0,0,0,0,0,0,0,0,0,0,0,0,0,0,0,0,0,0,0,0,0,0,0,0,0,0,0,0,0,0,0,0,0,0,0,0,0,0,0,0,0,0,0,0,0,0,
0,753,737,738,738,738,739,0,0,0,0,0,0,0,0,0,0,0,0,0,0,0,0,0,0,0,0,0,0,0,0,0,0,0,0,0,0,0,0,0,0,0,0,0,0,0,0,0,0,0,0,0,0,0,0,0,0,0,0,0,
0,753,745,746,746,746,747,0,0,0,0,0,0,0,0,0,0,0,0,0,0,0,0,0,0,0,0,0,0,0,0,0,0,0,0,0,0,0,0,0,0,0,0,0,0,0,0,0,0,0,0,0,0,0,0,0,0,0,0,0,
0,763,761,761,761,761,757,0,0,0,0,0,0,0,0,0,0,0,0,0,0,0,0,0,0,0,0,0,0,0,0,0,0,0,0,0,0,0,0,0,0,0,0,0,0,0,0,0,0,0,0,0,0,0,0,0,0,0,0,0,
0,0,0,0,0,0,0,0,0,0,0,0,0,0,0,0,0,0,0,0,0,0,0,0,0,0,0,0,0,0,0,0,0,0,0,0,0,0,0,0,0,0,0,0,0,0,0,0,0,0,0,0,0,0,0,0,0,0,0,0,
0,0,0,0,0,0,0,0,0,0,0,0,0,0,0,0,0,0,0,0,0,0,0,0,0,0,0,0,0,0,0,0,0,0,0,0,0,0,0,0,0,0,0,0,0,0,0,0,0,0,0,0,0,0,0,0,0,0,0,0,
0,0,0,0,0,0,0,0,0,0,0,0,0,0,0,0,0,0,0,0,0,0,0,0,0,0,0,0,0,0,0,0,0,0,0,0,0,0,0,0,0,0,0,0,0,0,0,0,0,0,0,0,0,0,0,0,0,0,0,0,
0,0,0,0,0,0,0,0,0,0,0,0,0,0,0,0,0,0,0,0,0,0,0,0,0,0,0,0,0,0,0,0,0,0,0,0,0,0,0,0,0,0,0,0,0,0,0,0,0,0,0,0,0,0,0,0,0,0,0,0,
0,0,0,0,0,0,0,0,0,0,0,0,0,0,0,0,0,0,0,0,0,0,0,0,0,0,0,0,0,0,0,0,0,0,0,0,0,0,0,0,0,0,0,0,0,0,0,0,0,0,0,0,0,0,0,0,0,0,0,0,
0,0,0,0,0,0,0,0,0,0,0,0,0,0,0,0,0,0,0,0,0,0,0,0,0,0,0,0,0,0,0,0,0,0,0,0,0,0,0,0,0,0,0,0,0,0,0,0,0,0,0,0,0,0,0,0,0,0,0,0,
0,0,0,0,0,0,0,0,0,0,0,0,0,0,0,0,0,0,0,0,0,0,0,0,0,0,0,0,0,0,0,0,0,0,0,0,0,0,0,0,0,0,0,0,0,0,0,0,0,0,0,0,0,0,0,0,0,0,0,0,
0,0,0,0,0,0,0,0,0,0,0,0,0,0,0,0,0,0,0,0,0,0,0,0,0,0,0,0,0,0,0,0,0,0,0,0,0,0,0,0,0,0,0,0,0,0,0,0,0,0,0,0,0,0,0,0,0,0,0,0,
0,0,0,0,0,0,0,0,0,0,0,0,0,0,0,0,0,0,0,0,0,0,0,0,0,0,0,0,0,0,0,0,0,0,0,0,0,0,0,0,0,0,0,0,0,0,0,0,0,0,0,0,0,0,0,0,0,0,0,0,
0,0,0,0,0,0,0,0,0,0,0,0,0,0,0,0,0,0,0,0,0,0,0,0,0,0,0,0,0,0,0,0,0,0,0,0,0,0,0,0,0,0,0,0,0,0,0,0,0,0,0,0,0,0,0,0,0,0,0,0,
0,0,0,0,0,0,0,0,0,0,0,0,0,0,0,0,0,0,0,0,0,0,0,0,0,0,0,0,0,0,0,0,0,0,0,0,0,0,0,0,0,0,0,0,0,0,0,0,0,0,0,0,0,0,0,0,0,0,0,0,
0,0,0,0,0,0,0,0,0,0,0,0,0,0,0,0,0,0,0,0,0,0,0,0,0,0,0,0,0,0,0,0,0,0,0,0,0,0,0,0,0,0,0,0,0,0,0,0,0,0,0,0,0,0,0,0,0,0,0,0,
0,0,0,0,0,0,0,0,0,0,0,0,0,0,0,0,0,0,0,0,0,0,0,0,0,0,0,0,0,0,0,0,0,0,0,0,0,0,0,0,0,0,0,0,0,0,0,0,0,0,0,0,0,0,0,0,0,0,0,0,
0,0,0,0,0,0,0,0,0,0,0,0,0,0,0,0,0,0,0,0,0,0,0,0,0,0,0,0,0,0,0,0,0,0,0,0,0,0,0,0,0,0,0,0,0,0,0,0,0,0,0,0,0,0,0,0,0,0,0,0,
0,0,0,0,0,0,0,0,0,0,0,0,0,0,0,0,0,0,0,0,0,0,0,0,0,0,0,0,0,0,0,0,0,0,0,0,0,0,0,0,0,0,0,0,0,0,0,0,0,0,0,0,0,0,0,0,0,0,0,0,
0,0,0,0,0,0,0,0,0,0,0,0,0,0,0,0,0,0,0,0,0,0,0,0,0,0,0,0,0,0,0,0,0,0,0,0,0,0,0,0,0,0,0,0,0,0,0,0,0,0,0,0,0,0,0,0,0,0,0,0,
0,0,0,0,0,0,0,0,0,0,0,0,0,0,0,0,0,0,0,0,0,0,0,0,0,0,0,0,0,0,0,0,0,0,0,0,0,0,0,0,0,0,0,0,0,0,0,0,0,0,0,0,0,0,0,0,0,0,0,0,
0,0,0,0,0,0,0,0,0,0,0,0,0,0,0,0,0,0,0,0,0,0,0,0,0,0,0,0,0,0,0,0,0,0,0,0,0,0,0,0,0,0,0,0,0,0,0,0,0,0,0,0,0,0,0,0,0,0,0,0,
0,0,0,0,0,0,0,0,0,0,0,0,0,0,0,0,0,0,0,0,0,0,0,0,0,0,0,0,0,0,0,0,0,0,0,0,0,0,0,0,0,0,0,0,0,0,0,0,0,0,0,0,0,0,0,0,0,0,0,0,
0,0,0,0,0,0,0,0,0,0,0,0,0,0,0,0,0,0,0,0,0,0,0,0,0,0,0,0,0,0,0,0,0,0,0,0,0,0,0,0,0,0,0,0,0,0,0,0,0,0,0,0,0,0,0,0,0,0,0,0,
0,0,0,0,0,0,0,0,0,0,0,0,0,0,0,0,0,0,0,0,0,0,0,0,0,0,0,0,0,0,0,0,0,0,0,0,0,0,0,0,0,0,0,0,0,0,0,0,0,0,0,0,0,0,0,0,0,0,0,0,
0,0,0,0,0,0,0,0,0,0,0,0,0,0,0,0,0,0,0,0,0,0,0,0,0,0,0,0,0,0,0,0,0,0,0,0,0,0,0,0,0,0,0,0,0,0,0,0,0,0,0,0,0,0,0,0,0,0,0,0,
0,0,0,0,0,0,0,0,0,0,0,0,0,0,0,0,0,0,0,0,0,0,0,0,0,0,0,0,0,0,0,0,0,0,0,0,0,0,0,0,0,0,0,0,0,0,0,0,0,0,0,0,0,0,0,0,0,0,0,0,
0,0,0,0,0,0,0,0,0,0,0,0,0,0,0,0,0,0,0,0,0,0,0,0,0,0,0,0,0,0,0,0,0,0,0,0,0,0,0,0,0,0,0,0,0,0,0,0,0,0,0,0,0,0,0,0,0,0,0,0,
0,0,0,0,0,0,0,0,0,0,0,0,0,0,0,0,0,0,0,0,0,0,0,0,0,0,0,0,0,0,0,0,0,0,0,0,0,0,0,0,0,0,0,0,0,0,0,0,0,0,0,0,0,0,0,0,0,0,0,0,
0,0,0,0,0,0,0,0,0,0,0,0,0,0,0,0,0,0,0,0,0,0,0,0,0,0,0,0,0,0,0,0,0,0,0,0,0,0,0,0,0,0,0,0,0,0,0,0,0,0,0,0,0,0,0,0,0,0,0,0,
0,0,0,0,0,0,0,0,0,0,0,0,0,0,0,0,0,0,0,0,0,0,0,0,0,0,0,0,0,0,0,0,0,0,0,0,0,0,0,0,0,0,0,0,0,0,0,0,0,0,0,0,0,0,0,0,0,0,0,0,
0,0,0,0,0,0,0,0,0,0,0,0,0,0,0,0,0,0,0,0,0,0,0,0,0,0,0,0,0,0,0,0,0,0,0,0,0,0,0,0,0,0,0,0,0,0,0,0,0,0,0,0,0,0,0,0,0,0,0,0,
0,0,0,0,0,0,0,0,0,0,0,0,0,0,0,0,0,0,0,0,0,0,0,0,0,0,0,0,0,0,0,0,0,0,0,0,0,0,0,0,0,0,0,0,0,0,0,0,0,0,0,0,0,0,0,0,0,0,0,0,
0,0,0,0,0,0,0,0,0,0,0,0,0,0,0,0,0,0,0,0,0,0,0,0,0,0,0,0,0,0,0,0,0,0,0,0,0,0,0,0,0,0,0,0,0,0,0,0,0,0,0,0,0,0,0,0,0,0,0,0,
0,0,0,0,0,0,0,0,0,0,0,0,0,0,0,0,0,0,0,0,0,0,0,0,0,0,0,0,0,0,0,0,0,0,0,0,0,0,0,0,0,0,0,0,0,0,0,0,0,0,0,0,0,0,0,0,0,0,0,0,
0,0,0,0,0,0,0,0,0,0,0,0,0,0,0,0,0,0,0,0,0,0,0,0,0,0,0,0,0,0,0,0,0,0,0,0,0,0,0,0,0,0,0,0,0,0,0,0,0,0,0,0,0,0,0,0,0,0,0,0,
0,0,0,0,0,0,0,0,0,0,0,0,0,0,0,0,0,0,0,0,0,0,0,0,0,0,0,0,0,0,0,0,0,0,0,0,0,0,0,0,0,0,0,0,0,0,0,0,0,0,0,0,0,0,0,0,0,0,0,0,
0,0,0,0,0,0,0,0,0,0,0,0,0,0,0,0,0,0,0,0,0,0,0,0,0,0,0,0,0,0,0,0,0,0,0,0,0,0,0,0,0,0,0,0,0,0,0,0,0,0,0,0,0,0,0,0,0,0,0,0,
0,0,0,0,0,0,0,0,0,0,0,0,0,0,0,0,0,0,0,0,0,0,0,0,0,0,0,0,0,0,0,0,0,0,0,0,0,0,0,0,0,0,0,0,0,0,0,0,0,0,0,0,0,0,0,0,0,0,0,0,
0,0,0,0,0,0,0,0,0,0,0,0,0,0,0,0,0,0,0,0,0,0,0,0,0,0,0,0,0,0,0,0,0,0,0,0,0,0,0,0,0,0,0,0,0,0,0,0,0,0,0,0,0,0,0,0,0,0,0,0,
0,0,0,0,0,0,0,0,0,0,0,0,0,0,0,0,0,0,0,0,0,0,0,0,0,0,0,0,0,0,0,0,0,0,0,0,0,0,0,0,0,0,0,0,0,0,0,0,0,0,0,0,0,0,0,0,0,0,0,0,
0,0,0,0,0,0,0,0,0,0,0,0,0,0,0,0,0,0,0,0,0,0,0,0,0,0,0,0,0,0,0,0,0,0,0,0,0,0,0,0,0,0,0,0,0,0,0,0,0,0,0,0,0,0,0,0,0,0,0,0,
0,0,0,0,0,0,0,0,0,0,0,0,0,0,0,0,0,0,0,0,0,0,0,0,0,0,0,0,0,0,0,0,0,0,0,0,0,0,0,0,0,0,0,0,0,0,0,0,0,0,0,0,0,0,0,0,0,0,0,0,
0,0,0,0,0,0,0,0,0,0,0,0,0,0,0,0,0,0,0,0,0,0,0,0,0,0,0,0,0,0,0,0,0,0,0,0,0,0,0,0,0,0,0,0,0,0,0,0,0,0,0,0,0,0,0,0,0,0,0,0,
0,0,0,0,0,0,0,0,0,0,0,0,0,0,0,0,0,0,0,0,0,0,0,0,0,0,0,0,0,0,0,0,0,0,0,0,0,0,0,0,0,0,0,0,0,0,0,0,0,0,0,0,0,0,0,0,0,0,0,0,
0,0,0,0,0,0,0,0,0,0,0,0,0,0,0,0,0,0,0,0,0,0,0,0,0,0,0,0,0,0,0,0,0,0,0,0,0,0,0,0,0,0,0,0,0,0,0,0,0,0,0,0,0,0,0,0,0,0,0,0,
0,0,0,0,0,0,0,0,0,0,0,0,0,0,0,0,0,0,0,0,0,0,0,0,0,0,0,0,0,0,0,0,0,0,0,0,0,0,0,0,0,0,0,0,0,0,0,0,0,0,0,0,0,0,0,0,0,0,0,0,
0,0,0,0,0,0,0,0,0,0,0,0,0,0,0,0,0,0,0,0,0,0,0,0,0,0,0,0,0,0,0,0,0,0,0,0,0,0,0,0,0,0,0,0,0,0,0,0,0,0,0,0,0,0,0,0,0,0,0,0,
0,0,0,0,0,0,0,0,0,0,0,0,0,0,0,0,0,0,0,0,0,0,0,0,0,0,0,0,0,0,0,0,0,0,0,0,0,0,0,0,0,0,0,0,0,0,0,0,0,0,0,0,0,0,0,0,0,0,0,0,
0,0,0,0,0,0,0,0,0,0,0,0,0,0,0,0,0,0,0,0,0,0,0,0,0,0,0,0,0,0,0,0,0,0,0,0,0,0,0,0,0,0,0,0,0,0,0,0,0,0,0,0,0,0,0,0,0,0,0,0,
0,0,0,0,0,0,0,0,0,0,0,0,0,0,0,0,0,0,0,0,0,0,0,0,0,0,0,0,0,0,0,0,0,0,0,0,0,0,0,0,0,0,0,0,0,0,0,0,0,0,0,0,0,0,0,0,0,0,0,0,
0,0,0,0,0,0,0,0,0,0,0,0,0,0,0,0,0,0,0,0,0,0,0,0,0,0,0,0,0,0,0,0,0,0,0,0,0,0,0,0,0,0,0,0,0,0,0,0,0,0,0,0,0,0,0,0,0,0,0,0,
0,0,0,0,0,0,0,0,0,0,0,0,0,0,0,0,0,0,0,0,0,0,0,0,0,0,0,0,0,0,0,0,0,0,0,0,0,0,0,0,0,0,0,0,0,0,0,0,0,0,0,0,0,0,0,0,0,0,0,0,
0,0,0,0,0,0,0,0,0,0,0,0,0,0,0,0,0,0,0,0,0,0,0,0,0,0,0,0,0,0,0,0,0,0,0,0,0,0,0,0,0,0,0,0,0,0,0,0,0,0,0,0,0,0,0,0,0,0,0,0
</data>
 </layer>
 <layer id="13" name="farm_up" width="60" height="60">
  <data encoding="csv">
0,0,0,0,0,0,0,0,0,0,0,0,0,0,0,0,0,0,0,0,0,0,0,0,0,0,0,0,0,0,0,0,0,0,0,0,0,0,0,0,0,0,0,0,0,0,0,0,0,0,0,0,0,0,0,0,0,0,0,0,
0,0,0,0,0,0,0,0,0,0,0,0,0,0,0,0,0,0,0,0,0,0,0,0,0,0,0,0,0,0,0,0,0,0,0,0,0,0,0,0,0,0,0,0,0,0,0,0,0,0,0,0,0,0,0,0,0,0,0,0,
0,0,0,0,0,0,0,0,0,0,0,0,0,0,0,0,0,0,0,0,0,0,0,0,0,0,0,0,0,0,0,0,0,0,0,0,0,0,0,0,0,0,0,0,0,0,0,0,0,0,0,0,0,0,0,0,0,0,0,0,
0,0,732,734,734,734,734,0,0,0,0,0,0,0,0,0,0,0,0,0,0,0,0,0,0,0,0,0,0,0,0,0,0,0,0,0,0,0,0,0,0,0,0,0,0,0,0,0,0,0,0,0,0,0,0,0,0,0,0,0,
0,0,740,742,742,742,742,0,0,0,0,0,0,0,0,0,0,0,0,0,0,0,0,0,0,0,0,0,0,0,0,0,0,0,0,0,0,0,0,0,0,0,0,0,0,0,0,0,0,0,0,0,0,0,0,0,0,0,0,0,
0,0,743,750,750,750,750,0,0,0,0,0,0,0,0,0,0,0,0,0,0,0,0,0,0,0,0,0,0,0,0,0,0,0,0,0,0,0,0,0,0,0,0,0,0,0,0,0,0,0,0,0,0,0,0,0,0,0,0,0,
0,0,743,743,743,743,743,1451,0,0,0,0,0,0,0,0,0,0,0,0,0,0,0,0,0,0,0,0,0,0,0,0,0,0,0,0,0,0,0,0,0,0,0,0,0,0,0,0,0,0,0,0,0,0,0,0,0,0,0,0,
0,0,752,752,752,752,752,0,0,0,0,0,0,0,0,0,0,0,0,0,0,0,0,0,0,0,0,0,0,0,0,0,0,0,0,0,0,0,0,0,0,0,0,0,0,0,0,0,0,0,0,0,0,0,0,0,0,0,0,0,
0,0,744,744,744,744,744,0,0,0,0,0,0,0,0,0,0,0,0,0,0,0,0,0,0,0,0,0,0,0,0,0,0,0,0,0,0,0,0,0,0,0,0,0,0,0,0,0,0,0,0,0,0,0,0,0,0,0,0,0,
0,0,0,0,0,0,0,0,0,0,0,0,0,0,0,0,0,0,0,0,0,0,0,0,0,0,0,0,0,0,0,0,0,0,0,0,0,0,0,0,0,0,0,0,0,0,0,0,0,0,0,0,0,0,0,0,0,0,0,0,
0,0,1450,1450,0,0,0,0,0,0,0,0,0,0,0,0,0,0,0,0,0,0,0,0,0,0,0,0,0,0,0,0,0,0,0,0,0,0,0,0,0,0,0,0,0,0,0,0,0,0,0,0,0,0,0,0,0,0,0,0,
0,0,0,0,0,0,0,0,0,0,0,0,0,0,0,0,0,0,0,0,0,0,0,0,0,0,0,0,0,0,0,0,0,0,0,0,0,0,0,0,0,0,0,0,0,0,0,0,0,0,0,0,0,0,0,0,0,0,0,0,
0,0,0,0,0,0,0,0,0,0,0,0,0,0,0,0,0,0,0,0,0,0,0,0,0,0,0,0,0,0,0,0,0,0,0,0,0,0,0,0,0,0,0,0,0,0,0,0,0,0,0,0,0,0,0,0,0,0,0,0,
0,0,0,0,0,0,0,0,0,0,0,0,0,0,0,0,0,0,0,0,0,0,0,0,0,0,0,0,0,0,0,0,0,0,0,0,0,0,0,0,0,0,0,0,0,0,0,0,0,0,0,0,0,0,0,0,0,0,0,0,
0,0,0,0,0,0,0,0,0,0,0,0,0,0,0,0,0,0,0,0,0,0,0,0,0,0,0,0,0,0,0,0,0,0,0,0,0,0,0,0,0,0,0,0,0,0,0,0,0,0,0,0,0,0,0,0,0,0,0,0,
0,0,0,0,0,0,0,0,0,0,0,0,0,0,0,0,0,0,0,0,0,0,0,0,0,0,0,0,0,0,0,0,0,0,0,0,0,0,0,0,0,0,0,0,0,0,0,0,0,0,0,0,0,0,0,0,0,0,0,0,
0,0,0,0,0,0,0,0,0,0,0,0,0,0,0,0,0,0,0,0,0,0,0,0,0,0,0,0,0,0,0,0,0,0,0,0,0,0,0,0,0,0,0,0,0,0,0,0,0,0,0,0,0,0,0,0,0,0,0,0,
0,0,0,0,0,0,0,0,0,0,0,0,0,0,0,0,0,0,0,0,0,0,0,0,0,0,0,0,0,0,0,0,0,0,0,0,0,0,0,0,0,0,0,0,0,0,0,0,0,0,0,0,0,0,0,0,0,0,0,0,
0,0,0,0,0,0,0,0,0,0,0,0,0,0,0,0,0,0,0,0,0,0,0,0,0,0,0,0,0,0,0,0,0,0,0,0,0,0,0,0,0,0,0,0,0,0,0,0,0,0,0,0,0,0,0,0,0,0,0,0,
0,0,0,0,0,0,0,0,0,0,0,0,0,0,0,0,0,0,0,0,0,0,0,0,0,0,0,0,0,0,0,0,0,0,0,0,0,0,0,0,0,0,0,0,0,0,0,0,0,0,0,0,0,0,0,0,0,0,0,0,
0,0,0,0,0,0,0,0,0,0,0,0,0,0,0,0,0,0,0,0,0,0,0,0,0,0,0,0,0,0,0,0,0,0,0,0,0,0,0,0,0,0,0,0,0,0,0,0,0,0,0,0,0,0,0,0,0,0,0,0,
0,0,0,0,0,0,0,0,0,0,0,0,0,0,0,0,0,0,0,0,0,0,0,0,0,0,0,0,0,0,0,0,0,0,0,0,0,0,0,0,0,0,0,0,0,0,0,0,0,0,0,0,0,0,0,0,0,0,0,0,
0,0,0,0,0,0,0,0,0,0,0,0,0,0,0,0,0,0,0,0,0,0,0,0,0,0,0,0,0,0,0,0,0,0,0,0,0,0,0,0,0,0,0,0,0,0,0,0,0,0,0,0,0,0,0,0,0,0,0,0,
0,0,0,0,0,0,0,0,0,0,0,0,0,0,0,0,0,0,0,0,0,0,0,0,0,0,0,0,0,0,0,0,0,0,0,0,0,0,0,0,0,0,0,0,0,0,0,0,0,0,0,0,0,0,0,0,0,0,0,0,
0,0,0,0,0,0,0,0,0,0,0,0,0,0,0,0,0,0,0,0,0,0,0,0,0,0,0,0,0,0,0,0,0,0,0,0,0,0,0,0,0,0,0,0,0,0,0,0,0,0,0,0,0,0,0,0,0,0,0,0,
0,0,0,0,0,0,0,0,0,0,0,0,0,0,0,0,0,0,0,0,0,0,0,0,0,0,0,0,0,0,0,0,0,0,0,0,0,0,0,0,0,0,0,0,0,0,0,0,0,0,0,0,0,0,0,0,0,0,0,0,
0,0,0,0,0,0,0,0,0,0,0,0,0,0,0,0,0,0,0,0,0,0,0,0,0,0,0,0,0,0,0,0,0,0,0,0,0,0,0,0,0,0,0,0,0,0,0,0,0,0,0,0,0,0,0,0,0,0,0,0,
0,0,0,0,0,0,0,0,0,0,0,0,0,0,0,0,0,0,0,0,0,0,0,0,0,0,0,0,0,0,0,0,0,0,0,0,0,0,0,0,0,0,0,0,0,0,0,0,0,0,0,0,0,0,0,0,0,0,0,0,
0,0,0,0,0,0,0,0,0,0,0,0,0,0,0,0,0,0,0,0,0,0,0,0,0,0,0,0,0,0,0,0,0,0,0,0,0,0,0,0,0,0,0,0,0,0,0,0,0,0,0,0,0,0,0,0,0,0,0,0,
0,0,0,0,0,0,0,0,0,0,0,0,0,0,0,0,0,0,0,0,0,0,0,0,0,0,0,0,0,0,0,0,0,0,0,0,0,0,0,0,0,0,0,0,0,0,0,0,0,0,0,0,0,0,0,0,0,0,0,0,
0,0,0,0,0,0,0,0,0,0,0,0,0,0,0,0,0,0,0,0,0,0,0,0,0,0,0,0,0,0,0,0,0,0,0,0,0,0,0,0,0,0,0,0,0,0,0,0,0,0,0,0,0,0,0,0,0,0,0,0,
0,0,0,0,0,0,0,0,0,0,0,0,0,0,0,0,0,0,0,0,0,0,0,0,0,0,0,0,0,0,0,0,0,0,0,0,0,0,0,0,0,0,0,0,0,0,0,0,0,0,0,0,0,0,0,0,0,0,0,0,
0,0,0,0,0,0,0,0,0,0,0,0,0,0,0,0,0,0,0,0,0,0,0,0,0,0,0,0,0,0,0,0,0,0,0,0,0,0,0,0,0,0,0,0,0,0,0,0,0,0,0,0,0,0,0,0,0,0,0,0,
0,0,0,0,0,0,0,0,0,0,0,0,0,0,0,0,0,0,0,0,0,0,0,0,0,0,0,0,0,0,0,0,0,0,0,0,0,0,0,0,0,0,0,0,0,0,0,0,0,0,0,0,0,0,0,0,0,0,0,0,
0,0,0,0,0,0,0,0,0,0,0,0,0,0,0,0,0,0,0,0,0,0,0,0,0,0,0,0,0,0,0,0,0,0,0,0,0,0,0,0,0,0,0,0,0,0,0,0,0,0,0,0,0,0,0,0,0,0,0,0,
0,0,0,0,0,0,0,0,0,0,0,0,0,0,0,0,0,0,0,0,0,0,0,0,0,0,0,0,0,0,0,0,0,0,0,0,0,0,0,0,0,0,0,0,0,0,0,0,0,0,0,0,0,0,0,0,0,0,0,0,
0,0,0,0,0,0,0,0,0,0,0,0,0,0,0,0,0,0,0,0,0,0,0,0,0,0,0,0,0,0,0,0,0,0,0,0,0,0,0,0,0,0,0,0,0,0,0,0,0,0,0,0,0,0,0,0,0,0,0,0,
0,0,0,0,0,0,0,0,0,0,0,0,0,0,0,0,0,0,0,0,0,0,0,0,0,0,0,0,0,0,0,0,0,0,0,0,0,0,0,0,0,0,0,0,0,0,0,0,0,0,0,0,0,0,0,0,0,0,0,0,
0,0,0,0,0,0,0,0,0,0,0,0,0,0,0,0,0,0,0,0,0,0,0,0,0,0,0,0,0,0,0,0,0,0,0,0,0,0,0,0,0,0,0,0,0,0,0,0,0,0,0,0,0,0,0,0,0,0,0,0,
0,0,0,0,0,0,0,0,0,0,0,0,0,0,0,0,0,0,0,0,0,0,0,0,0,0,0,0,0,0,0,0,0,0,0,0,0,0,0,0,0,0,0,0,0,0,0,0,0,0,0,0,0,0,0,0,0,0,0,0,
0,0,0,0,0,0,0,0,0,0,0,0,0,0,0,0,0,0,0,0,0,0,0,0,0,0,0,0,0,0,0,0,0,0,0,0,0,0,0,0,0,0,0,0,0,0,0,0,0,0,0,0,0,0,0,0,0,0,0,0,
0,0,0,0,0,0,0,0,0,0,0,0,0,0,0,0,0,0,0,0,0,0,0,0,0,0,0,0,0,0,0,0,0,0,0,0,0,0,0,0,0,0,0,0,0,0,0,0,0,0,0,0,0,0,0,0,0,0,0,0,
0,0,0,0,0,0,0,0,0,0,0,0,0,0,0,0,0,0,0,0,0,0,0,0,0,0,0,0,0,0,0,0,0,0,0,0,0,0,0,0,0,0,0,0,0,0,0,0,0,0,0,0,0,0,0,0,0,0,0,0,
0,0,0,0,0,0,0,0,0,0,0,0,0,0,0,0,0,0,0,0,0,0,0,0,0,0,0,0,0,0,0,0,0,0,0,0,0,0,0,0,0,0,0,0,0,0,0,0,0,0,0,0,0,0,0,0,0,0,0,0,
0,0,0,0,0,0,0,0,0,0,0,0,0,0,0,0,0,0,0,0,0,0,0,0,0,0,0,0,0,0,0,0,0,0,0,0,0,0,0,0,0,0,0,0,0,0,0,0,0,0,0,0,0,0,0,0,0,0,0,0,
0,0,0,0,0,0,0,0,0,0,0,0,0,0,0,0,0,0,0,0,0,0,0,0,0,0,0,0,0,0,0,0,0,0,0,0,0,0,0,0,0,0,0,0,0,0,0,0,0,0,0,0,0,0,0,0,0,0,0,0,
0,0,0,0,0,0,0,0,0,0,0,0,0,0,0,0,0,0,0,0,0,0,0,0,0,0,0,0,0,0,0,0,0,0,0,0,0,0,0,0,0,0,0,0,0,0,0,0,0,0,0,0,0,0,0,0,0,0,0,0,
0,0,0,0,0,0,0,0,0,0,0,0,0,0,0,0,0,0,0,0,0,0,0,0,0,0,0,0,0,0,0,0,0,0,0,0,0,0,0,0,0,0,0,0,0,0,0,0,0,0,0,0,0,0,0,0,0,0,0,0,
0,0,0,0,0,0,0,0,0,0,0,0,0,0,0,0,0,0,0,0,0,0,0,0,0,0,0,0,0,0,0,0,0,0,0,0,0,0,0,0,0,0,0,0,0,0,0,0,0,0,0,0,0,0,0,0,0,0,0,0,
0,0,0,0,0,0,0,0,0,0,0,0,0,0,0,0,0,0,0,0,0,0,0,0,0,0,0,0,0,0,0,0,0,0,0,0,0,0,0,0,0,0,0,0,0,0,0,0,0,0,0,0,0,0,0,0,0,0,0,0,
0,0,0,0,0,0,0,0,0,0,0,0,0,0,0,0,0,0,0,0,0,0,0,0,0,0,0,0,0,0,0,0,0,0,0,0,0,0,0,0,0,0,0,0,0,0,0,0,0,0,0,0,0,0,0,0,0,0,0,0,
0,0,0,0,0,0,0,0,0,0,0,0,0,0,0,0,0,0,0,0,0,0,0,0,0,0,0,0,0,0,0,0,0,0,0,0,0,0,0,0,0,0,0,0,0,0,0,0,0,0,0,0,0,0,0,0,0,0,0,0,
0,0,0,0,0,0,0,0,0,0,0,0,0,0,0,0,0,0,0,0,0,0,0,0,0,0,0,0,0,0,0,0,0,0,0,0,0,0,0,0,0,0,0,0,0,0,0,0,0,0,0,0,0,0,0,0,0,0,0,0,
0,0,0,0,0,0,0,0,0,0,0,0,0,0,0,0,0,0,0,0,0,0,0,0,0,0,0,0,0,0,0,0,0,0,0,0,0,0,0,0,0,0,0,0,0,0,0,0,0,0,0,0,0,0,0,0,0,0,0,0,
0,0,0,0,0,0,0,0,0,0,0,0,0,0,0,0,0,0,0,0,0,0,0,0,0,0,0,0,0,0,0,0,0,0,0,0,0,0,0,0,0,0,0,0,0,0,0,0,0,0,0,0,0,0,0,0,0,0,0,0,
0,0,0,0,0,0,0,0,0,0,0,0,0,0,0,0,0,0,0,0,0,0,0,0,0,0,0,0,0,0,0,0,0,0,0,0,0,0,0,0,0,0,0,0,0,0,0,0,0,0,0,0,0,0,0,0,0,0,0,0,
0,0,0,0,0,0,0,0,0,0,0,0,0,0,0,0,0,0,0,0,0,0,0,0,0,0,0,0,0,0,0,0,0,0,0,0,0,0,0,0,0,0,0,0,0,0,0,0,0,0,0,0,0,0,0,0,0,0,0,0,
0,0,0,0,0,0,0,0,0,0,0,0,0,0,0,0,0,0,0,0,0,0,0,0,0,0,0,0,0,0,0,0,0,0,0,0,0,0,0,0,0,0,0,0,0,0,0,0,0,0,0,0,0,0,0,0,0,0,0,0,
0,0,0,0,0,0,0,0,0,0,0,0,0,0,0,0,0,0,0,0,0,0,0,0,0,0,0,0,0,0,0,0,0,0,0,0,0,0,0,0,0,0,0,0,0,0,0,0,0,0,0,0,0,0,0,0,0,0,0,0,
0,0,0,0,0,0,0,0,0,0,0,0,0,0,0,0,0,0,0,0,0,0,0,0,0,0,0,0,0,0,0,0,0,0,0,0,0,0,0,0,0,0,0,0,0,0,0,0,0,0,0,0,0,0,0,0,0,0,0,0
</data>
 </layer>
 <layer id="6" name="water" width="60" height="60">
  <data encoding="csv">
0,0,0,0,0,0,0,0,0,0,0,0,0,0,0,0,0,0,0,0,0,0,0,0,0,0,2622,2623,2623,2624,0,0,0,0,0,0,0,0,0,0,0,0,0,0,0,0,0,0,0,0,0,0,0,0,0,0,0,0,0,0,
0,0,0,0,0,0,0,0,0,0,0,0,0,0,0,0,0,0,0,0,0,0,0,0,0,0,2622,2623,2749,2688,0,0,0,0,0,0,0,0,0,0,0,0,0,0,0,0,0,0,0,0,0,0,0,0,0,0,0,0,0,0,
0,0,0,0,0,0,0,0,0,0,0,0,0,0,0,0,0,0,0,0,0,0,0,0,0,0,2622,2623,2624,0,0,0,0,0,0,0,0,0,0,0,0,0,0,0,0,0,0,0,0,0,0,0,0,0,0,0,0,0,0,0,
0,0,0,0,0,0,0,0,0,0,0,0,0,0,0,0,0,0,0,0,0,0,0,0,0,2558,2814,2623,2624,0,0,0,0,0,0,0,0,0,0,0,0,0,0,0,0,0,0,0,0,0,0,0,0,0,0,0,0,0,0,0,
0,0,0,0,0,0,0,0,0,0,0,0,0,0,0,0,0,0,0,0,0,0,0,0,0,2622,2623,2623,2624,0,0,0,0,0,0,0,0,0,0,0,0,0,0,0,0,0,0,0,0,0,0,0,0,0,0,0,0,0,0,0,
0,0,0,0,0,0,0,0,0,0,0,0,0,0,0,0,0,0,0,0,0,0,0,0,0,2622,2623,2749,2688,0,0,0,0,0,0,0,0,0,0,0,0,0,0,0,0,0,0,0,0,0,0,0,0,0,0,0,0,0,0,0,
0,0,0,0,0,0,0,0,0,0,0,0,0,0,0,0,0,0,0,0,0,0,0,0,2558,2814,2623,2624,0,0,0,0,0,0,0,0,0,0,0,0,0,0,0,0,0,0,0,0,0,0,0,0,0,0,0,0,0,0,0,0,
0,0,0,0,0,0,0,0,0,0,0,0,0,0,0,0,0,0,0,0,0,0,0,0,2622,2623,2749,2688,0,0,0,0,0,0,0,0,0,0,0,0,0,0,0,0,0,0,0,0,0,0,0,0,0,0,0,0,0,0,0,0,
0,0,0,0,0,0,0,0,0,0,0,0,0,0,0,0,0,0,0,0,0,0,0,0,2622,2623,2624,0,0,0,0,0,0,0,0,0,0,0,0,0,0,0,0,0,0,0,0,0,0,0,0,0,0,0,0,0,0,0,0,0,
0,0,0,0,0,0,0,0,0,0,0,0,0,0,0,0,0,0,0,0,0,0,0,2558,2814,2749,2688,0,0,0,0,0,0,0,0,0,0,0,0,0,0,0,0,0,0,0,0,0,0,0,0,0,0,0,0,0,0,0,0,0,
0,0,0,0,0,0,0,0,0,0,0,0,0,0,0,0,0,0,0,0,0,0,0,2622,2623,2624,0,0,0,0,0,0,0,0,0,0,0,0,0,0,0,0,0,0,0,0,0,0,0,0,0,0,0,0,0,0,0,0,0,0,
0,0,0,0,0,0,0,0,0,0,0,0,0,0,0,0,0,0,0,0,0,0,0,2622,2749,2688,0,0,0,0,0,0,0,0,0,0,0,0,0,0,0,0,0,0,0,0,0,0,0,0,0,0,0,0,0,0,0,0,0,0,
0,0,0,0,0,0,0,0,0,0,0,0,0,0,0,0,0,0,0,0,0,0,2558,2814,2624,0,0,0,0,0,0,0,0,0,0,0,0,0,0,0,0,0,0,0,0,0,0,0,0,0,0,0,0,0,0,0,0,0,0,0,
0,0,0,0,0,0,0,0,0,0,0,0,0,0,0,0,0,0,0,0,0,2558,2814,2623,2624,0,0,0,0,0,0,0,0,0,0,0,0,0,0,0,0,0,0,0,0,0,0,0,0,0,0,0,0,0,0,0,0,0,0,0,
0,0,0,0,0,0,0,0,0,0,0,0,0,0,0,0,0,0,0,0,0,2622,2623,2749,2688,0,0,0,0,0,0,0,0,0,0,0,0,0,0,0,0,0,0,0,0,0,0,0,0,0,0,0,0,0,0,0,0,0,0,0,
0,0,0,0,0,0,0,0,0,0,0,0,0,0,0,0,0,0,0,0,2558,2814,2623,2624,0,0,0,0,0,0,0,0,0,0,0,0,0,0,0,0,0,0,0,0,0,0,0,0,0,0,0,0,0,0,0,0,0,0,0,0,
0,0,0,0,0,0,0,0,0,0,0,0,0,0,0,0,0,0,0,2558,2814,2623,2749,2688,0,0,0,0,0,0,0,0,0,0,0,0,0,0,0,0,0,0,0,0,0,0,0,0,0,0,0,0,0,0,0,0,0,0,0,0,
0,0,0,0,0,0,0,0,0,0,0,0,0,0,0,0,0,0,2558,2814,2623,2623,2624,0,0,0,0,0,0,0,0,0,0,0,0,0,0,0,0,0,0,0,0,0,0,0,0,0,0,0,0,0,0,0,0,0,0,0,0,0,
2559,2560,0,0,0,0,0,0,0,0,0,0,0,0,0,0,2558,2559,2814,2623,2623,2749,2688,0,0,0,0,0,0,0,0,0,0,0,0,0,0,0,0,0,0,0,0,0,0,0,0,0,0,0,0,0,0,0,0,0,0,0,0,0,
2623,2813,2559,2559,2560,0,0,0,0,0,0,0,0,2558,2559,2559,2814,2623,2623,2623,2623,2624,0,0,0,0,0,0,0,0,0,0,0,0,0,0,0,0,0,0,0,0,0,0,0,0,0,0,0,0,0,0,0,0,0,0,0,0,0,0,
2623,2623,2623,2623,2813,2559,2559,2559,2559,2559,2559,2559,2559,2814,2623,2623,2623,2623,2623,2623,2623,2624,0,0,0,0,0,0,0,0,0,0,0,0,0,0,0,0,0,0,0,0,0,0,0,0,0,0,0,0,0,0,0,0,0,0,0,0,0,0,
2687,2750,2623,2623,2623,2623,2623,2623,2623,2623,2623,2623,2623,2623,2623,2623,2623,2623,2623,2623,2749,2688,0,0,0,0,0,0,0,0,0,0,0,0,0,0,0,0,0,0,0,0,0,0,0,0,0,0,0,0,0,0,0,0,0,0,0,0,0,0,
0,2686,2687,2687,2687,2687,2687,2687,2687,2687,2687,2687,2687,2750,2623,2623,2623,2623,2623,2623,2624,0,0,0,0,0,0,0,0,0,0,0,0,0,0,0,0,0,0,0,0,0,0,0,0,0,0,0,0,0,0,0,0,0,0,0,0,0,0,0,
0,0,0,0,0,0,0,0,0,0,0,0,0,2686,2687,2750,2623,2623,2623,2623,2624,0,0,0,0,0,0,0,0,0,0,0,0,0,0,0,0,0,0,0,0,0,0,0,0,0,0,0,0,0,0,0,0,0,0,0,0,0,0,0,
0,0,0,0,0,0,0,0,0,0,0,0,0,0,0,2686,2687,2750,2623,2623,2624,0,0,0,0,0,0,0,0,0,0,0,0,0,0,0,0,0,0,0,0,0,0,0,0,0,0,0,0,0,0,0,0,0,0,0,0,0,0,0,
0,0,0,0,0,0,0,0,0,0,0,0,0,0,0,0,0,2686,2750,2623,2813,2560,0,0,0,0,0,0,0,0,0,0,0,0,0,0,0,0,0,0,0,0,0,0,0,0,0,0,0,0,0,0,0,0,0,0,0,0,0,0,
0,0,0,0,0,0,0,0,0,0,0,0,0,0,0,0,0,0,2622,2623,2623,2624,0,0,0,0,0,0,0,0,0,0,0,0,0,0,0,0,0,0,0,0,0,0,0,0,0,0,0,0,0,0,0,0,0,0,0,0,0,0,
0,0,0,0,0,0,0,0,0,0,0,0,0,0,0,0,0,0,2622,2623,2623,2624,0,0,0,0,0,0,0,0,0,0,0,0,0,0,0,0,0,0,0,0,0,0,0,0,0,0,0,0,0,0,0,0,0,0,0,0,0,0,
0,0,0,0,0,0,0,0,0,0,0,0,0,0,0,0,0,0,2686,2750,2623,2813,2560,0,0,0,0,0,0,0,0,0,0,0,0,0,0,0,0,0,0,0,0,0,0,0,0,0,0,0,0,0,0,0,0,0,0,0,0,0,
0,0,0,0,0,0,0,0,0,0,0,0,0,0,0,0,0,0,0,2622,2623,2623,2624,0,0,0,0,0,0,0,0,0,0,0,0,0,0,0,0,0,0,0,0,0,0,0,0,0,0,0,0,0,0,0,0,0,0,0,0,0,
0,0,0,0,0,0,0,0,0,0,0,0,0,0,0,0,0,0,0,2622,2623,2623,2624,0,0,0,0,0,0,0,0,0,0,0,0,0,0,0,0,0,0,0,0,0,0,0,0,0,0,0,0,0,0,0,0,0,0,0,0,0,
0,0,0,0,0,0,0,0,0,0,0,0,0,0,0,0,0,0,0,2622,2623,2623,2624,0,0,0,0,0,0,0,0,0,0,0,0,0,0,0,0,0,0,0,0,0,0,0,0,0,0,0,0,0,0,0,0,0,0,0,0,0,
0,0,0,0,0,0,0,0,0,0,0,0,0,0,0,0,0,0,0,2622,2623,2749,2688,0,0,0,0,0,0,0,0,0,0,0,0,0,0,0,0,0,0,0,0,0,0,0,0,0,0,0,0,0,0,0,0,0,0,0,0,0,
0,0,0,0,0,0,0,0,0,0,0,0,0,0,0,0,0,0,0,2622,2623,2624,0,0,0,0,0,0,0,0,0,0,0,0,0,0,0,0,0,0,0,0,0,0,0,0,0,0,0,0,0,0,0,0,0,0,0,0,0,0,
0,0,0,0,0,0,0,0,0,0,0,0,0,0,0,0,0,0,2558,2814,2623,2624,0,0,0,0,0,0,0,0,0,0,0,0,0,0,0,0,0,0,0,0,0,0,0,0,0,0,0,0,0,0,0,0,0,0,0,0,0,0,
0,0,0,0,0,0,0,0,0,0,0,0,0,0,0,0,0,0,2622,2623,2623,2813,2560,0,0,0,0,0,0,0,0,0,0,0,0,0,0,0,0,0,0,0,0,0,0,0,0,0,0,0,0,0,0,0,0,0,0,0,0,0,
0,0,0,0,0,0,0,0,0,0,0,0,0,0,0,0,0,2558,2814,2623,2623,2623,2624,0,0,0,0,0,0,0,0,0,0,0,0,0,0,0,0,0,0,0,0,0,0,0,0,0,0,0,0,0,0,0,0,0,0,0,0,0,
0,0,0,0,0,0,0,0,0,0,0,0,0,0,0,0,0,2622,2623,2623,2623,2623,2813,2560,0,0,0,0,0,0,0,0,0,0,0,0,0,0,0,0,0,0,0,0,0,0,0,0,0,0,0,0,0,0,0,0,0,0,0,0,
0,0,0,0,0,0,0,0,0,0,0,0,0,0,0,0,2558,2814,2623,2623,2623,2623,2623,2813,2560,0,0,0,0,0,0,0,0,0,0,0,0,0,0,0,0,0,0,0,0,0,0,0,0,0,0,0,0,0,0,0,0,0,0,0,
0,0,0,0,0,0,0,0,0,0,0,0,0,0,0,0,2622,2623,2623,2623,2623,2623,2623,2623,2813,2559,2560,0,0,0,0,0,0,0,0,0,0,0,0,0,0,0,0,0,0,0,0,0,0,0,0,0,0,0,0,0,0,0,0,0,
0,0,0,0,0,0,0,0,0,0,0,0,0,0,0,2558,2814,2749,2687,2687,2687,2687,2750,2623,2623,2623,2813,2560,0,0,0,0,0,0,0,0,0,0,0,0,0,0,0,0,0,0,0,0,0,0,0,0,0,0,0,0,0,0,0,0,
0,0,0,0,0,0,0,0,0,0,0,0,0,0,2558,2814,2749,2688,0,0,0,0,2686,2750,2623,2623,2623,2813,2560,0,0,0,0,0,0,0,0,0,0,0,0,0,0,0,0,0,0,0,0,0,0,0,0,0,0,0,0,0,0,0,
0,0,0,0,0,0,0,0,0,0,0,0,0,0,2622,2749,2688,0,0,0,0,0,0,2686,2687,2750,2623,2623,2624,0,0,0,0,0,0,0,0,0,0,0,0,0,0,0,0,0,0,0,0,0,0,0,0,0,0,0,0,0,0,0,
0,0,0,0,0,0,0,0,0,0,0,0,0,2558,2814,2624,0,0,0,0,0,0,0,0,0,2622,2623,2623,2624,0,0,0,0,0,0,0,0,0,0,0,0,0,0,0,0,0,0,0,0,0,0,0,0,0,0,0,0,0,0,0,
0,0,0,0,0,0,0,0,0,0,0,0,2558,2814,2749,2688,0,0,0,0,0,0,0,0,0,2622,2623,2623,2624,0,0,0,0,0,0,0,0,0,0,0,0,0,0,0,0,0,0,0,0,0,0,0,0,0,0,0,0,0,0,0,
0,0,0,0,0,0,0,0,0,0,0,0,2622,2623,2624,0,0,0,0,0,0,0,0,0,0,2622,2623,2623,2624,0,0,0,0,0,0,0,0,0,0,0,0,0,0,0,0,0,0,0,0,0,0,0,0,0,0,0,0,0,0,0,
0,0,0,0,0,0,0,0,0,0,0,0,2622,2623,2624,0,0,0,0,0,0,0,0,0,2558,2814,2623,2749,2688,0,0,0,0,0,0,0,0,0,0,0,0,0,0,0,0,0,0,0,0,0,0,0,0,0,0,0,0,0,0,0,
0,0,0,0,0,0,0,0,0,0,0,2558,2814,2623,2813,2560,0,0,0,0,0,0,2558,2559,2814,2623,2749,2688,0,0,0,0,0,0,0,0,0,0,0,0,0,0,0,0,0,0,0,0,0,0,0,0,0,0,0,0,0,0,0,0,
0,0,0,0,0,0,0,0,0,0,0,2622,2623,2623,2623,2813,2559,2559,2559,2559,2559,2559,2814,2623,2749,2687,2688,0,0,0,0,0,0,0,0,0,0,0,0,0,0,0,0,0,0,0,0,0,0,0,0,0,0,0,0,0,0,0,0,0,
0,0,0,0,0,0,0,0,0,0,2558,2814,2623,2623,2623,2623,2623,2623,2623,2623,2623,2623,2749,2687,2688,0,0,0,0,0,0,0,0,0,0,0,0,0,0,0,0,0,0,4094,4095,4095,4095,4095,4095,4095,4095,4095,4095,4095,4095,4095,4095,4095,4095,4095,
0,0,0,0,0,0,0,0,0,0,2622,2623,2623,2623,2623,2623,2623,2623,2623,2623,2749,2687,2688,0,0,0,0,0,0,0,0,0,0,0,0,0,0,0,0,0,0,0,0,4158,4159,4159,4159,4159,4159,4159,4159,4159,4159,4159,4159,4159,4159,4159,4159,4159,
0,0,0,0,0,0,0,0,0,2558,2814,2623,2623,2623,2623,2623,2623,2623,2749,2687,2688,0,0,0,0,0,0,0,0,0,0,0,0,0,0,0,0,0,0,0,0,0,0,4158,4159,4159,4159,4159,4159,4159,4159,4159,4159,4159,4159,4159,4159,4159,4159,4159,
0,0,0,0,0,0,0,0,0,2622,2623,2623,2623,2623,2623,2623,2749,2687,2688,0,0,0,0,0,0,0,0,0,0,0,0,0,0,0,0,0,0,0,0,0,0,0,0,4158,4159,4159,4159,0,0,0,0,0,0,0,0,0,0,0,0,0,
0,0,0,0,0,0,0,0,0,2622,2623,2623,2623,2623,2623,2749,2688,0,0,0,0,0,0,0,0,0,0,0,0,0,0,0,0,0,0,0,0,0,0,0,0,0,0,4158,4159,4159,4285,0,0,0,0,0,0,0,0,0,0,0,0,0,
0,0,0,0,0,0,0,0,0,2686,2750,2623,2623,2623,2749,2688,0,0,0,0,0,0,0,0,0,0,0,0,0,0,0,0,0,0,0,0,0,0,0,0,0,0,0,4158,4159,4159,4160,0,0,0,0,0,0,0,0,0,0,0,0,0,
0,0,0,0,0,0,0,0,0,0,2686,2750,2623,2623,2624,0,0,0,0,0,0,0,0,0,0,0,0,0,0,0,0,0,0,0,0,0,0,0,0,0,0,0,0,4158,4159,4159,4160,0,0,0,0,0,0,0,0,0,0,0,0,0,
0,0,0,0,0,0,0,0,0,0,0,2622,2623,2623,2624,0,0,0,0,0,0,0,0,0,0,0,0,0,0,0,0,0,0,0,0,0,0,0,0,0,0,0,0,4158,4159,4159,4160,0,0,0,0,0,0,0,0,0,0,0,0,0,
0,0,0,0,0,0,0,0,0,0,0,2622,2623,2623,2813,2560,0,0,0,0,0,0,0,0,0,0,0,0,0,0,0,0,0,0,0,0,0,0,0,0,0,0,0,4158,4159,4159,4160,0,0,0,0,0,0,0,0,0,0,0,0,0,
0,0,0,0,0,0,0,0,0,0,0,2686,2750,2623,2623,2624,0,0,0,0,0,0,0,0,0,0,0,0,0,0,0,0,0,0,0,0,0,0,0,0,0,0,0,4158,4159,4159,4160,0,0,0,0,0,0,0,0,0,0,0,0,0,
0,0,0,0,0,0,0,0,0,0,0,0,2622,2623,2623,2624,0,0,0,0,0,0,0,0,0,0,0,0,0,0,0,0,0,0,0,0,0,0,0,0,0,0,0,4158,4159,4159,4160,0,0,0,0,0,0,0,0,0,0,0,0,0
</data>
 </layer>
 <layer id="10" name="water_grass" width="60" height="60">
  <data encoding="csv">
0,0,0,0,0,0,0,0,0,0,0,0,0,0,0,0,0,0,0,0,0,0,0,0,0,0,0,0,0,0,0,0,0,0,0,0,0,0,0,0,0,0,0,0,0,0,0,0,0,0,0,0,0,0,0,0,0,0,0,0,
0,0,0,0,0,0,0,0,0,0,0,0,0,0,0,0,0,0,0,0,0,0,0,0,0,0,0,0,0,0,0,0,0,0,0,0,0,0,0,0,0,0,0,0,0,0,0,0,0,0,0,0,0,0,0,0,0,0,0,0,
0,0,0,0,0,0,0,0,0,0,0,0,0,0,0,0,0,0,0,0,0,0,0,0,0,0,0,0,0,0,0,0,0,0,0,0,0,0,0,0,0,0,0,0,0,0,0,0,0,0,0,0,0,0,0,0,0,0,0,0,
0,0,0,0,0,0,0,0,0,0,0,0,0,0,0,0,0,0,0,0,0,0,0,0,0,0,0,635,0,0,0,0,0,0,0,0,0,0,0,0,0,0,0,0,0,0,0,0,0,0,0,0,0,0,0,0,0,0,0,0,
0,0,0,0,0,0,0,0,0,0,0,0,0,0,0,0,0,0,0,0,0,0,0,0,0,0,0,0,0,0,0,0,0,0,0,0,0,0,0,0,0,0,0,0,0,0,0,0,0,0,0,0,0,0,0,0,0,0,0,0,
0,0,0,0,0,0,0,0,0,0,0,0,0,0,0,0,0,0,0,0,0,0,0,0,0,0,0,0,0,0,0,0,0,0,0,0,0,0,0,0,0,0,0,0,0,0,0,0,0,0,0,0,0,0,0,0,0,0,0,0,
0,0,0,0,0,0,0,0,0,0,0,0,0,0,0,0,0,0,0,0,0,0,0,0,0,0,0,0,0,0,0,0,0,0,0,0,0,0,0,0,0,0,0,0,0,0,0,0,0,0,0,0,0,0,0,0,0,0,0,0,
0,0,0,0,0,0,0,0,0,0,0,0,0,0,0,0,0,0,0,0,0,0,0,0,0,0,0,0,0,0,0,0,0,0,0,0,0,0,0,0,0,0,0,0,0,0,0,0,0,0,0,0,0,0,0,0,0,0,0,0,
0,0,0,0,0,0,0,0,0,0,0,0,0,0,0,0,0,0,0,0,0,0,0,0,0,0,0,0,0,0,0,0,0,0,0,0,0,0,0,0,0,0,0,0,0,0,0,0,0,0,0,0,0,0,0,0,0,0,0,0,
0,0,0,0,0,0,0,0,0,0,0,0,0,0,0,0,0,0,0,0,0,0,0,0,0,0,0,0,0,0,0,0,0,0,0,0,0,0,0,0,0,0,0,0,0,0,0,0,0,0,0,0,0,0,0,0,0,0,0,0,
0,0,0,0,0,0,0,0,0,0,0,0,0,0,0,0,0,0,0,0,0,0,0,0,0,0,0,0,0,0,0,0,0,0,0,0,0,0,0,0,0,0,0,0,0,0,0,0,0,0,0,0,0,0,0,0,0,0,0,0,
0,0,0,0,0,0,0,0,0,0,0,0,0,0,0,0,0,0,0,0,0,0,0,0,0,0,0,0,0,0,0,0,0,0,0,0,0,0,0,0,0,0,0,0,0,0,0,0,0,0,0,0,0,0,0,0,0,0,0,0,
0,0,0,0,0,0,0,0,0,0,0,0,0,0,0,0,0,0,0,0,0,0,0,0,0,0,0,0,0,0,0,0,0,0,0,0,0,0,0,0,0,0,0,0,0,0,0,0,0,0,0,0,0,0,0,0,0,0,0,0,
0,0,0,0,0,0,0,0,0,0,0,0,0,0,0,0,0,0,0,0,0,0,0,0,0,0,0,0,0,0,0,0,0,0,0,0,0,0,0,0,0,0,0,0,0,0,0,0,0,0,0,0,0,0,0,0,0,0,0,0,
0,0,0,0,0,0,0,0,0,0,0,0,0,0,0,0,0,0,0,0,0,0,0,0,0,0,0,0,0,0,0,0,0,0,0,0,0,0,0,0,0,0,0,0,0,0,0,0,0,0,0,0,0,0,0,0,0,0,0,0,
0,0,0,0,0,0,0,0,0,0,0,0,0,0,0,0,0,0,0,0,0,0,0,0,0,0,0,0,0,0,0,0,0,0,0,0,0,0,0,0,0,0,0,0,0,0,0,0,0,0,0,0,0,0,0,0,0,0,0,0,
0,0,0,0,0,0,0,0,0,0,0,0,0,0,0,0,0,0,0,0,0,635,0,0,0,0,0,0,0,0,0,0,0,0,0,0,0,0,0,0,0,0,0,0,0,0,0,0,0,0,0,0,0,0,0,0,0,0,0,0,
0,0,0,0,0,0,0,0,0,0,0,0,0,0,0,0,0,0,0,0,0,0,0,0,0,0,0,0,0,0,0,0,0,0,0,0,0,0,0,0,0,0,0,0,0,0,0,0,0,0,0,0,0,0,0,0,0,0,0,0,
0,0,0,0,0,0,0,0,0,0,0,0,0,0,0,0,0,0,0,0,0,0,0,0,0,0,0,0,0,0,0,0,0,0,0,0,0,0,0,0,0,0,0,0,0,0,0,0,0,0,0,0,0,0,0,0,0,0,0,0,
635,0,0,0,0,0,0,0,0,0,0,0,0,0,0,0,0,0,635,0,0,0,0,0,0,0,0,0,0,0,0,0,0,0,0,0,0,0,0,0,0,0,0,0,0,0,0,0,0,0,0,0,0,0,0,0,0,0,0,0,
0,0,0,0,0,0,0,0,0,0,0,0,0,0,0,635,0,0,0,0,0,0,0,0,0,0,0,0,0,0,0,0,0,0,0,0,0,0,0,0,0,0,0,0,0,0,0,0,0,0,0,0,0,0,0,0,0,0,0,0,
0,0,0,0,635,0,0,0,0,0,0,0,0,0,0,0,0,0,0,0,0,0,0,0,0,0,0,0,0,0,0,0,0,0,0,0,0,0,0,0,0,0,0,0,0,0,0,0,0,0,0,0,0,0,0,0,0,0,0,0,
0,0,0,0,0,0,0,0,0,0,0,0,0,0,0,0,0,0,0,0,0,0,0,0,0,0,0,0,0,0,0,0,0,0,0,0,0,0,0,0,0,0,0,0,0,0,0,0,0,0,0,0,0,0,0,0,0,0,0,0,
0,0,0,0,0,0,0,0,0,0,0,0,0,0,0,0,0,0,0,0,0,0,0,0,0,0,0,0,0,0,0,0,0,0,0,0,0,0,0,0,0,0,0,0,0,0,0,0,0,0,0,0,0,0,0,0,0,0,0,0,
0,0,0,0,0,0,0,0,0,0,0,0,0,0,0,0,0,0,0,635,0,0,0,0,0,0,0,0,0,0,0,0,0,0,0,0,0,0,0,0,0,0,0,0,0,0,0,0,0,0,0,0,0,0,0,0,0,0,0,0,
0,0,0,0,0,0,0,0,0,0,0,0,0,0,0,0,0,0,0,0,0,0,0,0,0,0,0,0,0,0,0,0,0,0,0,0,0,0,0,0,0,0,0,0,0,0,0,0,0,0,0,0,0,0,0,0,0,0,0,0,
0,0,0,0,0,0,0,0,0,0,0,0,0,0,0,0,0,0,0,0,0,0,0,0,0,0,0,0,0,0,0,0,0,0,0,0,0,0,0,0,0,0,0,0,0,0,0,0,0,0,0,0,0,0,0,0,0,0,0,0,
0,0,0,0,0,0,0,0,0,0,0,0,0,0,0,0,0,0,0,0,0,0,0,0,0,0,0,0,0,0,0,0,0,0,0,0,0,0,0,0,0,0,0,0,0,0,0,0,0,0,0,0,0,0,0,0,0,0,0,0,
0,0,0,0,0,0,0,0,0,0,0,0,0,0,0,0,0,0,0,0,0,0,0,0,0,0,0,0,0,0,0,0,0,0,0,0,0,0,0,0,0,0,0,0,0,0,0,0,0,0,0,0,0,0,0,0,0,0,0,0,
0,0,0,0,0,0,0,0,0,0,0,0,0,0,0,0,0,0,0,0,0,0,0,0,0,0,0,0,0,0,0,0,0,0,0,0,0,0,0,0,0,0,0,0,0,0,0,0,0,0,0,0,0,0,0,0,0,0,0,0,
0,0,0,0,0,0,0,0,0,0,0,0,0,0,0,0,0,0,0,0,0,0,0,0,0,0,0,0,0,0,0,0,0,0,0,0,0,0,0,0,0,0,0,0,0,0,0,0,0,0,0,0,0,0,0,0,0,0,0,0,
0,0,0,0,0,0,0,0,0,0,0,0,0,0,0,0,0,0,0,0,0,0,0,0,0,0,0,0,0,0,0,0,0,0,0,0,0,0,0,0,0,0,0,0,0,0,0,0,0,0,0,0,0,0,0,0,0,0,0,0,
0,0,0,0,0,0,0,0,0,0,0,0,0,0,0,0,0,0,0,0,0,0,0,0,0,0,0,0,0,0,0,0,0,0,0,0,0,0,0,0,0,0,0,0,0,0,0,0,0,0,0,0,0,0,0,0,0,0,0,0,
0,0,0,0,0,0,0,0,0,0,0,0,0,0,0,0,0,0,0,0,0,0,0,0,0,0,0,0,0,0,0,0,0,0,0,0,0,0,0,0,0,0,0,0,0,0,0,0,0,0,0,0,0,0,0,0,0,0,0,0,
0,0,0,0,0,0,0,0,0,0,0,0,0,0,0,0,0,0,0,0,0,0,0,0,0,0,0,0,0,0,0,0,0,0,0,0,0,0,0,0,0,0,0,0,0,0,0,0,0,0,0,0,0,0,0,0,0,0,0,0,
0,0,0,0,0,0,0,0,0,0,0,0,0,0,0,0,0,0,0,0,0,0,0,0,0,0,0,0,0,0,0,0,0,0,0,0,0,0,0,0,0,0,0,0,0,0,0,0,0,0,0,0,0,0,0,0,0,0,0,0,
0,0,0,0,0,0,0,0,0,0,0,0,0,0,0,0,0,0,0,635,0,0,0,0,0,0,0,0,0,0,0,0,0,0,0,0,0,0,0,0,0,0,0,0,0,0,0,0,0,0,0,0,0,0,0,0,0,0,0,0,
0,0,0,0,0,0,0,0,0,0,0,0,0,0,0,0,0,0,0,0,0,0,0,0,0,0,0,0,0,0,0,0,0,0,0,0,0,0,0,0,0,0,0,0,0,0,0,0,0,0,0,0,0,0,0,0,0,0,0,0,
0,0,0,0,0,0,0,0,0,0,0,0,0,0,0,0,0,0,0,0,0,0,0,0,0,0,0,0,0,0,0,0,0,0,0,0,0,0,0,0,0,0,0,0,0,0,0,0,0,0,0,0,0,0,0,0,0,0,0,0,
0,0,0,0,0,0,0,0,0,0,0,0,0,0,0,0,0,0,0,0,0,636,0,0,0,0,0,0,0,0,0,0,0,0,0,0,0,0,0,0,0,0,0,0,0,0,0,0,0,0,0,0,0,0,0,0,0,0,0,0,
0,0,0,0,0,0,0,0,0,0,0,0,0,0,0,0,0,0,0,0,0,0,0,0,0,0,0,0,0,0,0,0,0,0,0,0,0,0,0,0,0,0,0,0,0,0,0,0,0,0,0,0,0,0,0,0,0,0,0,0,
0,0,0,0,0,0,0,0,0,0,0,0,0,0,0,0,0,0,0,0,0,0,0,0,0,635,0,0,0,0,0,0,0,0,0,0,0,0,0,0,0,0,0,0,0,0,0,0,0,0,0,0,0,0,0,0,0,0,0,0,
0,0,0,0,0,0,0,0,0,0,0,0,0,0,0,0,0,0,0,0,0,0,0,0,0,0,0,0,0,0,0,0,0,0,0,0,0,0,0,0,0,0,0,0,0,0,0,0,0,0,0,0,0,0,0,0,0,0,0,0,
0,0,0,0,0,0,0,0,0,0,0,0,0,0,0,0,0,0,0,0,0,0,0,0,0,0,0,636,636,0,0,0,0,0,0,0,0,0,0,0,0,0,0,0,0,0,0,0,0,0,0,0,0,0,0,0,0,0,0,0,
0,0,0,0,0,0,0,0,0,0,0,0,0,0,0,0,0,0,0,0,0,0,0,0,0,636,636,636,0,0,0,0,0,0,0,0,0,0,0,0,0,0,0,0,0,0,0,0,0,0,0,0,0,0,0,0,0,0,0,0,
0,0,0,0,0,0,0,0,0,0,0,0,0,0,0,0,0,0,0,0,0,0,0,0,0,0,0,0,0,0,0,0,0,0,0,0,0,0,0,0,0,0,0,0,0,0,0,0,0,0,0,0,0,0,0,0,0,0,0,0,
0,0,0,0,0,0,0,0,0,0,0,0,0,0,0,0,0,0,0,0,0,0,0,0,0,0,0,0,0,0,0,0,0,0,0,0,0,0,0,0,0,0,0,0,0,0,0,0,0,0,0,0,0,0,0,0,0,0,0,0,
0,0,0,0,0,0,0,0,0,0,0,0,0,0,0,0,0,0,0,0,0,0,0,0,0,0,0,0,0,0,0,0,0,0,0,0,0,0,0,0,0,0,0,0,0,0,0,0,0,0,0,0,0,0,0,0,0,0,0,0,
0,0,0,0,0,0,0,0,0,0,0,0,0,0,0,0,0,0,0,0,0,0,0,0,0,0,0,0,0,0,0,0,0,0,0,0,0,0,0,0,0,0,0,0,0,0,0,0,0,0,0,0,0,0,0,0,0,0,0,0,
0,0,0,0,0,0,0,0,0,0,0,0,0,0,0,0,0,0,0,636,0,0,0,0,0,0,0,0,0,0,0,0,0,0,0,0,0,0,0,0,0,0,0,0,0,0,0,0,0,0,0,0,0,0,0,0,0,0,0,0,
0,0,0,0,0,0,0,0,0,0,0,0,0,636,0,0,0,635,0,0,0,0,0,0,0,0,0,0,0,0,0,0,0,0,0,0,0,0,0,0,0,0,0,0,0,0,0,0,0,0,0,0,0,0,0,0,0,0,0,0,
0,0,0,0,0,0,0,0,0,0,0,0,0,0,0,635,0,0,0,0,0,0,0,0,0,0,0,0,0,0,0,0,0,0,0,0,0,0,0,0,0,0,0,0,0,0,0,0,0,0,0,0,0,0,0,0,0,0,0,0,
0,0,0,0,0,0,0,0,0,0,635,0,0,0,0,0,0,0,0,0,0,0,0,0,0,0,0,0,0,0,0,0,0,0,0,0,0,0,0,0,0,0,0,0,0,0,0,0,0,0,0,0,0,0,0,0,0,0,0,0,
0,0,0,0,0,0,0,0,0,0,0,0,0,0,0,0,0,0,0,0,0,0,0,0,0,0,0,0,0,0,0,0,0,0,0,0,0,0,0,0,0,0,0,0,0,0,0,0,0,0,0,0,0,0,0,0,0,0,0,0,
0,0,0,0,0,0,0,0,0,0,0,0,636,0,0,0,0,0,0,0,0,0,0,0,0,0,0,0,0,0,0,0,0,0,0,0,0,0,0,0,0,0,0,0,0,0,0,0,0,0,0,0,0,0,0,0,0,0,0,0,
0,0,0,0,0,0,0,0,0,0,0,0,0,0,0,0,0,0,0,0,0,0,0,0,0,0,0,0,0,0,0,0,0,0,0,0,0,0,0,0,0,0,0,0,0,0,0,0,0,0,0,0,0,0,0,0,0,0,0,0,
0,0,0,0,0,0,0,0,0,0,0,0,0,0,0,0,0,0,0,0,0,0,0,0,0,0,0,0,0,0,0,0,0,0,0,0,0,0,0,0,0,0,0,0,0,0,0,0,0,0,0,0,0,0,0,0,0,0,0,0,
0,0,0,0,0,0,0,0,0,0,0,0,0,0,0,0,0,0,0,0,0,0,0,0,0,0,0,0,0,0,0,0,0,0,0,0,0,0,0,0,0,0,0,0,0,0,0,0,0,0,0,0,0,0,0,0,0,0,0,0,
0,0,0,0,0,0,0,0,0,0,0,0,0,635,0,0,0,0,0,0,0,0,0,0,0,0,0,0,0,0,0,0,0,0,0,0,0,0,0,0,0,0,0,0,0,0,0,0,0,0,0,0,0,0,0,0,0,0,0,0,
0,0,0,0,0,0,0,0,0,0,0,0,0,0,0,0,0,0,0,0,0,0,0,0,0,0,0,0,0,0,0,0,0,0,0,0,0,0,0,0,0,0,0,0,0,0,0,0,0,0,0,0,0,0,0,0,0,0,0,0
</data>
 </layer>
 <layer id="7" name="building" width="60" height="60">
  <data encoding="csv">
0,0,0,0,0,0,0,0,0,0,0,0,0,0,0,0,0,0,0,0,0,0,0,0,0,0,0,0,0,0,0,673,673,674,665,653,0,0,673,674,657,0,0,0,0,0,0,0,0,0,0,0,0,681,673,674,728,0,0,0,
0,0,0,0,0,0,0,0,0,0,0,0,0,0,0,0,0,0,0,0,0,0,0,0,0,0,0,0,0,0,0,681,673,674,673,657,0,0,681,682,665,653,0,0,0,0,0,0,0,652,666,653,0,0,681,682,672,0,705,706,
0,0,0,0,0,0,0,0,0,0,0,0,0,0,0,0,0,0,0,0,0,0,0,0,0,0,0,0,0,0,0,0,681,682,673,665,653,0,0,0,673,665,653,0,0,0,0,0,652,667,713,665,666,653,0,0,680,0,673,674,
0,0,0,0,0,0,0,0,1137,1137,1137,1137,1137,1137,1137,0,0,0,0,0,0,0,0,0,0,0,0,0,0,0,0,0,0,0,681,673,657,0,0,0,673,673,665,653,0,0,0,652,667,714,713,673,674,665,653,0,0,0,681,682,
0,0,0,0,0,0,0,0,1145,1145,1145,1145,1145,1145,1145,0,0,0,0,0,0,0,0,0,0,0,0,0,0,0,0,0,0,0,0,673,657,0,0,0,681,673,673,665,653,652,666,667,714,714,721,673,715,673,665,653,0,0,0,0,
0,0,0,0,0,0,0,0,1153,1153,1153,1153,1153,1153,1153,1463,1464,0,0,0,0,0,0,0,0,0,0,0,0,0,0,0,0,0,0,681,657,0,0,0,0,681,673,673,665,667,713,675,714,722,0,681,723,673,673,657,0,0,0,0,
0,0,0,0,0,0,0,0,1153,1153,1153,1153,1153,1153,1153,1471,1472,0,0,0,0,0,0,0,0,0,0,0,0,0,0,0,0,0,0,0,657,0,0,0,0,0,681,673,673,675,713,675,722,0,0,0,0,681,673,665,653,0,0,0,
0,0,0,0,0,0,0,0,1161,1161,1161,1161,1161,1161,1161,1479,1480,0,0,0,0,0,0,0,0,0,0,0,0,0,0,0,0,0,0,0,665,653,0,0,0,0,0,681,673,675,721,683,0,0,0,0,0,0,681,673,665,653,0,0,
0,0,0,0,0,0,0,0,929,930,930,930,930,936,931,1443,0,0,0,0,0,0,0,0,0,0,0,0,0,0,0,0,0,0,0,0,673,665,666,653,0,0,0,0,681,683,0,0,0,0,0,0,0,0,0,673,673,665,666,666,
0,0,0,0,0,0,0,0,937,938,938,938,938,944,939,1443,1444,0,0,0,0,0,0,0,0,0,0,0,0,0,0,0,0,0,0,0,673,673,674,657,0,0,0,0,0,0,0,0,0,0,0,0,0,0,0,681,673,673,674,674,
0,0,0,0,0,0,0,0,1453,1454,0,0,0,0,855,856,0,0,0,0,0,0,0,0,0,0,0,0,0,0,0,0,0,0,0,0,681,673,674,665,653,0,0,0,0,0,0,0,0,0,0,0,0,0,0,0,681,673,674,674,
0,0,0,0,0,803,804,0,0,0,0,0,0,0,863,864,0,0,0,0,0,0,0,0,0,0,0,0,0,0,0,0,0,0,0,0,0,681,682,673,657,0,0,0,0,0,0,0,0,0,652,666,653,0,0,0,0,681,682,682,
0,0,0,0,0,0,0,0,0,0,0,0,0,0,0,0,0,0,0,0,0,0,0,0,0,0,0,0,0,0,0,0,0,0,0,0,0,0,0,673,657,0,0,652,666,666,653,0,652,666,667,713,665,666,653,0,0,0,0,0,
0,0,0,0,0,0,0,0,0,0,0,0,0,805,0,0,0,0,0,0,0,0,0,0,0,0,0,0,0,0,0,0,0,0,0,0,0,0,0,681,665,653,0,659,713,674,665,0,667,713,675,713,673,674,665,653,0,0,0,0,
0,0,0,0,0,0,0,0,0,0,0,0,0,0,0,0,0,0,0,0,0,0,0,0,0,0,0,0,0,0,0,0,0,0,0,0,0,0,0,0,673,665,666,667,713,674,673,687,714,713,675,721,673,674,673,657,0,0,0,0,
0,0,0,0,0,0,0,0,0,0,0,0,0,0,0,0,0,0,0,0,0,0,0,0,0,0,0,0,0,0,0,0,0,0,0,0,1138,1138,1138,1138,1138,673,674,675,721,682,673,672,714,721,683,0,681,682,673,665,0,653,0,0,
0,0,0,0,0,0,0,0,0,0,0,0,0,0,0,0,0,0,0,0,0,0,0,0,0,0,0,0,0,0,0,0,0,0,0,0,1138,1138,1138,1138,1138,673,674,675,0,0,681,672,722,0,0,0,0,0,681,673,674,665,653,0,
0,0,0,0,0,0,0,0,0,0,0,0,0,0,0,0,0,0,0,0,0,0,0,0,0,0,0,0,1138,1138,1138,1138,1138,1138,1138,1138,1146,1146,1146,1146,1146,681,682,683,1484,0,0,680,0,0,0,0,0,0,0,673,674,673,665,666,
0,0,0,0,0,0,0,0,0,0,0,0,0,0,0,0,0,0,0,0,0,0,0,0,0,0,0,0,1138,1138,1138,1138,1138,1138,1138,1138,1154,1154,1154,1154,1154,0,0,0,1492,0,0,0,0,0,0,0,0,0,0,681,682,673,673,674,
0,0,0,0,0,0,844,845,846,0,0,0,0,0,0,0,0,0,0,0,0,0,0,0,0,0,0,0,1146,1146,1146,1146,1146,1146,1146,1146,1154,1154,1154,1154,1154,0,0,0,0,0,0,0,0,0,0,0,0,0,0,0,0,681,673,674,
0,0,0,0,0,0,852,853,854,0,0,0,0,0,0,0,0,0,0,0,0,0,0,0,0,0,0,0,1154,1154,1154,1154,1154,1154,1154,1154,1154,1154,1154,1154,1154,0,0,0,0,0,0,0,0,0,0,0,0,0,0,0,0,0,681,682,
0,0,0,0,0,0,852,853,854,0,0,0,0,0,0,0,0,0,0,0,0,0,0,0,0,0,0,0,1154,1154,1154,1154,1154,1154,1154,1154,1162,1162,1162,1162,1162,1463,1464,0,0,0,0,0,0,0,0,0,0,0,0,0,0,0,0,0,
0,0,0,0,0,0,852,853,854,0,0,0,0,0,0,0,0,0,0,0,0,0,0,0,0,0,0,0,1154,1154,1154,1154,1154,1154,1154,1154,962,962,962,962,963,1471,1472,0,0,0,0,0,0,0,0,0,0,0,0,0,0,0,0,0,
0,0,0,0,0,0,860,861,862,0,0,0,0,0,0,0,0,0,0,0,0,0,0,0,0,0,0,0,1162,1162,1162,1162,1162,1162,1162,1162,962,962,962,962,963,1479,1480,0,0,0,0,0,0,0,0,0,0,0,0,0,0,0,0,0,
0,0,0,0,0,0,0,0,0,0,0,0,0,0,0,0,0,0,0,0,0,0,0,0,0,0,0,0,961,962,968,962,962,962,962,962,962,962,968,962,963,1452,1434,0,0,0,0,0,0,0,0,0,0,0,0,0,0,0,0,0,
0,1518,1438,1301,1285,1518,0,0,0,0,0,807,808,0,0,0,0,0,0,0,0,0,0,0,0,0,0,0,969,970,976,970,970,970,970,970,970,970,976,970,971,1452,0,0,0,0,0,0,0,0,0,0,0,0,0,0,0,0,0,0,
1606,1526,1250,1251,1252,1526,813,0,0,0,0,815,816,0,0,1500,0,0,0,0,0,0,0,0,0,0,0,0,0,0,0,0,0,1437,1433,1433,0,0,0,0,0,0,0,0,0,0,0,0,0,0,0,0,0,0,0,0,0,0,0,0,
1414,1415,1416,0,0,0,0,0,0,0,0,0,0,0,0,1508,0,0,0,0,0,0,0,1484,0,0,806,0,0,0,0,0,0,0,0,0,0,0,0,0,0,0,0,0,0,0,0,0,0,0,0,0,0,0,0,0,0,0,0,0,
1430,1431,1432,0,0,0,0,0,0,0,0,0,0,0,0,0,0,0,0,0,0,0,0,1492,0,0,814,0,0,0,0,0,0,0,0,0,0,0,0,0,0,0,0,0,0,0,0,0,0,0,0,0,0,0,0,0,0,0,0,0,
0,0,0,0,0,0,0,0,0,0,0,0,0,0,0,0,0,0,841,842,842,842,842,843,0,0,0,0,0,0,0,0,0,0,0,0,0,0,0,0,0,0,0,0,0,0,0,0,0,0,0,0,0,0,0,0,0,0,0,0,
0,0,0,0,0,0,0,0,0,0,0,0,0,0,0,0,0,0,849,850,850,850,850,851,0,0,0,0,0,0,0,0,0,0,0,0,0,0,0,0,0,0,0,0,0,0,0,0,0,0,0,0,0,0,0,0,0,0,0,0,
0,0,0,0,0,0,0,0,0,0,0,0,0,0,0,0,0,1484,857,858,858,858,858,859,0,0,0,1139,1139,1139,1139,1139,1139,1139,0,0,0,0,0,0,0,0,0,0,0,0,0,0,0,0,0,0,0,0,0,0,0,0,0,0,
0,0,0,0,0,0,0,0,0,0,0,0,0,0,0,0,0,1492,0,0,0,0,0,0,0,0,0,1147,1147,1147,1147,1147,1147,1147,1461,1462,0,0,0,0,0,0,0,0,0,0,0,0,0,0,0,0,0,0,0,0,0,0,0,0,
0,0,0,0,0,0,0,0,0,0,0,0,0,0,0,0,0,0,0,0,0,0,0,0,0,0,0,1155,1155,1155,1155,1155,1155,1155,1469,1470,0,0,0,0,0,0,0,0,0,0,0,0,0,0,0,0,0,0,0,0,0,0,0,0,
0,0,0,0,0,0,0,0,0,0,0,0,0,0,0,0,0,0,0,0,0,0,0,0,0,0,1434,1155,1155,1155,1155,1155,1155,1155,1477,1478,0,0,0,0,0,0,0,0,0,0,0,0,0,0,0,0,0,0,0,0,0,0,0,0,
0,0,0,0,0,0,0,0,0,0,0,0,0,0,0,0,0,0,0,0,0,0,0,0,0,0,1434,1163,1163,1163,1163,1163,1163,1163,0,0,0,0,0,0,0,0,0,0,0,0,0,0,0,0,1484,0,0,0,0,1484,0,0,0,0,
0,0,0,0,0,0,0,0,0,0,0,0,0,0,0,0,0,0,0,0,0,0,0,0,0,0,0,993,994,994,994,994,994,995,0,0,0,0,0,0,0,0,0,0,0,0,0,0,0,0,1492,0,0,0,0,1492,0,0,0,0,
0,0,0,0,0,0,0,0,0,0,0,0,0,0,0,0,0,0,0,0,0,0,0,0,0,0,0,1001,1002,1002,1002,1002,1002,1003,0,0,0,0,0,0,0,1023,1023,1023,1023,1023,1023,1023,1023,1023,1023,1023,0,0,1023,1141,1141,1141,1141,1141,
0,0,0,0,0,0,0,0,0,0,0,0,0,0,0,0,0,0,0,0,0,0,0,0,0,0,0,0,0,0,0,0,0,0,0,0,0,0,0,1023,1023,1023,1013,1010,1010,1010,1010,1010,1010,1010,1010,1011,0,0,1009,1149,1149,1149,1149,1149,
0,0,0,0,0,0,0,0,0,0,0,0,0,0,0,0,0,0,0,0,0,0,0,0,0,0,0,0,0,0,0,0,0,0,0,0,0,0,1023,1023,1013,1011,1013,1010,1141,1141,1141,1141,1141,1141,1010,1011,1217,1218,1009,1157,1157,1157,1157,1157,
0,0,0,0,0,0,0,0,0,0,0,0,0,0,0,0,0,0,0,0,0,0,0,0,0,0,0,0,0,0,0,0,0,0,0,0,1023,1023,1023,1014,1013,1011,1021,1018,1149,1149,1149,1149,1149,1149,1018,1019,1225,1226,1017,1165,1165,1165,1165,1165,
0,0,0,0,0,0,0,0,0,0,0,0,0,0,0,0,0,0,0,0,0,0,0,0,0,0,0,0,0,0,0,0,0,0,0,1023,1023,1013,1011,1014,1021,1019,1463,1464,1157,1157,1157,1157,1157,1157,0,0,0,0,0,1165,1165,1165,1165,1165,
0,0,0,0,0,0,0,0,0,0,0,0,0,0,0,0,0,0,0,0,0,0,0,0,0,0,0,0,0,0,0,0,0,0,0,1023,1014,1013,1011,1022,0,0,1471,1472,1165,1165,1165,1165,1165,1165,0,0,0,0,0,1009,1010,1010,1010,1010,
0,0,0,0,0,0,0,0,0,0,0,0,0,0,0,0,0,0,0,644,1637,0,0,0,0,0,0,0,0,0,0,0,0,0,0,1023,1014,1021,1019,0,0,0,1479,1480,1165,1165,1165,1165,1165,1165,0,0,0,0,0,1009,1010,1010,1010,1010,
0,0,0,0,0,0,0,0,0,0,0,0,0,0,0,0,0,0,0,0,0,0,0,0,0,0,0,0,0,0,0,0,0,0,1023,1023,1022,0,0,0,0,0,0,0,1009,1010,1010,1010,1016,1011,0,0,0,0,1452,1009,1010,1016,1010,1010,
0,0,0,0,0,0,0,0,0,0,0,0,0,0,0,0,0,0,0,0,0,0,0,0,0,0,0,0,0,0,0,0,0,0,1023,1014,0,0,0,0,0,0,0,0,1017,1018,1018,1018,1024,1019,0,0,0,0,1452,1017,1018,1024,1018,1018,
0,0,0,0,0,0,0,0,0,0,0,0,0,0,0,0,0,0,0,0,0,0,0,0,0,0,0,0,0,0,0,0,0,0,1023,1141,1141,1141,1141,1141,0,0,0,0,0,0,0,0,0,0,0,0,0,0,0,0,0,0,1433,1433,
0,0,0,0,0,0,0,0,0,0,0,0,0,0,0,0,0,0,0,0,0,0,0,0,0,0,0,0,0,0,0,0,0,0,1023,1149,1149,1149,1149,1149,0,0,868,868,868,868,868,868,868,868,868,868,0,0,0,868,868,868,868,868,
0,0,0,0,0,0,0,0,0,0,0,0,0,0,0,0,0,0,0,0,0,0,0,0,0,0,0,0,0,0,0,0,0,0,1023,1157,1157,1157,1157,1157,0,0,868,0,0,0,0,0,0,0,0,0,826,825,828,0,0,0,0,0,
0,0,0,0,0,0,0,0,0,0,0,0,0,0,0,0,0,0,0,0,0,0,0,0,0,0,0,0,0,0,0,0,0,0,1023,1165,1165,1165,1165,1165,0,0,868,0,0,0,0,0,0,0,0,0,826,825,828,0,0,0,0,0,
0,0,0,0,0,0,0,0,0,0,0,0,0,0,0,0,0,0,0,0,0,0,0,0,0,0,0,0,0,0,0,0,0,0,1023,1165,1165,1165,1165,1165,0,0,868,0,0,0,0,0,0,0,0,0,826,825,828,0,0,0,0,0,
0,0,0,0,0,0,0,0,0,0,0,0,0,0,0,0,0,0,0,0,0,0,0,0,0,0,0,0,0,0,0,0,0,0,1023,1009,1010,1010,1010,1011,0,0,868,0,0,0,0,0,0,0,0,0,834,825,836,0,0,0,0,0,
0,0,0,0,0,0,0,0,0,0,0,0,0,0,0,0,0,0,0,0,0,0,0,0,0,0,0,0,0,0,0,0,0,0,1023,1017,1018,1018,1018,1019,0,0,868,0,0,0,0,868,868,868,868,868,0,0,0,868,868,868,868,868,
0,0,0,0,0,0,0,0,0,0,0,0,0,0,0,0,0,0,0,0,0,0,0,0,0,0,0,0,0,0,0,0,0,0,1023,0,0,0,0,0,0,0,868,0,0,0,0,868,0,0,0,0,0,0,0,0,0,0,0,0,
0,0,0,0,0,0,0,0,0,0,0,0,0,0,0,0,0,0,0,0,0,0,0,0,0,0,0,0,0,0,0,0,0,0,1023,1141,1141,1141,1141,1141,0,0,868,0,0,0,0,868,0,0,1520,0,0,0,0,0,1520,0,0,0,
0,0,0,0,0,0,0,0,0,0,0,0,0,0,0,0,0,0,0,0,0,0,0,0,0,0,0,0,0,0,0,0,0,0,1023,1149,1149,1149,1149,1149,0,0,0,817,817,817,817,0,0,0,0,0,1505,1506,1507,0,0,0,0,0,
0,0,0,0,0,0,0,0,0,0,0,0,0,0,0,0,0,0,0,0,0,0,0,0,0,0,0,0,0,0,0,0,0,0,1023,1157,1157,1157,1157,1157,0,0,0,825,825,825,825,0,0,0,0,0,1513,1514,1515,0,0,0,0,0,
0,0,0,0,0,0,0,0,0,0,0,0,0,0,0,0,0,0,0,0,0,0,0,0,0,0,0,0,0,0,0,0,0,0,1023,1165,1165,1165,1165,1165,0,0,868,833,833,833,833,868,0,0,0,0,1521,1522,1523,0,0,0,0,0,
0,0,0,0,0,0,0,0,0,0,0,0,0,0,0,0,0,0,0,0,0,0,0,0,0,0,0,0,0,0,0,0,0,0,1023,1165,1165,1165,1165,1165,0,0,868,818,819,819,820,868,0,0,1520,0,0,0,0,0,1520,0,0,0,
0,0,0,0,0,0,0,0,0,0,0,0,0,0,0,0,0,0,0,0,0,0,0,0,0,0,0,0,0,0,0,0,0,0,1023,1009,1010,1010,1010,1011,0,0,868,0,0,0,0,868,0,0,0,0,0,0,0,0,0,0,0,0
</data>
 </layer>
 <layer id="11" name="building_up" width="60" height="60">
  <data encoding="csv">
0,0,0,0,0,0,0,0,0,0,0,0,0,0,0,0,0,0,0,0,0,0,0,0,0,0,0,0,0,0,0,0,0,711,0,0,0,0,0,0,0,0,0,0,0,0,0,0,0,0,0,0,0,0,0,0,0,0,0,0,
0,0,0,0,0,0,0,0,0,0,0,0,0,0,0,0,0,0,0,0,0,0,0,0,0,0,0,0,0,0,0,0,0,719,0,0,0,0,0,0,0,0,0,0,0,0,0,0,0,0,0,0,0,0,0,0,0,0,0,0,
0,0,0,0,0,0,0,0,0,0,0,0,0,0,0,0,0,0,0,0,0,0,0,0,0,0,0,0,0,0,0,0,0,727,0,0,0,0,0,0,0,0,0,0,0,0,0,0,0,0,0,0,0,0,0,0,0,0,0,0,
0,0,0,0,0,0,0,0,0,0,0,0,0,0,0,0,0,0,0,0,0,0,0,0,0,0,0,0,0,0,0,0,0,0,0,0,0,0,0,0,0,0,0,0,0,0,0,0,0,0,0,0,0,0,0,0,0,0,0,0,
0,0,0,0,0,0,0,0,0,0,0,0,0,0,0,0,0,0,0,0,0,0,0,0,0,0,0,0,0,0,0,0,0,0,0,0,0,0,0,0,0,0,0,0,0,0,0,0,0,0,0,0,0,0,0,0,0,0,0,0,
0,0,0,0,0,0,0,0,0,0,0,0,0,0,0,0,0,0,0,0,0,0,0,0,0,0,0,0,0,0,0,0,0,0,0,0,0,0,0,0,0,0,0,0,0,0,0,0,0,0,0,0,0,0,0,0,0,0,0,0,
0,0,0,0,0,0,0,0,0,0,0,0,0,0,0,0,0,0,0,0,0,0,0,0,0,0,0,0,0,0,0,0,0,0,0,0,0,0,0,0,0,0,0,0,0,0,0,0,0,0,0,0,0,0,0,0,0,0,0,0,
0,0,0,0,0,0,0,0,0,0,0,0,0,0,0,0,0,0,0,0,0,0,0,0,0,0,0,0,0,0,0,0,0,0,0,0,0,0,0,0,0,0,0,0,0,0,0,0,0,0,0,0,0,0,0,0,0,0,0,0,
0,0,0,0,0,0,0,0,0,1169,0,1169,0,935,0,0,0,0,0,0,0,0,0,0,0,0,0,0,0,0,0,0,0,0,0,0,0,0,0,0,0,0,0,0,0,0,0,0,0,0,0,0,0,0,0,0,0,0,710,0,
0,0,0,0,0,0,0,0,0,1177,0,1177,0,0,0,0,0,0,0,0,0,0,0,0,0,0,0,0,0,0,0,0,0,0,0,0,0,0,0,0,0,0,0,0,0,0,0,0,0,0,0,0,0,0,0,0,0,0,718,0,
0,0,0,0,0,0,0,0,0,0,0,0,0,0,0,0,0,0,0,0,0,0,0,0,0,0,0,0,0,0,0,0,0,0,0,0,0,0,0,0,0,0,0,0,0,0,0,0,0,0,0,0,0,0,0,0,0,0,718,0,
0,0,0,0,0,0,0,0,0,0,0,0,0,0,0,0,0,0,0,0,0,0,0,0,0,0,0,0,0,0,0,0,0,0,0,0,0,0,0,0,0,0,0,0,0,0,0,0,0,0,0,670,0,0,0,0,0,0,698,0,
0,0,0,0,0,0,0,0,0,0,0,0,0,0,0,0,0,0,0,0,0,0,0,0,0,0,0,0,0,0,0,0,0,0,0,0,0,0,0,0,0,0,0,0,0,0,0,0,0,0,0,678,0,0,0,0,0,0,0,0,
0,0,0,0,0,0,0,0,0,0,0,0,0,0,0,0,0,0,0,0,0,0,0,0,0,0,0,0,0,0,0,0,0,0,0,0,0,0,0,0,0,0,0,0,688,0,0,0,0,0,0,678,0,0,0,0,0,0,0,0,
0,0,0,0,0,0,0,0,0,0,0,0,0,0,0,0,0,0,0,0,0,0,0,0,0,0,0,0,0,0,0,0,0,0,0,0,0,0,0,0,0,0,710,0,688,688,0,0,0,0,0,658,0,711,0,0,0,0,0,0,
0,0,0,0,0,0,0,0,0,0,0,0,0,0,0,0,0,0,0,0,0,0,0,0,0,0,0,0,0,0,0,0,0,0,0,0,0,0,0,0,0,0,718,0,0,688,0,0,0,0,0,0,0,727,0,0,0,0,0,0,
0,0,0,0,0,0,0,0,0,0,0,0,0,0,0,0,0,0,0,0,0,0,0,0,0,0,0,0,0,0,0,0,0,0,0,0,0,0,0,0,0,0,718,0,0,0,0,0,0,0,0,0,0,0,0,0,0,0,0,0,
0,0,0,0,0,0,0,0,0,0,0,0,0,0,0,0,0,0,0,0,0,0,0,0,0,0,0,0,0,0,0,0,0,0,0,0,0,0,0,0,0,0,698,0,0,0,0,0,0,0,0,0,0,0,0,0,0,0,0,0,
0,0,0,0,0,0,0,0,0,0,0,0,0,0,0,0,0,0,0,0,0,0,0,0,0,0,0,0,0,0,0,0,0,0,0,0,0,0,0,0,0,0,0,0,0,0,0,0,0,0,0,0,0,0,0,0,0,0,0,0,
0,0,0,0,0,0,0,0,0,0,0,0,0,0,0,0,0,0,0,0,0,0,0,0,0,0,0,0,0,0,0,0,0,0,1144,0,0,0,0,0,0,0,0,0,0,0,0,0,0,0,0,0,0,0,0,0,0,0,0,0,
0,0,0,0,0,0,0,0,0,0,0,0,0,0,0,0,0,0,0,0,0,0,0,0,0,0,0,0,0,0,0,0,0,0,1152,0,0,0,0,0,0,0,0,0,0,0,0,0,0,0,0,0,0,0,0,0,0,0,0,0,
0,0,0,0,0,0,0,0,0,0,0,0,0,0,0,0,0,0,0,0,0,0,0,0,0,0,0,0,0,0,0,0,0,0,1160,0,0,0,0,0,0,0,0,0,0,0,0,0,0,0,0,0,0,0,0,0,0,0,0,0,
0,1486,1486,1486,1486,1486,0,0,0,0,0,0,0,0,0,0,0,0,0,0,0,0,0,0,0,0,0,0,0,0,0,0,0,0,0,0,0,0,1172,0,0,0,0,0,0,0,0,0,0,0,0,0,0,0,0,0,0,0,0,0,
0,1494,1494,1494,1494,1494,0,0,0,0,0,0,0,0,0,0,0,0,0,0,0,0,0,0,0,0,0,0,0,0,0,0,0,0,0,0,0,0,1180,0,0,0,0,0,0,0,0,0,0,0,0,0,0,0,0,0,0,0,0,0,
0,1510,1502,1502,1502,1510,0,0,0,0,0,0,0,0,0,0,0,0,0,0,0,0,0,0,0,0,0,1233,0,1172,967,0,1172,1172,0,0,0,1172,967,1246,0,0,0,0,0,0,0,0,0,0,0,0,0,0,0,0,0,0,0,0,
0,0,0,0,1561,1235,0,0,0,0,0,0,0,0,0,0,0,0,0,0,0,0,0,0,0,0,0,0,0,1180,0,0,1180,1180,0,0,0,1180,0,0,0,0,0,0,0,0,0,0,0,0,0,0,0,0,0,0,0,0,0,0,
0,0,1558,1571,1587,1627,0,0,0,0,0,0,0,0,0,0,0,0,0,0,0,0,0,0,0,0,0,0,0,0,0,0,0,1630,0,0,0,0,0,0,0,0,0,0,0,0,0,0,0,0,0,0,0,0,0,0,0,0,0,0,
1563,1562,1604,0,0,1635,0,0,0,0,0,0,0,0,0,0,0,0,0,0,0,0,0,0,0,0,0,0,0,0,0,0,0,0,0,0,0,0,0,0,0,0,0,0,0,0,0,0,0,0,0,0,0,0,0,0,0,0,0,0,
1549,1629,1638,0,0,0,0,0,0,0,0,0,0,0,0,0,0,0,0,0,0,0,0,0,0,0,0,0,0,0,0,0,0,0,0,0,0,0,0,0,0,0,0,0,0,0,0,0,0,0,0,0,0,0,0,0,0,0,0,0,
0,0,0,0,0,0,0,0,0,0,0,0,0,0,0,0,0,0,0,0,0,0,0,0,0,0,0,0,0,0,0,0,0,0,0,0,0,0,0,0,0,0,0,0,0,0,0,0,0,0,0,0,0,0,0,0,0,0,0,0,
0,0,0,0,0,0,0,0,0,0,0,0,0,0,0,0,0,0,0,0,0,0,0,0,0,0,0,0,0,0,0,0,0,0,0,0,0,0,0,0,0,0,0,0,0,0,0,0,0,0,0,0,0,0,0,0,0,0,0,0,
0,0,0,0,0,0,0,0,0,0,0,0,0,0,0,0,0,0,0,0,0,0,0,0,0,0,0,0,0,0,0,0,0,0,0,0,0,0,0,0,0,0,0,0,0,0,0,0,0,0,0,0,0,0,0,0,0,0,0,0,
0,0,0,0,0,0,0,0,0,0,0,0,0,0,0,0,0,0,0,0,0,0,0,0,0,0,0,0,1144,0,0,0,0,0,0,0,0,0,0,0,0,0,0,0,0,0,0,0,0,0,0,0,0,0,0,0,0,0,0,0,
0,0,0,0,0,0,0,0,0,0,0,0,0,0,0,0,0,0,0,0,0,0,0,0,0,0,0,0,1152,0,0,0,0,0,0,0,0,0,0,0,0,0,0,0,0,0,0,0,0,0,0,0,0,0,0,0,0,0,0,0,
0,0,0,0,0,0,0,0,0,0,0,0,0,0,0,0,0,0,0,0,0,0,0,0,0,0,0,0,1160,0,0,0,0,0,1459,1460,0,0,0,0,0,0,0,0,0,0,0,0,0,0,0,0,0,0,0,0,0,0,0,0,
0,0,0,0,0,0,0,0,0,0,0,0,0,0,0,0,0,0,0,0,0,0,0,0,0,0,0,0,0,0,0,0,0,0,1467,1468,0,0,0,0,0,0,0,0,0,0,0,0,0,0,0,0,0,0,0,0,0,0,0,0,
0,0,0,0,0,0,0,0,0,0,0,0,0,0,0,0,0,0,0,0,0,0,0,0,0,0,0,0,1170,1170,0,1170,1170,0,1475,1476,0,0,0,0,0,0,0,0,0,0,0,0,0,0,0,0,0,0,0,0,0,0,0,0,
0,0,0,0,0,0,0,0,0,0,0,0,0,0,0,0,0,0,0,0,0,0,0,0,0,0,0,0,1178,1178,0,1178,1178,0,1437,1445,0,0,0,0,0,0,0,0,0,0,0,0,0,0,0,0,0,0,0,0,0,0,0,0,
0,0,0,0,0,0,0,0,0,0,0,0,0,0,0,0,0,0,0,0,0,0,0,0,0,0,0,0,0,0,0,0,0,0,0,0,0,0,0,0,0,0,0,0,0,0,0,0,0,0,0,0,0,0,0,0,0,0,0,0,
0,0,0,0,0,0,0,0,0,0,0,0,0,0,0,0,0,0,0,0,0,0,0,0,0,0,0,0,0,0,0,0,0,0,0,0,0,0,0,0,0,0,0,0,0,0,0,0,0,0,0,0,0,0,0,0,0,0,0,0,
0,0,0,0,0,0,0,0,0,0,0,0,0,0,0,0,0,0,0,0,0,0,0,0,0,0,0,0,0,0,0,0,0,0,0,0,0,0,0,0,0,0,0,0,1144,0,0,0,0,0,0,1485,0,0,1485,0,0,0,0,0,
0,0,0,0,0,0,0,0,0,0,0,0,0,0,0,0,0,0,0,0,0,0,0,0,0,0,0,0,0,0,0,0,0,0,0,0,0,0,0,0,0,0,0,0,1160,0,0,0,0,0,0,1493,0,0,1493,0,0,0,0,0,
0,0,0,0,0,0,0,0,0,0,0,0,0,0,0,0,0,0,0,0,0,0,0,0,0,0,0,0,0,0,0,0,0,0,0,0,0,0,0,0,0,0,0,0,0,0,0,0,0,0,0,0,0,0,1241,0,1171,1171,0,1171,
0,0,0,0,0,0,0,0,0,0,0,0,0,0,0,0,0,0,0,0,0,0,0,0,0,0,0,0,0,0,0,0,0,0,0,0,0,0,0,0,0,0,1463,1464,0,0,0,0,0,0,0,0,0,0,1237,0,1179,1179,0,1179,
0,0,0,0,0,0,0,0,0,0,0,0,0,0,0,0,0,0,0,0,0,0,0,0,0,0,0,0,0,0,0,0,0,0,0,0,0,0,0,0,0,0,1471,1472,0,1171,1171,0,1015,0,0,0,0,0,0,0,0,1015,1171,1171,
0,0,0,0,0,0,0,0,0,0,0,0,0,0,0,0,0,0,0,0,0,0,0,0,0,0,0,0,0,0,0,0,0,0,0,0,0,0,0,0,0,0,1479,1480,0,1179,1179,0,0,0,0,0,0,0,0,0,0,0,1179,1179,
0,0,0,0,0,0,0,0,0,0,0,0,0,0,0,0,0,0,0,0,0,0,0,0,0,0,0,0,0,0,0,0,0,0,0,0,0,0,0,0,0,0,0,0,0,0,0,0,0,0,0,0,0,0,0,0,0,0,0,0,
0,0,0,0,0,0,0,0,0,0,0,0,0,0,0,0,0,0,0,0,0,0,0,0,0,0,0,0,0,0,0,0,0,0,0,1144,0,0,0,0,0,0,0,0,0,0,0,0,0,0,0,0,0,0,0,0,0,0,0,0,
0,0,0,0,0,0,0,0,0,0,0,0,0,0,0,0,0,0,0,0,0,0,0,0,0,0,0,0,0,0,0,0,0,0,0,1160,0,0,0,0,0,0,0,0,0,0,0,0,0,0,0,0,0,0,0,0,0,0,0,0,
0,0,0,0,0,0,0,0,0,0,0,0,0,0,0,0,0,0,0,0,0,0,0,0,0,0,0,0,0,0,0,0,0,0,0,0,0,0,0,0,0,0,0,0,0,0,0,0,0,0,0,0,0,0,0,0,0,0,0,0,
0,0,0,0,0,0,0,0,0,0,0,0,0,0,0,0,0,0,0,0,0,0,0,0,0,0,0,0,0,0,0,0,0,0,0,0,0,0,0,0,0,0,0,0,0,0,0,0,0,0,0,0,0,0,0,0,0,0,0,0,
0,0,0,0,0,0,0,0,0,0,0,0,0,0,0,0,0,0,0,0,0,0,0,0,0,0,0,0,0,0,0,0,0,0,0,0,1171,0,1171,0,0,0,0,0,0,0,0,0,0,0,0,0,0,0,0,0,0,0,0,0,
0,0,0,0,0,0,0,0,0,0,0,0,0,0,0,0,0,0,0,0,0,0,0,0,0,0,0,0,0,0,0,0,0,0,0,0,1179,0,1179,0,0,0,0,0,0,0,0,0,0,0,0,0,0,0,0,0,0,0,0,0,
0,0,0,0,0,0,0,0,0,0,0,0,0,0,0,0,0,0,0,0,0,0,0,0,0,0,0,0,0,0,0,0,0,0,0,0,0,0,0,0,0,0,0,0,0,0,0,0,0,0,0,0,0,0,0,0,0,0,0,0,
0,0,0,0,0,0,0,0,0,0,0,0,0,0,0,0,0,0,0,0,0,0,0,0,0,0,0,0,0,0,0,0,0,0,0,0,0,0,0,0,0,0,0,0,0,0,0,0,0,0,0,0,0,0,0,0,0,0,0,0,
0,0,0,0,0,0,0,0,0,0,0,0,0,0,0,0,0,0,0,0,0,0,0,0,0,0,0,0,0,0,0,0,0,0,0,1144,0,0,0,0,0,0,0,0,0,0,0,0,0,0,0,0,0,0,0,0,0,0,0,0,
0,0,0,0,0,0,0,0,0,0,0,0,0,0,0,0,0,0,0,0,0,0,0,0,0,0,0,0,0,0,0,0,0,0,0,1160,0,0,0,0,0,0,0,0,0,0,0,0,0,0,0,0,0,0,0,0,0,0,0,0,
0,0,0,0,0,0,0,0,0,0,0,0,0,0,0,0,0,0,0,0,0,0,0,0,0,0,0,0,0,0,0,0,0,0,0,0,0,0,0,0,0,0,0,0,0,0,0,0,0,0,0,0,0,0,0,0,0,0,0,0,
0,0,0,0,0,0,0,0,0,0,0,0,0,0,0,0,0,0,0,0,0,0,0,0,0,0,0,0,0,0,0,0,0,0,0,0,0,0,0,0,0,0,0,0,0,0,0,0,0,0,0,0,0,0,0,0,0,0,0,0,
0,0,0,0,0,0,0,0,0,0,0,0,0,0,0,0,0,0,0,0,0,0,0,0,0,0,0,0,0,0,0,0,0,0,0,0,1171,0,1171,0,0,0,0,0,0,0,0,0,0,0,0,0,0,0,0,0,0,0,0,0
</data>
 </layer>
 <layer id="9" name="tree" width="60" height="60">
  <data encoding="csv">
594,585,586,641,585,610,609,586,585,610,594,585,586,629,593,594,0,585,610,594,585,586,625,0,0,0,0,0,0,0,620,0,0,0,0,593,594,625,0,0,633,641,0,0,0,0,642,0,585,586,0,641,0,0,0,0,0,0,641,0,
585,610,594,626,593,609,610,594,593,594,621,593,594,0,625,585,586,593,609,586,593,609,586,0,0,0,0,0,0,0,0,0,0,0,0,617,0,585,586,0,0,0,585,586,0,641,0,0,593,594,0,0,0,0,0,0,0,0,0,0,
593,594,0,625,0,593,594,0,0,630,625,0,0,626,0,601,602,585,610,609,586,593,594,0,0,0,0,0,0,0,0,0,0,0,0,0,626,593,609,586,0,0,593,609,586,0,585,586,617,0,0,0,621,0,0,0,0,0,0,0,
630,0,0,0,0,0,0,0,0,0,0,0,0,0,0,593,594,593,609,610,594,623,624,0,0,0,0,0,0,0,0,618,0,587,588,0,0,585,610,594,0,0,0,593,594,0,593,594,0,0,0,0,0,0,0,0,0,0,0,0,
586,0,0,0,0,0,0,0,0,0,0,0,0,0,0,0,625,621,593,594,0,626,0,0,645,0,0,0,0,0,0,0,587,612,596,0,0,593,594,0,0,0,0,0,617,0,633,0,0,0,0,0,0,0,0,585,586,0,0,641,
594,0,0,0,0,0,0,0,0,0,0,0,0,0,0,0,0,626,0,0,585,586,0,621,630,0,0,0,0,0,0,0,595,611,588,0,0,0,641,626,617,0,0,0,0,0,0,0,0,0,585,586,0,0,0,593,609,586,0,0,
626,0,0,0,0,0,0,0,0,0,0,0,0,0,0,0,0,0,0,625,593,609,586,626,0,0,0,0,0,0,0,0,0,595,596,0,585,586,0,0,633,625,0,0,0,0,0,0,585,586,593,594,0,0,0,0,593,594,0,633,
621,0,0,0,0,0,0,0,0,0,0,0,0,0,0,0,0,0,0,0,585,610,594,641,0,0,0,0,0,0,0,0,0,0,0,625,593,609,586,0,0,621,585,586,0,0,0,585,610,594,642,0,626,585,586,0,0,0,0,0,
625,0,0,0,0,0,0,0,0,0,0,0,0,0,0,0,0,0,0,629,601,602,625,0,0,0,0,0,0,0,0,0,0,0,618,0,0,593,594,585,586,0,593,609,586,0,585,610,609,586,0,0,585,610,594,0,0,0,0,0,
586,0,0,0,0,0,0,0,0,0,0,0,0,0,0,0,0,0,0,0,593,594,0,0,0,0,0,0,0,0,0,0,0,0,0,620,0,0,0,593,594,0,626,601,602,585,610,609,610,594,0,0,593,594,585,586,0,0,0,0,
594,0,0,0,0,626,0,0,0,0,0,0,0,0,0,0,0,0,626,621,0,0,0,0,0,0,0,0,0,0,0,0,0,587,588,625,0,0,0,0,617,0,641,601,602,593,594,593,594,0,0,641,625,617,593,594,0,0,0,0,
626,625,0,0,0,0,0,0,626,0,0,0,0,0,0,0,0,0,621,585,586,0,0,0,0,0,0,0,0,0,587,588,618,595,596,617,585,586,0,0,0,0,0,593,594,625,0,0,0,0,0,0,0,0,0,626,617,0,0,0,
586,621,585,586,0,0,0,0,0,0,0,0,0,0,0,0,585,586,585,610,594,0,0,0,0,0,0,0,0,0,595,611,588,0,585,586,593,609,586,0,625,0,0,0,0,0,585,586,0,617,0,0,0,625,0,0,0,633,0,621,
609,586,593,609,586,629,0,0,0,0,0,0,0,0,0,585,610,609,610,594,0,0,0,0,0,0,0,0,0,626,0,595,596,585,610,609,586,593,594,0,621,626,0,625,0,0,593,594,0,0,0,0,0,0,0,585,586,0,0,0,
593,594,585,610,609,586,626,0,0,0,0,0,0,0,0,593,594,593,594,0,0,0,0,0,0,0,0,0,587,588,617,0,585,610,609,610,594,626,585,586,0,0,0,0,0,0,0,0,0,0,0,0,0,0,0,593,594,626,585,586,
586,625,593,609,610,594,0,0,0,0,0,585,586,626,621,625,0,0,0,0,0,0,0,0,0,0,0,0,595,596,625,585,610,594,593,594,0,0,0,0,0,0,0,0,0,0,0,0,0,0,0,0,0,0,0,0,625,585,610,594,
609,586,585,610,594,625,0,0,0,0,585,610,594,629,0,0,0,0,0,0,0,0,0,0,0,0,0,0,0,585,586,593,594,585,586,625,0,0,0,0,0,0,0,0,0,0,0,0,585,586,0,626,0,585,586,0,0,593,594,625,
593,594,593,594,585,586,0,0,0,0,593,594,0,0,0,0,0,0,0,0,0,0,0,0,0,0,0,0,0,0,0,0,0,0,0,0,0,0,0,0,0,0,0,0,0,0,625,0,593,609,586,0,585,610,594,0,0,0,0,0,
0,0,630,0,593,594,0,0,0,621,0,625,0,0,0,0,0,0,0,0,0,0,0,620,0,0,618,0,0,0,0,0,0,0,0,0,0,0,0,0,0,0,0,0,0,0,625,0,617,593,594,625,593,609,586,0,0,0,0,0,
0,0,0,0,0,0,0,0,0,0,0,0,641,0,0,0,0,0,0,0,0,0,0,0,0,585,586,626,0,0,0,0,0,0,0,0,0,0,0,0,0,625,0,0,0,0,585,586,0,0,0,0,0,593,594,0,585,586,0,0,
0,0,0,0,0,0,0,0,0,0,0,0,0,0,0,0,0,0,0,0,0,0,0,0,0,593,594,0,0,0,0,0,0,0,0,0,0,0,0,0,0,626,0,0,626,0,593,609,586,0,0,585,586,0,617,585,610,609,586,0,
0,0,0,0,0,0,0,0,0,0,0,0,0,0,0,0,0,0,0,0,0,0,620,585,586,0,0,625,0,0,0,0,0,0,0,0,0,0,0,0,0,0,0,625,0,617,0,593,594,0,625,593,594,585,586,593,609,610,594,0,
617,0,0,0,0,0,0,0,0,585,586,0,0,0,0,0,0,0,0,0,0,0,585,610,594,0,617,0,0,0,0,0,0,0,0,0,0,0,0,0,0,0,0,0,0,585,586,0,0,0,0,0,585,610,594,617,593,594,0,617,
625,0,0,0,0,0,0,0,0,593,594,625,585,586,0,0,0,0,0,0,0,625,593,594,0,0,0,0,0,0,0,0,0,0,0,0,0,0,0,0,0,0,0,0,0,593,594,0,0,0,626,0,593,594,0,626,0,625,585,586,
621,0,0,0,0,0,0,0,0,0,617,626,593,609,586,0,0,0,0,0,0,0,0,585,586,626,0,0,0,0,0,0,0,0,0,0,0,0,0,0,0,0,0,0,626,0,0,0,0,585,586,0,0,0,0,585,586,0,593,594,
0,0,0,0,0,0,0,0,0,0,0,0,0,593,594,625,585,586,0,0,0,0,0,593,594,0,0,0,0,0,0,0,0,0,0,0,0,0,0,0,0,0,0,0,0,0,0,585,586,593,609,586,0,0,0,593,594,0,625,585,
0,0,0,0,0,0,0,0,0,0,0,0,0,626,617,0,593,594,0,0,0,0,626,0,0,0,0,0,0,0,0,0,0,0,0,0,0,0,0,0,0,626,0,0,585,586,0,593,594,585,610,594,0,0,0,617,0,626,585,610,
0,0,0,0,0,0,0,0,0,0,0,0,0,0,0,0,626,617,0,0,0,0,0,0,0,625,0,0,626,0,0,0,0,0,0,0,0,0,0,0,0,0,617,585,610,594,626,0,617,593,594,625,0,626,0,0,625,0,593,594,
0,0,0,0,0,0,0,0,0,0,0,0,0,0,0,0,0,0,0,0,0,0,0,0,0,0,0,0,0,0,0,0,0,0,0,0,0,0,0,0,0,0,0,593,594,0,0,0,0,0,0,0,0,625,0,0,0,585,586,0,
0,0,0,0,0,626,0,625,0,0,0,0,0,0,0,0,0,0,0,0,0,0,0,0,0,0,0,0,0,0,0,0,0,0,0,0,0,0,0,0,0,0,0,0,0,625,0,585,586,0,0,0,0,0,0,585,586,593,594,585,
617,585,586,0,0,621,0,585,586,0,0,0,0,0,0,0,0,0,0,0,0,0,0,0,0,0,0,0,0,0,0,0,0,0,0,0,0,0,0,0,0,0,0,0,0,0,0,593,594,0,617,0,585,586,0,593,594,0,0,593,
585,610,594,625,585,586,0,593,594,585,586,0,0,0,0,0,0,0,0,0,0,0,0,0,0,0,0,0,0,0,0,0,0,0,0,0,0,0,0,0,0,0,0,0,0,626,0,0,0,625,0,0,593,609,586,0,0,625,585,586,
593,594,626,0,593,609,586,0,617,593,594,0,0,585,586,0,0,0,0,0,0,0,0,0,585,586,0,0,0,0,0,0,0,0,0,0,0,0,0,0,0,0,0,0,0,0,0,0,0,0,0,0,626,593,594,626,0,585,610,594,
0,0,585,586,585,610,594,629,585,586,626,585,586,593,609,586,625,0,617,0,0,0,625,585,610,594,626,0,0,0,0,0,0,0,0,0,0,0,0,0,0,0,0,0,0,0,0,0,0,0,0,0,0,0,0,0,0,593,609,586,
625,585,610,594,593,594,585,586,593,594,0,593,594,585,610,594,585,586,0,0,0,0,0,593,594,0,0,0,0,0,0,0,0,0,0,0,0,617,585,586,0,0,0,0,0,0,0,0,0,0,0,0,0,0,0,0,625,617,593,594,
626,593,594,617,0,585,610,594,0,625,585,586,0,593,594,625,593,594,0,0,0,0,0,625,0,0,0,0,0,0,0,0,0,0,0,0,0,0,593,594,0,626,0,0,0,0,0,0,0,0,0,0,0,0,0,0,0,585,586,0,
0,0,0,585,586,593,594,617,621,0,593,594,585,586,0,585,586,0,0,0,0,0,0,0,585,586,0,0,0,0,0,0,0,0,0,0,0,626,0,0,0,0,0,617,0,0,0,625,0,0,0,0,0,0,0,0,0,593,594,626,
586,0,0,593,594,0,0,0,585,586,0,617,593,594,0,593,594,0,0,0,0,0,0,0,593,594,625,0,0,585,586,0,0,0,0,0,0,0,0,625,0,0,0,0,0,0,0,0,0,0,0,0,0,0,0,0,0,0,0,0,
594,0,625,0,0,626,0,585,610,594,0,0,0,629,621,0,0,0,0,0,0,0,0,0,0,0,0,0,617,593,594,0,585,586,0,0,0,0,0,0,0,0,0,0,0,0,0,0,0,0,0,0,0,0,0,0,0,0,0,0,
617,0,621,0,0,0,0,593,594,0,0,625,585,586,0,626,0,0,0,0,0,0,0,0,0,0,0,0,0,626,0,585,610,594,0,625,0,0,0,0,0,0,0,0,0,0,0,0,0,0,0,0,0,0,0,0,0,0,0,0,
0,626,0,629,0,0,0,0,0,0,0,0,593,594,617,0,0,0,585,586,585,586,0,0,0,0,0,0,0,0,0,593,594,0,0,0,0,0,0,0,0,0,0,0,0,0,0,0,0,0,0,0,0,0,0,0,0,0,0,0,
585,586,0,0,0,585,586,0,626,585,586,0,0,0,0,0,0,585,610,594,593,609,586,0,0,0,0,0,0,629,0,0,0,0,0,0,0,0,0,0,0,0,0,0,0,0,0,0,0,0,0,0,0,0,0,0,0,0,0,0,
593,594,585,586,0,593,594,0,0,593,594,0,0,0,0,0,585,610,594,0,0,593,594,0,0,0,0,0,0,617,0,0,626,585,586,0,0,0,0,0,0,0,0,0,0,0,0,0,0,0,0,0,0,0,0,0,0,0,0,0,
0,585,610,594,0,0,621,0,0,0,617,0,625,0,0,0,593,594,0,0,0,0,0,0,626,0,0,0,0,0,0,0,0,593,594,0,0,0,0,0,0,0,0,0,0,0,0,0,0,0,0,0,0,0,0,0,0,0,0,0,
0,593,594,0,617,625,0,626,0,646,0,640,0,0,0,585,586,0,0,0,0,0,0,585,586,0,0,0,0,585,586,626,0,0,0,0,0,0,0,0,0,0,0,0,0,0,0,0,0,0,0,0,0,0,0,0,0,0,0,0,
628,0,585,586,0,0,585,586,0,0,0,648,0,0,0,593,609,586,0,0,0,0,585,610,594,0,0,0,0,593,594,0,625,0,0,0,0,0,0,0,0,0,0,0,0,0,0,0,0,0,0,0,0,0,0,0,0,0,0,0,
592,0,593,594,585,586,593,594,0,621,629,1452,0,0,0,617,593,609,586,0,585,586,593,594,0,0,0,0,0,0,0,0,585,586,0,0,0,0,0,0,0,0,0,0,0,0,0,0,0,0,0,0,0,0,0,0,0,0,0,0,
600,0,0,0,593,594,626,0,585,586,626,0,0,0,0,0,625,593,594,630,593,594,0,0,0,0,0,0,626,0,0,617,601,602,0,0,0,0,0,0,0,0,0,0,0,0,0,0,0,0,0,0,0,0,0,0,0,0,0,0,
0,620,0,625,0,617,0,585,610,594,0,0,0,0,0,0,0,0,0,0,0,0,0,0,0,585,586,617,0,0,585,586,593,594,0,0,0,0,0,0,0,0,0,0,0,0,0,0,0,0,0,0,0,0,0,0,0,0,0,0,
0,591,592,0,621,0,0,593,594,0,0,0,0,0,0,0,0,0,0,0,0,0,0,0,0,593,609,586,625,0,593,594,0,629,0,0,0,0,0,0,0,0,0,0,0,0,0,0,0,0,0,0,0,0,0,0,0,0,0,0,
591,616,600,0,0,585,586,626,0,617,0,0,0,0,0,0,0,0,0,0,0,0,585,586,585,586,593,594,0,0,0,0,625,0,0,0,0,0,0,0,0,0,0,0,0,0,0,0,0,0,0,0,0,0,0,0,0,0,0,0,
599,600,0,627,0,593,594,585,586,0,0,0,0,0,0,0,0,0,0,0,0,585,610,594,593,594,0,0,0,0,626,0,585,586,0,0,0,0,0,0,0,0,0,0,0,0,0,0,0,0,0,0,0,0,0,0,0,0,0,0,
0,0,0,591,592,0,0,593,594,0,0,0,0,0,0,0,0,0,585,586,625,593,594,617,0,0,625,0,0,585,586,0,593,594,0,0,0,0,0,0,0,0,0,0,0,0,0,0,0,0,0,0,0,0,0,0,0,0,0,0,
0,628,0,599,600,0,591,592,628,0,0,0,0,0,0,0,0,0,593,594,629,626,0,0,0,585,586,0,585,610,594,0,625,617,0,0,0,0,0,0,0,0,0,0,0,0,0,0,0,0,0,0,0,0,0,0,0,0,0,0,
0,0,0,0,0,620,599,600,0,0,0,0,0,0,0,591,592,625,0,0,0,0,0,585,586,593,594,0,593,594,0,0,0,0,0,0,0,0,0,0,0,0,0,0,0,0,0,0,0,0,0,0,0,0,0,0,0,0,0,0,
0,0,0,0,0,0,0,627,591,592,0,0,0,0,0,599,615,592,0,585,586,625,585,610,609,586,0,626,0,0,629,585,586,0,0,0,0,0,0,0,0,0,0,0,0,0,0,0,0,0,0,0,0,0,0,0,0,0,0,0,
0,0,0,0,0,0,0,0,599,600,0,0,0,0,0,0,599,600,0,593,594,0,593,609,610,609,586,0,0,625,0,593,609,586,0,0,0,0,0,0,0,0,0,0,0,0,0,0,0,0,0,0,0,0,0,0,0,0,0,0,
0,0,0,0,0,0,0,0,0,0,0,0,0,0,0,0,0,0,627,0,591,592,617,593,594,593,594,585,586,0,617,0,593,594,0,0,0,0,0,0,0,0,0,0,0,0,0,0,0,0,0,0,0,0,0,0,0,0,0,0,
0,0,0,0,0,0,0,628,0,0,620,0,0,0,0,0,620,0,0,0,599,600,0,0,625,0,629,593,609,586,0,0,626,0,0,0,0,0,0,0,0,0,0,0,0,0,0,0,0,0,0,0,0,0,0,0,0,0,0,0,
0,0,0,0,0,0,0,0,0,0,0,0,0,0,0,0,0,0,0,0,628,0,620,0,0,626,617,0,593,594,0,585,586,0,0,0,0,0,0,0,0,0,0,0,0,0,0,0,0,0,0,0,0,0,0,0,0,0,0,0
</data>
 </layer>
 <objectgroup id="18" name="SafeZones">
  <object id="42" x="225.333" y="192">
   <polygon points="0,0 -22.6667,-4 -21.3333,28 -1.33333,28"/>
  </object>
  <object id="43" x="254.667" y="182.667">
   <polygon points="0,0 -32,-4 -32,8"/>
  </object>
  <object id="44" x="74.6667" y="190.667">
   <polygon points="0,0 1.33333,26.6667 -16,26.6667 -13.3333,-4"/>
  </object>
  <object id="51" x="1336" y="454.667" width="48" height="149.333"/>
  <object id="52" x="1268" y="48" width="44" height="45.3333"/>
  <object id="53" x="1048" y="4" width="60" height="94.6667"/>
  <object id="54" x="1132" y="5.33333" width="38.6667" height="34.6667"/>
  <object id="55" x="234.667" y="88" width="16" height="104"/>
  <object id="56" x="5.33333" y="68" width="49.3333" height="38.6667"/>
  <object id="58" x="4" y="216" width="28" height="56"/>
  <object id="59" x="2.66667" y="152" width="22.6667" height="56"/>
  <object id="60" x="1.33333" y="313.333" width="17.3333" height="58.6667"/>
  <object id="61" x="30.6667" y="380" width="32" height="36"/>
  <object id="62" x="498.667" y="108" width="29.3333" height="30.6667"/>
  <object id="71" x="1618.67" y="368" width="61.3333" height="149.333"/>
  <object id="72" x="1848" y="270.667" width="49.3333" height="145.333"/>
  <object id="73" x="174.667" y="600" width="134.667" height="170.667"/>
  <object id="74" x="557.333" y="912" width="225.333" height="148"/>
  <object id="75" x="736" y="1369.33" width="264" height="105.333"/>
 </objectgroup>
 <objectgroup id="19" name="BoxSpawns">
  <object id="78" x="1308" y="1396">
   <point/>
  </object>
  <object id="79" x="1156" y="1712">
   <point/>
  </object>
  <object id="80" x="572" y="1408">
   <point/>
  </object>
  <object id="81" x="124" y="388">
   <point/>
  </object>
  <object id="82" x="508" y="156">
   <point/>
  </object>
  <object id="83" x="1888" y="44">
   <point/>
  </object>
  <object id="84" x="1164" y="84">
   <point/>
  </object>
  <object id="85" x="872" y="624">
   <point/>
  </object>
  <object id="86" x="1336" y="664">
   <point/>
  </object>
  <object id="87" x="1816" y="1488">
   <point/>
  </object>
  <object id="88" x="684" y="1792">
   <point/>
  </object>
  <object id="89" x="36" y="1468">
   <point/>
  </object>
  <object id="90" x="24" y="932">
   <point/>
  </object>
  <object id="91" x="436" y="864">
   <point/>
  </object>
  <object id="92" x="1292" y="392">
   <point/>
  </object>
  <object id="93" x="1120" y="1024">
   <point/>
  </object>
  <object id="94" x="1840" y="764">
   <point/>
  </object>
  <object id="95" x="1892" y="1896">
   <point/>
  </object>
  <object id="97" x="96" y="96">
   <point/>
  </object>
  <object id="98" x="952" y="196">
   <point/>
  </object>
  <object id="99" x="840" y="1220">
   <point/>
  </object>
  <object id="100" x="628" y="472">
   <point/>
  </object>
  <object id="101" x="1804" y="1152">
   <point/>
  </object>
  <object id="102" x="272" y="1140">
   <point/>
  </object>
  <object id="103" x="1740" y="416">
   <point/>
  </object>
 </objectgroup>
 <objectgroup id="20" name="PlayerSpawns">
  <object id="104" x="997.403" y="872.727">
   <point/>
  </object>
  <object id="105" x="380.588" y="347.779">
   <point/>
  </object>
  <object id="106" x="114.833" y="905.537">
   <point/>
  </object>
  <object id="107" x="1440.33" y="1791.39">
   <point/>
  </object>
  <object id="108" x="1722.49" y="1591.25">
   <point/>
  </object>
  <object id="109" x="882.57" y="1771.7">
   <point/>
  </object>
  <object id="110" x="275.598" y="1453.45">
   <point/>
  </object>
  <object id="111" x="1610.94" y="331.374">
   <point/>
  </object>
  <object id="112" x="761.176" y="82.0232">
   <point/>
  </object>
  <object id="113" x="1548.6" y="1154.89">
   <point/>
  </object>
 </objectgroup>
</map>
